samples/LUTs/3D/display_view/acescg_to_srgb_displayview_33.cube
LUT_3D_SIZE 9
0.000000 0.000000 0.000000
0.237708 0.000000 0.003549
0.417581 0.000000 0.011710
0.543597 0.000000 0.020062
0.639332 0.000000 0.027038
0.715984 0.000000 0.032472
0.779048 0.000000 0.036364
0.831431 0.000000 0.038667
0.877157 0.000000 0.040252
0.000000 0.238206 0.072906
0.282021 0.279724 0.000000
0.439458 0.292393 0.000000
0.552942 0.297505 0.000000
0.642156 0.297731 0.000000
0.715448 0.294998 0.000000
0.776434 0.289931 0.000000
0.829338 0.283860 0.000000
0.875938 0.277192 0.000000
0.000000 0.390343 0.139128
0.259121 0.418127 0.000000
0.429799 0.426557 0.000000
0.539981 0.425664 0.000000
0.626279 0.423624 0.000000
0.697378 0.420148 0.000000
0.757337 0.415344 0.000000
0.809375 0.409898 0.000000
0.855317 0.404049 0.000000
0.000000 0.487616 0.180953
0.211510 0.512578 0.000000
0.403160 0.517018 0.000000
0.522763 0.518938 0.000000
0.608033 0.512944 0.000000
0.678120 0.507393 0.000000
0.737734 0.501714 0.000000
0.789633 0.495882 0.000000
0.835456 0.489872 0.000000
0.000000 0.556930 0.210294
0.138912 0.582897 0.000000
0.370043 0.585084 0.000000
0.495081 0.585603 0.000000
0.588906 0.584672 0.000000
0.658553 0.576446 0.000000
0.717650 0.569120 0.000000
0.769618 0.562632 0.000000
0.815601 0.556262 0.000000
0.000000 0.609645 0.232269
0.000000 0.638084 0.000000
0.332505 0.638887 0.000000
0.465197 0.638410 0.000000
0.561558 0.637040 0.000000
0.639151 0.634612 0.000000
0.698025 0.625379 0.000000
0.749515 0.617495 0.000000
0.795733 0.610684 0.000000
0.000000 0.651497 0.249470
0.000000 0.677841 0.071645
0.290756 0.682845 0.000000
0.434029 0.681720 0.000000
0.533501 0.679859 0.000000
0.612679 0.677459 0.000000
0.678944 0.674172 0.000000
0.729915 0.664525 0.000000
0.776029 0.656848 0.000000
0.000000 0.685755 0.263366
0.000000 0.710114 0.125930
0.243560 0.719647 0.000000
0.401803 0.718074 0.000000
0.505294 0.715892 0.000000
0.586087 0.713243 0.000000
0.653549 0.710245 0.000000
0.711403 0.706445 0.000000
0.756569 0.696923 0.000000
0.000000 0.714443 0.274862
0.000000 0.737541 0.159711
0.187652 0.751643 0.000000
0.368748 0.749600 0.000000
0.477163 0.746959 0.000000
0.559837 0.743940 0.000000
0.628262 0.740823 0.000000
0.687129 0.737470 0.000000
0.738467 0.733361 0.000000
0.000000 0.015673 0.115383
0.280346 0.000000 0.232044
0.440577 0.000000 0.275165
0.555247 0.000000 0.299878
0.643835 0.000000 0.314995
0.715575 0.000000 0.324600
0.774551 0.000000 0.330249
0.824540 0.000000 0.333517
0.868380 0.000000 0.335516
0.000000 0.257416 0.248823
0.279080 0.279081 0.279080
0.484492 0.260087 0.279274
0.610696 0.242145 0.280943
0.706647 0.223880 0.282378
0.785321 0.204493 0.283136
0.849462 0.187945 0.284674
0.902252 0.175406 0.286928
0.944261 0.170637 0.290611
0.000000 0.393327 0.311521
0.149135 0.429711 0.268461
0.425075 0.418272 0.269016
0.562762 0.407437 0.273416
0.661174 0.398025 0.277606
0.738634 0.389933 0.281936
0.803076 0.382725 0.285787
0.858514 0.376079 0.289026
0.907258 0.369801 0.291677
0.000000 0.486061 0.347324
0.102509 0.516511 0.293778
0.361906 0.517387 0.260504
0.516882 0.507650 0.264156
0.621851 0.498740 0.269249
0.703793 0.490550 0.272208
0.771352 0.482895 0.274942
0.828825 0.475789 0.277625
0.878909 0.469136 0.280048
0.000000 0.554179 0.369888
0.083137 0.579707 0.316748
0.292971 0.590805 0.253019
0.470168 0.581940 0.254608
0.583435 0.573087 0.258447
0.668941 0.564868 0.262989
0.738761 0.557218 0.265835
0.798202 0.549899 0.267724
0.849921 0.542887 0.269345
0.000000 0.606744 0.385048
0.068153 0.629136 0.334327
0.224576 0.647194 0.254208
0.422356 0.640877 0.245889
0.544577 0.632356 0.247762
0.634974 0.624022 0.251242
0.707397 0.616172 0.254947
0.768370 0.608764 0.257468
0.821321 0.601647 0.259024
0.000000 0.648784 0.395699
0.053759 0.669170 0.347897
0.189118 0.688386 0.273775
0.372175 0.689669 0.236768
0.505493 0.681336 0.238018
0.600892 0.673124 0.240179
0.676468 0.665173 0.243169
0.739412 0.657594 0.245813
0.793627 0.650359 0.247771
0.000000 0.683329 0.403417
0.037663 0.702414 0.358525
0.167445 0.721541 0.292527
0.318915 0.730818 0.228842
0.466583 0.722613 0.230259
0.567181 0.714597 0.231907
0.645719 0.706781 0.234177
0.710613 0.699213 0.236582
0.766135 0.691891 0.238216
0.000000 0.712310 0.409157
0.021587 0.730595 0.367074
0.152127 0.749627 0.308384
0.265727 0.765090 0.226668
0.427750 0.757973 0.223857
0.534164 0.750156 0.225304
0.615611 0.742528 0.226942
0.682436 0.735113 0.229032
0.739269 0.727892 0.230877
0.000000 0.057211 0.241330
0.302457 0.000000 0.350712
0.457754 0.000000 0.383872
0.567503 0.000000 0.403509
0.652484 0.000000 0.415911
0.721499 0.000000 0.423878
0.778118 0.000000 0.428196
0.826692 0.000000 0.430742
0.869318 0.000000 0.432175
0.000000 0.279911 0.336903
0.264450 0.275373 0.432348
0.476312 0.258096 0.428364
0.603757 0.241216 0.425984
0.699865 0.223650 0.424586
0.778250 0.204966 0.423368
0.841971 0.189493 0.422276
0.894871 0.177215 0.421377
0.938204 0.170480 0.420827
0.000000 0.405301 0.392622
0.141003 0.427286 0.417171
0.416712 0.416713 0.416712
0.546254 0.410519 0.419500
0.642175 0.403972 0.421490
0.719786 0.397160 0.422794
0.785507 0.390086 0.423481
0.842726 0.382750 0.423617
0.893492 0.375146 0.423265
0.000000 0.492118 0.424805
0.101102 0.515164 0.417795
0.361977 0.512231 0.411642
0.508546 0.504334 0.415630
0.606080 0.498597 0.420267
0.680643 0.494412 0.424908
0.740853 0.491566 0.429874
0.792133 0.489380 0.434261
0.837119 0.487506 0.438010
0.000000 0.557370 0.445385
0.082197 0.578383 0.426856
0.299644 0.584399 0.405701
0.470752 0.574312 0.413671
0.574407 0.568209 0.416335
0.652366 0.562747 0.422080
0.716910 0.558042 0.424548
0.771234 0.553884 0.427541
0.817892 0.550346 0.430841
0.000000 0.608454 0.459039
0.067155 0.627722 0.435798
0.234602 0.640979 0.402103
0.436538 0.629052 0.413855
0.542803 0.624078 0.412759
0.625178 0.617944 0.416638
0.690582 0.612534 0.422121
0.746122 0.607839 0.424873
0.794691 0.603403 0.426684
0.000000 0.649689 0.468322
0.052622 0.667710 0.443260
0.199062 0.683059 0.407567
0.403277 0.674533 0.413078
0.512959 0.669790 0.411644
0.597605 0.664147 0.412203
0.666010 0.658205 0.416069
0.722560 0.652841 0.420744
0.771402 0.648069 0.423690
0.000000 0.683770 0.474731
0.036336 0.700953 0.449194
0.175968 0.716976 0.414382
0.369381 0.713487 0.411347
0.484516 0.708569 0.410273
0.570938 0.703203 0.409745
0.641190 0.697427 0.411137
0.699800 0.691672 0.414605
0.749690 0.686370 0.418442
0.000000 0.712491 0.479163
0.020422 0.729087 0.453870
0.158735 0.745629 0.420892
0.328231 0.748649 0.405986
0.456546 0.742288 0.408221
0.545379 0.736954 0.407511
0.616931 0.731366 0.407675
0.676997 0.725635 0.409375
0.728356 0.720045 0.412341
0.000000 0.095114 0.340733
0.313340 0.000000 0.446695
0.468635 0.000000 0.471403
0.576283 0.000000 0.485258
0.659365 0.000000 0.493871
0.726708 0.000000 0.499143
0.782053 0.000000 0.501488
0.829738 0.000000 0.502652
0.871556 0.000000 0.502976
0.000000 0.299370 0.408316
0.249489 0.271737 0.536323
0.467939 0.255977 0.530187
0.596980 0.239609 0.525749
0.693659 0.222300 0.522411
0.771569 0.204871 0.519382
0.834898 0.190830 0.516140
0.887927 0.179117 0.513061
0.932438 0.170909 0.510114
0.000000 0.414934 0.453715
0.134813 0.425680 0.512900
0.411328 0.417426 0.506585
0.543130 0.409675 0.509032
0.638747 0.403192 0.508971
0.715410 0.396731 0.509028
0.780308 0.389960 0.508885
0.836869 0.382867 0.508413
0.887108 0.375462 0.507591
0.000000 0.499602 0.484302
0.100766 0.515411 0.501958
0.355101 0.511100 0.503834
0.503496 0.503496 0.503496
0.592266 0.501581 0.507095
0.664919 0.499029 0.509720
0.726911 0.495993 0.511563
0.781221 0.492547 0.512744
0.829660 0.488753 0.513363
0.000000 0.561952 0.502207
0.081924 0.578462 0.503141
0.289788 0.582867 0.497283
0.472337 0.570164 0.502347
0.568650 0.565729 0.505722
0.640726 0.562696 0.510069
0.698177 0.560977 0.514632
0.745614 0.560349 0.519479
0.786884 0.560160 0.523769
0.000000 0.611373 0.514128
0.066581 0.627522 0.506873
0.229096 0.638349 0.492266
0.439053 0.624805 0.499551
0.543973 0.617884 0.505937
0.618752 0.614232 0.508019
0.678380 0.610893 0.513437
0.729989 0.608173 0.515534
0.774091 0.605911 0.518501
0.000000 0.651608 0.522109
0.051592 0.667298 0.510561
0.196667 0.680310 0.492113
0.403384 0.671021 0.495557
0.523427 0.660082 0.508293
0.596487 0.657757 0.506164
0.658985 0.653545 0.509744
0.710177 0.649949 0.515186
0.755120 0.647036 0.517542
0.000000 0.685066 0.527425
0.035274 0.700388 0.513591
0.174932 0.714336 0.493700
0.364600 0.710980 0.490620
0.504520 0.696198 0.509605
0.576278 0.694111 0.507154
0.638851 0.690544 0.506952
0.692253 0.686270 0.510733
0.737298 0.682532 0.515572
0.000000 0.713372 0.530896
0.019176 0.728434 0.515885
0.158343 0.743043 0.495828
0.321520 0.746076 0.484950
0.483489 0.728815 0.508039
0.557921 0.725515 0.507930
0.619710 0.722311 0.506538
0.673728 0.718290 0.507465
0.720353 0.714052 0.511004
0.000000 0.126094 0.422127
0.317917 0.000000 0.528732
0.473305 0.000000 0.544770
0.582174 0.000000 0.555583
0.664298 0.000000 0.560500
0.730596 0.000000 0.562907
0.785416 0.000000 0.563291
0.832560 0.000000 0.562877
0.873857 0.000000 0.561906
0.000000 0.315813 0.469339
0.234085 0.268937 0.617381
0.459770 0.253989 0.610187
0.590272 0.237971 0.604483
0.687567 0.220738 0.599837
0.764851 0.205291 0.594909
0.828128 0.192276 0.589923
0.881373 0.181008 0.585193
0.926752 0.171828 0.580676
0.000000 0.423685 0.505181
0.130087 0.425279 0.584854
0.404710 0.417457 0.580946
0.538204 0.409680 0.580781
0.635166 0.402353 0.579438
0.712037 0.395704 0.577873
0.776580 0.389037 0.576490
0.832654 0.382119 0.575120
0.882410 0.374899 0.573633
0.000000 0.504372 0.531761
0.098450 0.514972 0.566226
0.350726 0.510001 0.574926
0.501353 0.505189 0.562534
0.591544 0.501509 0.567197
0.663953 0.498679 0.568575
0.724909 0.495750 0.569756
0.778264 0.492433 0.570591
0.825905 0.488755 0.571010
0.000000 0.567043 0.549857
0.082018 0.579337 0.563711
0.284127 0.580874 0.568927
0.468677 0.569949 0.564783
0.565546 0.565546 0.565546
0.630412 0.565336 0.569149
0.686574 0.564552 0.571943
0.736287 0.563299 0.574061
0.781004 0.561643 0.575594
0.000000 0.614796 0.559864
0.066412 0.627967 0.563564
0.226223 0.635906 0.561831
0.433006 0.624345 0.561570
0.545360 0.615176 0.566105
0.614862 0.612690 0.568940
0.670265 0.611073 0.572883
0.715566 0.610561 0.577153
0.753574 0.610951 0.581670
0.000000 0.653975 0.566477
0.051035 0.667423 0.564386
0.195343 0.678017 0.557505
0.396647 0.670002 0.557235
0.523960 0.657802 0.565093
0.597609 0.653185 0.570103
0.654467 0.650987 0.571848
0.701446 0.648904 0.576761
0.743426 0.647322 0.578625
0.000000 0.686745 0.570721
0.034405 0.700286 0.565180
0.174309 0.712201 0.555390
0.357546 0.709411 0.552246
0.501464 0.695064 0.562896
0.584084 0.686649 0.573276
0.638085 0.685873 0.570874
0.687210 0.682919 0.574122
0.728244 0.680473 0.579236
0.000000 0.714590 0.573293
0.018225 0.728173 0.565653
0.157964 0.740962 0.554391
0.314791 0.743926 0.546800
0.477869 0.728080 0.559783
0.571990 0.715903 0.575477
0.623603 0.715418 0.572748
0.672014 0.713210 0.572184
0.714864 0.710066 0.575749
0.000000 0.152059 0.490643
0.318274 0.000000 0.600649
0.475488 0.000000 0.609991
0.584437 0.000000 0.616732
0.667549 0.000000 0.619715
0.733355 0.000000 0.619502
0.787957 0.000000 0.617982
0.834828 0.000000 0.615988
0.875820 0.000000 0.613687
0.000000 0.329782 0.522659
0.217833 0.266794 0.684962
0.451626 0.252183 0.677179
0.583600 0.236343 0.670571
0.681491 0.219135 0.664942
0.759238 0.203735 0.658806
0.821601 0.193883 0.651626
0.875110 0.182914 0.645618
0.921078 0.173206 0.639948
0.000000 0.431800 0.550558
0.125877 0.425790 0.642896
0.397432 0.417146 0.644657
0.533179 0.409524 0.641793
0.630870 0.401884 0.639274
0.708327 0.394811 0.636541
0.773014 0.387960 0.633996
0.828946 0.381027 0.631643
0.878434 0.373873 0.629369
0.000000 0.508087 0.572161
0.095933 0.514944 0.619264
0.344578 0.509530 0.634387
0.498174 0.506392 0.615618
0.588668 0.502432 0.618801
0.662362 0.498452 0.619818
0.723592 0.495114 0.619878
0.776553 0.491753 0.619836
0.823622 0.488140 0.619659
0.000000 0.569670 0.589109
0.079667 0.578789 0.612841
0.278682 0.579250 0.627998
0.467727 0.569648 0.615832
0.564755 0.567390 0.607569
0.630691 0.565630 0.612626
0.686833 0.564493 0.614537
0.735697 0.563248 0.616203
0.779568 0.561632 0.617541
0.000000 0.618435 0.599803
0.066387 0.628821 0.611557
0.224887 0.633792 0.618883
0.431267 0.623027 0.613991
0.543160 0.615418 0.611579
0.612854 0.612855 0.612855
0.662509 0.613377 0.616202
0.706996 0.613437 0.618919
0.747373 0.613101 0.621091
0.000000 0.656563 0.605001
0.050747 0.667880 0.610005
0.194917 0.676075 0.611493
0.392799 0.668511 0.609670
0.519538 0.657983 0.610249
0.598734 0.651464 0.614150
0.651769 0.650079 0.616558
0.695727 0.649239 0.620091
0.732249 0.649345 0.623996
0.000000 0.688618 0.608166
0.033840 0.700461 0.608935
0.174153 0.710411 0.606591
0.352401 0.707685 0.604391
0.496495 0.694800 0.607736
0.583766 0.685608 0.614126
0.639081 0.682514 0.618129
0.683967 0.681187 0.619641
0.721926 0.679869 0.624041
0.000000 0.715976 0.609863
0.017435 0.728152 0.607886
0.157833 0.739207 0.603175
0.309899 0.741756 0.598772
0.472778 0.727332 0.604535
0.568075 0.716143 0.613065
0.629633 0.709698 0.621546
0.671470 0.709799 0.619181
0.711172 0.707677 0.622116
0.000000 0.174259 0.549561
0.315603 0.000000 0.664807
0.475692 0.000000 0.668867
0.584410 0.000000 0.671277
0.669198 0.000000 0.673207
0.735075 0.000000 0.670874
0.789647 0.000000 0.667573
0.836436 0.000000 0.664083
0.877289 0.000000 0.660497
0.000000 0.341806 0.569969
0.200329 0.265080 0.743527
0.443402 0.250539 0.735334
0.576906 0.234729 0.728041
0.675398 0.217501 0.721617
0.753606 0.202100 0.714534
0.816533 0.192356 0.706112
0.869066 0.184832 0.698084
0.915417 0.174959 0.691478
0.000000 0.439117 0.591210
0.121799 0.426919 0.691717
0.389732 0.416654 0.700572
0.527948 0.409100 0.695663
0.626301 0.401460 0.691770
0.704240 0.394095 0.688076
0.769216 0.386984 0.684587
0.825224 0.379904 0.681350
0.874636 0.372701 0.678301
0.000000 0.511900 0.608509
0.093370 0.515319 0.664794
0.338093 0.509241 0.685993
0.494285 0.507216 0.663862
0.585827 0.503136 0.664770
0.659845 0.498655 0.665233
0.721689 0.494685 0.664604
0.774833 0.490995 0.663701
0.821744 0.487270 0.662768
0.000000 0.570679 0.622376
0.076454 0.578074 0.654826
0.271474 0.578046 0.679127
0.465073 0.570059 0.660267
0.563206 0.568901 0.646892
0.628865 0.566898 0.651241
0.686199 0.564642 0.653296
0.735452 0.562938 0.654177
0.779034 0.561211 0.654860
0.000000 0.620082 0.633599
0.063785 0.628150 0.651758
0.222359 0.631857 0.667268
0.430000 0.622087 0.658584
0.543499 0.615494 0.649865
0.612686 0.614612 0.644458
0.663203 0.613830 0.649301
0.707829 0.613544 0.651337
0.747559 0.613178 0.653154
0.000000 0.659241 0.639455
0.050415 0.668565 0.649997
0.194820 0.674468 0.657740
0.390972 0.666928 0.654817
0.519126 0.657130 0.650152
0.597326 0.651913 0.648950
0.650412 0.650412 0.650412
0.689754 0.651251 0.653441
0.725794 0.651725 0.655982
0.000000 0.690593 0.641539
0.033138 0.700827 0.647301
0.174311 0.708897 0.650667
0.349180 0.705854 0.649622
0.494144 0.693882 0.647797
0.580346 0.686125 0.648654
0.640004 0.681421 0.652001
0.682039 0.680680 0.654071
0.717806 0.680287 0.657222
0.000000 0.717449 0.642374
0.016802 0.728285 0.644923
0.158014 0.737720 0.645334
0.306750 0.739581 0.643767
0.469408 0.726252 0.644361
0.564140 0.716335 0.647287
0.628964 0.709388 0.652520
0.672345 0.707293 0.655791
0.708786 0.706506 0.657122
0.000000 0.193552 0.601079
0.310619 0.000000 0.722781
0.474326 0.000000 0.722590
0.583421 0.000000 0.721424
0.667609 0.000000 0.720172
0.735869 0.000000 0.718122
0.790557 0.000000 0.713202
0.837382 0.000000 0.708321
0.878222 0.000000 0.703528
0.000000 0.352296 0.612414
0.181107 0.263625 0.795537
0.435044 0.249008 0.787001
0.570153 0.233119 0.779164
0.669268 0.215829 0.772077
0.747936 0.200253 0.764237
0.811410 0.190717 0.754811
0.864368 0.183436 0.745670
0.909824 0.176875 0.737312
0.000000 0.445664 0.628038
0.117497 0.428374 0.733864
0.381718 0.416063 0.750504
0.522436 0.408518 0.744100
0.621568 0.400936 0.738905
0.699915 0.393435 0.734292
0.765180 0.386107 0.729999
0.821346 0.378845 0.726001
0.870792 0.371529 0.722250
0.000000 0.515559 0.641595
0.090653 0.515902 0.704736
0.331170 0.509027 0.732013
0.489880 0.507742 0.708090
0.582811 0.503478 0.707023
0.657052 0.498866 0.706347
0.719267 0.494457 0.705113
0.772724 0.490377 0.703531
0.819730 0.486409 0.701900
0.000000 0.572029 0.652740
0.073217 0.577733 0.692063
0.264144 0.576988 0.724310
0.462180 0.570651 0.699879
0.561066 0.570119 0.683846
0.627200 0.567974 0.686523
0.684631 0.565227 0.688483
0.734511 0.562865 0.689040
0.778356 0.560767 0.689113
0.000000 0.619509 0.661857
0.059571 0.626776 0.686500
0.218988 0.630172 0.709585
0.427113 0.621680 0.698274
0.542357 0.616250 0.683953
0.611970 0.616139 0.674671
0.661960 0.615185 0.679242
0.707660 0.613895 0.681666
0.747846 0.613088 0.682911
0.000000 0.660468 0.669370
0.047660 0.667884 0.684291
0.193082 0.672628 0.697837
0.389028 0.665659 0.694475
0.519262 0.656606 0.684691
0.598210 0.652161 0.678731
0.650547 0.652019 0.675133
0.690607 0.651762 0.679580
0.726877 0.651922 0.681571
0.000000 0.692602 0.671869
0.032597 0.701320 0.681684
0.174471 0.707627 0.689534
0.346792 0.704130 0.689480
0.493746 0.692756 0.683141
0.580547 0.685569 0.680050
0.639066 0.681955 0.679597
0.681087 0.681087 0.681087
0.713091 0.682051 0.683805
0.000000 0.718962 0.671852
0.015986 0.728530 0.678115
0.158232 0.736476 0.682649
0.304738 0.737494 0.683427
0.467796 0.724945 0.679934
0.562553 0.715796 0.678891
0.626232 0.710066 0.679872
0.673115 0.706604 0.682762
0.707369 0.706250 0.684559
0.000000 0.210544 0.646733
0.303771 0.000000 0.775702
0.471539 0.000000 0.771839
0.581239 0.000000 0.767481
0.665352 0.000000 0.763646
0.734349 0.000000 0.760470
0.790754 0.000000 0.755574
0.837712 0.000000 0.749424
0.878619 0.000000 0.743509
0.000000 0.361558 0.650858
0.159516 0.262318 0.842504
0.426525 0.247546 0.833649
0.563321 0.231510 0.825362
0.663089 0.214115 0.817712
0.742270 0.198010 0.809353
0.806162 0.189170 0.798930
0.859649 0.181782 0.788962
0.905356 0.175700 0.779598
0.000000 0.451527 0.661688
0.113265 0.430157 0.771060
0.373444 0.415410 0.795690
0.516667 0.407847 0.788161
0.616671 0.400299 0.781866
0.695428 0.392746 0.776375
0.760962 0.385272 0.771354
0.817303 0.377848 0.766687
0.866842 0.370395 0.762313
0.000000 0.518972 0.671967
0.087659 0.516606 0.740348
0.323786 0.508816 0.773811
0.485087 0.508032 0.748918
0.579464 0.503565 0.746251
0.654108 0.498908 0.744284
0.716557 0.494265 0.742315
0.770276 0.489863 0.740133
0.817451 0.485631 0.737895
0.000000 0.573495 0.680697
0.070037 0.577668 0.725628
0.257350 0.576017 0.764631
0.458878 0.571303 0.736085
0.558453 0.571080 0.718696
0.625458 0.568708 0.719791
0.682865 0.565817 0.720956
0.733041 0.562998 0.721232
0.777231 0.560471 0.720877
0.000000 0.619356 0.687934
0.055342 0.625771 0.717931
0.215580 0.628774 0.747361
0.423453 0.621471 0.734419
0.541047 0.617188 0.714816
0.610794 0.617449 0.703620
0.660947 0.616388 0.706986
0.706606 0.614671 0.709586
0.747401 0.613247 0.710735
0.000000 0.658930 0.693923
0.042115 0.666013 0.713904
0.190397 0.670819 0.733475
0.385967 0.664737 0.730275
0.517914 0.656633 0.715997
0.597845 0.653023 0.705603
0.650278 0.653460 0.699065
0.689717 0.653092 0.703479
0.726939 0.652372 0.705964
0.000000 0.693698 0.698889
0.029899 0.700730 0.711786
0.173044 0.705926 0.723772
0.344085 0.702646 0.725241
0.493360 0.691923 0.714605
0.581320 0.685288 0.707495
0.640172 0.682276 0.703446
0.681373 0.682536 0.701003
0.713986 0.682572 0.705024
0.000000 0.720484 0.698955
0.015251 0.728852 0.708319
0.158431 0.735398 0.716207
0.303110 0.735577 0.718898
0.467052 0.723679 0.711799
0.562807 0.714983 0.707228
0.626735 0.709702 0.705239
0.672472 0.707161 0.705239
0.706684 0.706684 0.706684
