samples/LUTs/3D/display_view/acescg_to_srgb_displayview_33.cube
LUT_3D_SIZE 33
0.000000 0.000000 0.000000
0.035973 0.000000 0.000197
0.112388 0.000000 0.000875
0.179013 0.000000 0.002017
0.237708 0.000000 0.003549
0.289908 0.000000 0.005375
0.336728 0.000000 0.007397
0.379051 0.000000 0.009531
0.417581 0.000000 0.011710
0.452885 0.000000 0.013883
0.485418 0.000000 0.016014
0.515554 0.000000 0.018079
0.543597 0.000000 0.020062
0.569801 0.000000 0.021953
0.594377 0.000000 0.023747
0.617504 0.000000 0.025442
0.639332 0.000000 0.027038
0.659990 0.000000 0.028536
0.679589 0.000000 0.029938
0.698226 0.000000 0.031249
0.715984 0.000000 0.032472
0.732937 0.000000 0.033611
0.749148 0.000000 0.034669
0.764675 0.000000 0.035650
0.779048 0.000000 0.036364
0.792866 0.000000 0.037017
0.806181 0.000000 0.037616
0.819026 0.000000 0.038165
0.831431 0.000000 0.038667
0.843423 0.000000 0.039125
0.855027 0.000000 0.039541
0.866265 0.000000 0.039915
0.877157 0.000000 0.040252
0.000000 0.043273 0.005940
0.072805 0.071910 0.000000
0.148003 0.087404 0.000000
0.210215 0.098484 0.000000
0.264643 0.106532 0.000000
0.313237 0.112396 0.000000
0.357149 0.116610 0.000000
0.397170 0.119564 0.000000
0.433882 0.121549 0.000000
0.467798 0.122675 0.000000
0.499261 0.123161 0.000000
0.528576 0.123127 0.000000
0.556046 0.122544 0.000000
0.581830 0.121579 0.000000
0.606133 0.120267 0.000000
0.629084 0.118664 0.000000
0.650874 0.116676 0.000000
0.671536 0.114523 0.000000
0.691187 0.112171 0.000000
0.710001 0.109393 0.000000
0.727948 0.106494 0.000000
0.745112 0.103428 0.000000
0.761373 0.100095 0.000000
0.776739 0.096450 0.000000
0.791602 0.092369 0.000000
0.805917 0.088111 0.000000
0.819711 0.083690 0.000000
0.833030 0.079053 0.000000
0.845903 0.074172 0.000000
0.858356 0.069021 0.000000
0.870415 0.063556 0.000000
0.882100 0.057726 0.000000
0.893434 0.051456 0.000000
0.000000 0.120747 0.023913
0.078120 0.146001 0.000000
0.160740 0.159246 0.000000
0.222587 0.169076 0.000000
0.275312 0.176907 0.000000
0.322031 0.183100 0.000000
0.364175 0.187951 0.000000
0.402608 0.191706 0.000000
0.437931 0.194569 0.000000
0.470621 0.196676 0.000000
0.501009 0.198175 0.000000
0.529409 0.199137 0.000000
0.556027 0.199675 0.000000
0.581094 0.199816 0.000000
0.604750 0.199645 0.000000
0.627136 0.199204 0.000000
0.648374 0.198532 0.000000
0.668608 0.197595 0.000000
0.687866 0.196511 0.000000
0.706272 0.195241 0.000000
0.723865 0.193842 0.000000
0.740705 0.192250 0.000000
0.756474 0.190447 0.000000
0.771715 0.188440 0.000000
0.786364 0.186404 0.000000
0.800467 0.184340 0.000000
0.814121 0.182143 0.000000
0.827339 0.179840 0.000000
0.840094 0.177530 0.000000
0.852427 0.175195 0.000000
0.864365 0.172835 0.000000
0.876032 0.170257 0.000000
0.887330 0.167667 0.000000
0.000000 0.184537 0.049483
0.067097 0.206704 0.000000
0.162979 0.217360 0.000000
0.227873 0.225931 0.000000
0.280473 0.232221 0.000000
0.326381 0.237484 0.000000
0.367564 0.241816 0.000000
0.405059 0.245318 0.000000
0.439522 0.248095 0.000000
0.471418 0.250249 0.000000
0.501096 0.251869 0.000000
0.528854 0.253020 0.000000
0.554898 0.253785 0.000000
0.579439 0.254198 0.000000
0.602633 0.254308 0.000000
0.624591 0.254178 0.000000
0.645451 0.253818 0.000000
0.665316 0.253252 0.000000
0.684255 0.252524 0.000000
0.702370 0.251625 0.000000
0.719718 0.250583 0.000000
0.736140 0.249335 0.000000
0.751762 0.247925 0.000000
0.766831 0.246403 0.000000
0.781316 0.244856 0.000000
0.795340 0.243193 0.000000
0.808855 0.241508 0.000000
0.821920 0.239780 0.000000
0.834609 0.237946 0.000000
0.846853 0.236129 0.000000
0.858726 0.234273 0.000000
0.870302 0.232303 0.000000
0.881497 0.230355 0.000000
0.000000 0.238206 0.072906
0.038946 0.258155 0.000000
0.158357 0.266743 0.000000
0.227264 0.273808 0.000000
0.282021 0.279724 0.000000
0.327884 0.283710 0.000000
0.368627 0.287144 0.000000
0.405565 0.290029 0.000000
0.439458 0.292393 0.000000
0.470818 0.294274 0.000000
0.500005 0.295723 0.000000
0.527305 0.296784 0.000000
0.552942 0.297505 0.000000
0.577096 0.297930 0.000000
0.599941 0.298082 0.000000
0.621590 0.298006 0.000000
0.642156 0.297731 0.000000
0.661758 0.297263 0.000000
0.680455 0.296643 0.000000
0.698328 0.295885 0.000000
0.715448 0.294998 0.000000
0.731629 0.293861 0.000000
0.747136 0.292609 0.000000
0.762065 0.291290 0.000000
0.776434 0.289931 0.000000
0.790354 0.288465 0.000000
0.803774 0.286981 0.000000
0.816766 0.285437 0.000000
0.829338 0.283860 0.000000
0.841529 0.282232 0.000000
0.853316 0.280610 0.000000
0.864822 0.278885 0.000000
0.875938 0.277192 0.000000
0.000000 0.284151 0.092954
0.000000 0.302611 0.000000
0.148390 0.309654 0.000000
0.222817 0.315491 0.000000
0.279489 0.320465 0.000000
0.327277 0.324688 0.000000
0.368003 0.327092 0.000000
0.404678 0.329204 0.000000
0.438222 0.330993 0.000000
0.469213 0.332449 0.000000
0.498043 0.333586 0.000000
0.525011 0.334419 0.000000
0.550334 0.334980 0.000000
0.574214 0.335283 0.000000
0.596785 0.335366 0.000000
0.618199 0.335240 0.000000
0.638548 0.334936 0.000000
0.657934 0.334470 0.000000
0.676430 0.333868 0.000000
0.694136 0.333124 0.000000
0.711081 0.332278 0.000000
0.727112 0.331198 0.000000
0.742517 0.330018 0.000000
0.757345 0.328781 0.000000
0.771648 0.327484 0.000000
0.785470 0.326124 0.000000
0.798826 0.324721 0.000000
0.811731 0.323290 0.000000
0.824232 0.321814 0.000000
0.836367 0.320291 0.000000
0.848097 0.318770 0.000000
0.859537 0.317175 0.000000
0.870595 0.315600 0.000000
0.000000 0.324061 0.110345
0.000000 0.340105 0.022908
0.133621 0.347497 0.000000
0.215347 0.352367 0.000000
0.274532 0.356533 0.000000
0.323453 0.360152 0.000000
0.366049 0.363212 0.000000
0.402717 0.364484 0.000000
0.436096 0.365615 0.000000
0.466854 0.366563 0.000000
0.495431 0.367304 0.000000
0.522150 0.367831 0.000000
0.547241 0.368152 0.000000
0.570900 0.368274 0.000000
0.593271 0.368213 0.000000
0.614491 0.367981 0.000000
0.634663 0.367596 0.000000
0.653888 0.367067 0.000000
0.672240 0.366415 0.000000
0.689793 0.365651 0.000000
0.706611 0.364782 0.000000
0.722579 0.363713 0.000000
0.737906 0.362554 0.000000
0.752663 0.361342 0.000000
0.766896 0.360078 0.000000
0.780642 0.358765 0.000000
0.793933 0.357407 0.000000
0.806794 0.356010 0.000000
0.819245 0.354583 0.000000
0.831293 0.353139 0.000000
0.843017 0.351640 0.000000
0.854389 0.350124 0.000000
0.865409 0.348605 0.000000
0.000000 0.359156 0.125606
0.000000 0.373385 0.052458
0.113672 0.381257 0.000000
0.205334 0.385357 0.000000
0.267641 0.388873 0.000000
0.317969 0.391926 0.000000
0.361342 0.394606 0.000000
0.399875 0.396823 0.000000
0.433249 0.397258 0.000000
0.463894 0.397647 0.000000
0.492311 0.397940 0.000000
0.518848 0.398111 0.000000
0.543764 0.398144 0.000000
0.567248 0.398037 0.000000
0.589458 0.397791 0.000000
0.610524 0.397413 0.000000
0.630559 0.396906 0.000000
0.649655 0.396282 0.000000
0.667885 0.395553 0.000000
0.685325 0.394725 0.000000
0.702040 0.393806 0.000000
0.717972 0.392736 0.000000
0.733232 0.391573 0.000000
0.747946 0.390351 0.000000
0.762134 0.389086 0.000000
0.775830 0.387783 0.000000
0.789070 0.386442 0.000000
0.801882 0.385065 0.000000
0.814296 0.383655 0.000000
0.826330 0.382217 0.000000
0.838002 0.380755 0.000000
0.849326 0.379277 0.000000
0.860329 0.377776 0.000000
0.000000 0.390343 0.139128
0.000000 0.403181 0.075503
0.086811 0.411658 0.000000
0.193001 0.415140 0.000000
0.259121 0.418127 0.000000
0.311169 0.420718 0.000000
0.355424 0.422981 0.000000
0.394556 0.424976 0.000000
0.429799 0.426557 0.000000
0.460441 0.426359 0.000000
0.488779 0.426173 0.000000
0.515199 0.425951 0.000000
0.539981 0.425664 0.000000
0.563331 0.425295 0.000000
0.585415 0.424832 0.000000
0.606360 0.424275 0.000000
0.626279 0.423624 0.000000
0.645267 0.422880 0.000000
0.663398 0.422050 0.000000
0.680750 0.421136 0.000000
0.697378 0.420148 0.000000
0.713288 0.419057 0.000000
0.728516 0.417862 0.000000
0.743182 0.416625 0.000000
0.757337 0.415344 0.000000
0.771002 0.414029 0.000000
0.784205 0.412685 0.000000
0.796991 0.411305 0.000000
0.809375 0.409898 0.000000
0.821379 0.408467 0.000000
0.833017 0.407018 0.000000
0.844321 0.405545 0.000000
0.855317 0.404049 0.000000
0.000000 0.418309 0.151214
0.000000 0.430064 0.094130
0.046584 0.439249 0.000000
0.178400 0.442224 0.000000
0.249163 0.444782 0.000000
0.303251 0.446990 0.000000
0.348585 0.448909 0.000000
0.388308 0.450588 0.000000
0.424052 0.452065 0.000000
0.456563 0.453153 0.000000
0.484898 0.452466 0.000000
0.511260 0.451829 0.000000
0.535955 0.451196 0.000000
0.559205 0.450539 0.000000
0.581186 0.449838 0.000000
0.602031 0.449081 0.000000
0.621857 0.448262 0.000000
0.640755 0.447379 0.000000
0.658807 0.446429 0.000000
0.676081 0.445417 0.000000
0.692639 0.444343 0.000000
0.708526 0.443211 0.000000
0.723728 0.441973 0.000000
0.738375 0.440701 0.000000
0.752495 0.439398 0.000000
0.766148 0.438057 0.000000
0.779328 0.436698 0.000000
0.792101 0.435302 0.000000
0.804466 0.433886 0.000000
0.816449 0.432451 0.000000
0.828076 0.430995 0.000000
0.839367 0.429521 0.000000
0.850338 0.428031 0.000000
0.000000 0.443581 0.162097
0.000000 0.454464 0.109958
0.000000 0.464457 0.000000
0.161337 0.467018 0.000000
0.237899 0.469213 0.000000
0.294360 0.471104 0.000000
0.340943 0.472738 0.000000
0.381390 0.474155 0.000000
0.417558 0.475385 0.000000
0.450518 0.476459 0.000000
0.480716 0.477154 0.000000
0.507075 0.476085 0.000000
0.531724 0.475089 0.000000
0.554908 0.474125 0.000000
0.576809 0.473166 0.000000
0.597580 0.472192 0.000000
0.617325 0.471189 0.000000
0.636149 0.470149 0.000000
0.654133 0.469067 0.000000
0.671343 0.467941 0.000000
0.687838 0.466772 0.000000
0.703672 0.465560 0.000000
0.718875 0.464284 0.000000
0.733503 0.462971 0.000000
0.747619 0.461629 0.000000
0.761255 0.460262 0.000000
0.774426 0.458876 0.000000
0.787187 0.457462 0.000000
0.799536 0.456033 0.000000
0.811507 0.454586 0.000000
0.823132 0.453117 0.000000
0.834414 0.451635 0.000000
0.845375 0.450140 0.000000
0.000000 0.466573 0.171961
0.000000 0.476743 0.123821
0.000000 0.486301 0.017601
0.141316 0.489837 0.000000
0.225349 0.491730 0.000000
0.284586 0.493352 0.000000
0.332602 0.494745 0.000000
0.373891 0.495940 0.000000
0.410573 0.496966 0.000000
0.443846 0.497845 0.000000
0.474467 0.498599 0.000000
0.502675 0.498975 0.000000
0.527318 0.497602 0.000000
0.550469 0.496319 0.000000
0.572320 0.495087 0.000000
0.593027 0.493880 0.000000
0.612708 0.492679 0.000000
0.631471 0.491470 0.000000
0.649393 0.490243 0.000000
0.666550 0.488992 0.000000
0.682995 0.487715 0.000000
0.698787 0.486408 0.000000
0.713968 0.485072 0.000000
0.728589 0.483710 0.000000
0.742697 0.482329 0.000000
0.756325 0.480929 0.000000
0.769496 0.479511 0.000000
0.782245 0.478075 0.000000
0.794595 0.476623 0.000000
0.806568 0.475156 0.000000
0.818179 0.473676 0.000000
0.829453 0.472185 0.000000
0.840417 0.470678 0.000000
0.000000 0.487616 0.180953
0.000000 0.497205 0.135996
0.000000 0.506329 0.049636
0.117326 0.510943 0.000000
0.211510 0.512578 0.000000
0.273979 0.513974 0.000000
0.323640 0.515160 0.000000
0.365878 0.516168 0.000000
0.403160 0.517018 0.000000
0.436811 0.517734 0.000000
0.467671 0.518332 0.000000
0.496291 0.518827 0.000000
0.522763 0.518938 0.000000
0.545908 0.517324 0.000000
0.567728 0.515807 0.000000
0.588396 0.514356 0.000000
0.608033 0.512944 0.000000
0.626743 0.511555 0.000000
0.644616 0.510172 0.000000
0.661721 0.508787 0.000000
0.678120 0.507393 0.000000
0.693871 0.505985 0.000000
0.709017 0.504561 0.000000
0.723629 0.503140 0.000000
0.737734 0.501714 0.000000
0.751359 0.500275 0.000000
0.764533 0.498823 0.000000
0.777276 0.497361 0.000000
0.789633 0.495882 0.000000
0.801601 0.494396 0.000000
0.813225 0.492895 0.000000
0.824502 0.491387 0.000000
0.835456 0.489872 0.000000
0.000000 0.506974 0.189192
0.000000 0.516068 0.146962
0.000000 0.524821 0.073583
0.086857 0.530549 0.000000
0.196246 0.531962 0.000000
0.262595 0.533161 0.000000
0.314092 0.534172 0.000000
0.357406 0.535018 0.000000
0.395360 0.535718 0.000000
0.429455 0.536294 0.000000
0.460604 0.536759 0.000000
0.489411 0.537127 0.000000
0.516294 0.537410 0.000000
0.541239 0.537300 0.000000
0.563059 0.535491 0.000000
0.583700 0.533786 0.000000
0.603302 0.532154 0.000000
0.621974 0.530573 0.000000
0.639806 0.529025 0.000000
0.656870 0.527496 0.000000
0.673231 0.525978 0.000000
0.688944 0.524461 0.000000
0.704057 0.522941 0.000000
0.718628 0.521431 0.000000
0.732733 0.519956 0.000000
0.746362 0.518474 0.000000
0.759541 0.516986 0.000000
0.772296 0.515489 0.000000
0.784646 0.513987 0.000000
0.796629 0.512474 0.000000
0.808250 0.510955 0.000000
0.819540 0.509427 0.000000
0.830503 0.507894 0.000000
0.000000 0.524865 0.196778
0.000000 0.533531 0.156921
0.000000 0.541954 0.092297
0.041958 0.548834 0.000000
0.179332 0.550054 0.000000
0.250414 0.551080 0.000000
0.304025 0.551936 0.000000
0.348525 0.552642 0.000000
0.387224 0.553215 0.000000
0.421814 0.553670 0.000000
0.453299 0.554021 0.000000
0.482331 0.554280 0.000000
0.509364 0.554459 0.000000
0.534723 0.554565 0.000000
0.558313 0.554267 0.000000
0.578949 0.552301 0.000000
0.598531 0.550441 0.000000
0.617175 0.548661 0.000000
0.634975 0.546940 0.000000
0.652008 0.545260 0.000000
0.668332 0.543608 0.000000
0.684016 0.541976 0.000000
0.699095 0.540354 0.000000
0.713618 0.538738 0.000000
0.727708 0.537190 0.000000
0.741344 0.535664 0.000000
0.754526 0.534136 0.000000
0.767284 0.532607 0.000000
0.779651 0.531072 0.000000
0.791639 0.529534 0.000000
0.803266 0.527993 0.000000
0.814567 0.526445 0.000000
0.825541 0.524894 0.000000
0.000000 0.541467 0.203789
0.000000 0.549760 0.166032
0.000000 0.557907 0.107658
0.000000 0.565937 0.000000
0.160423 0.566993 0.000000
0.237389 0.567869 0.000000
0.293414 0.568592 0.000000
0.339239 0.569176 0.000000
0.378771 0.569636 0.000000
0.413914 0.569985 0.000000
0.445780 0.570236 0.000000
0.475076 0.570402 0.000000
0.502289 0.570490 0.000000
0.527770 0.570510 0.000000
0.551779 0.570469 0.000000
0.574154 0.570011 0.000000
0.593732 0.567917 0.000000
0.612361 0.565931 0.000000
0.630137 0.564029 0.000000
0.647137 0.562190 0.000000
0.663441 0.560399 0.000000
0.679088 0.558644 0.000000
0.694147 0.556914 0.000000
0.708646 0.555203 0.000000
0.722659 0.553532 0.000000
0.736301 0.551958 0.000000
0.749495 0.550388 0.000000
0.762268 0.548821 0.000000
0.774640 0.547256 0.000000
0.786633 0.545691 0.000000
0.798280 0.544123 0.000000
0.809585 0.542555 0.000000
0.820572 0.540985 0.000000
0.000000 0.556930 0.210294
0.000000 0.564895 0.174401
0.000000 0.572784 0.120999
0.000000 0.580790 0.005115
0.138912 0.582897 0.000000
0.223452 0.583646 0.000000
0.282290 0.584248 0.000000
0.329597 0.584725 0.000000
0.370043 0.585084 0.000000
0.405782 0.585344 0.000000
0.438064 0.585510 0.000000
0.467660 0.585592 0.000000
0.495081 0.585603 0.000000
0.520711 0.585548 0.000000
0.544823 0.585434 0.000000
0.567626 0.585268 0.000000
0.588906 0.584672 0.000000
0.607531 0.582476 0.000000
0.625292 0.580386 0.000000
0.642274 0.578382 0.000000
0.658553 0.576446 0.000000
0.674182 0.574562 0.000000
0.689210 0.572719 0.000000
0.703689 0.570907 0.000000
0.717650 0.569120 0.000000
0.731248 0.567449 0.000000
0.744452 0.565836 0.000000
0.757235 0.564231 0.000000
0.769618 0.562632 0.000000
0.781625 0.561037 0.000000
0.793282 0.559443 0.000000
0.804599 0.557853 0.000000
0.815601 0.556262 0.000000
0.000000 0.571380 0.216350
0.000000 0.579063 0.182057
0.000000 0.586702 0.132819
0.000000 0.594512 0.037388
0.113364 0.597881 0.000000
0.208506 0.598509 0.000000
0.270636 0.599004 0.000000
0.319590 0.599387 0.000000
0.361035 0.599660 0.000000
0.397440 0.599837 0.000000
0.430178 0.599927 0.000000
0.460097 0.599940 0.000000
0.487758 0.599882 0.000000
0.513557 0.599762 0.000000
0.537791 0.599584 0.000000
0.560681 0.599357 0.000000
0.582401 0.599084 0.000000
0.602687 0.598369 0.000000
0.620446 0.596090 0.000000
0.637415 0.593913 0.000000
0.653679 0.591828 0.000000
0.669287 0.589810 0.000000
0.684295 0.587848 0.000000
0.698755 0.585931 0.000000
0.712698 0.584050 0.000000
0.726184 0.582218 0.000000
0.739401 0.580559 0.000000
0.752195 0.578915 0.000000
0.764591 0.577280 0.000000
0.776611 0.575654 0.000000
0.788283 0.574033 0.000000
0.799614 0.572418 0.000000
0.810626 0.570807 0.000000
0.000000 0.584924 0.222004
0.000000 0.592354 0.189161
0.000000 0.599788 0.143207
0.000000 0.607397 0.064024
0.081228 0.612019 0.000000
0.192395 0.612542 0.000000
0.258386 0.612949 0.000000
0.309229 0.613245 0.000000
0.351772 0.613440 0.000000
0.388903 0.613543 0.000000
0.422132 0.613568 0.000000
0.452407 0.613518 0.000000
0.480331 0.613400 0.000000
0.506320 0.613223 0.000000
0.530696 0.612991 0.000000
0.553687 0.612711 0.000000
0.575479 0.612386 0.000000
0.596218 0.612022 0.000000
0.615599 0.611202 0.000000
0.632570 0.608856 0.000000
0.648818 0.606612 0.000000
0.664411 0.604455 0.000000
0.679408 0.602371 0.000000
0.693850 0.600344 0.000000
0.707774 0.598365 0.000000
0.721220 0.596424 0.000000
0.734344 0.594627 0.000000
0.747154 0.592940 0.000000
0.759565 0.591269 0.000000
0.771597 0.589610 0.000000
0.783282 0.587962 0.000000
0.794629 0.586320 0.000000
0.805653 0.584687 0.000000
0.000000 0.597652 0.227299
0.000000 0.604853 0.195777
0.000000 0.612095 0.152649
0.000000 0.619529 0.083579
0.032314 0.625403 0.000000
0.174695 0.625833 0.000000
0.245523 0.626152 0.000000
0.298502 0.626370 0.000000
0.342263 0.626495 0.000000
0.380171 0.626535 0.000000
0.413946 0.626499 0.000000
0.444600 0.626394 0.000000
0.472804 0.626224 0.000000
0.499010 0.625996 0.000000
0.523542 0.625717 0.000000
0.546650 0.625390 0.000000
0.568530 0.625020 0.000000
0.589331 0.624612 0.000000
0.609177 0.624170 0.000000
0.627728 0.623258 0.000000
0.643977 0.620858 0.000000
0.659564 0.618559 0.000000
0.674545 0.616346 0.000000
0.688970 0.614205 0.000000
0.702880 0.612123 0.000000
0.716311 0.610092 0.000000
0.729295 0.608102 0.000000
0.742112 0.606366 0.000000
0.754541 0.604657 0.000000
0.766591 0.602965 0.000000
0.778282 0.601286 0.000000
0.789648 0.599620 0.000000
0.800692 0.597962 0.000000
0.000000 0.609645 0.232269
0.000000 0.616636 0.201957
0.000000 0.623697 0.161298
0.000000 0.630956 0.099604
0.000000 0.638084 0.000000
0.155207 0.638429 0.000000
0.232004 0.638674 0.000000
0.287406 0.638824 0.000000
0.332505 0.638887 0.000000
0.371261 0.638870 0.000000
0.405618 0.638780 0.000000
0.436687 0.638626 0.000000
0.465197 0.638410 0.000000
0.491628 0.638139 0.000000
0.516336 0.637817 0.000000
0.539579 0.637450 0.000000
0.561558 0.637040 0.000000
0.582434 0.636594 0.000000
0.602332 0.636114 0.000000
0.621361 0.635603 0.000000
0.639151 0.634612 0.000000
0.654734 0.632168 0.000000
0.669710 0.629825 0.000000
0.684126 0.627566 0.000000
0.698025 0.625379 0.000000
0.711443 0.623252 0.000000
0.724413 0.621177 0.000000
0.737074 0.619242 0.000000
0.749515 0.617495 0.000000
0.761587 0.615768 0.000000
0.773300 0.614059 0.000000
0.784672 0.612365 0.000000
0.795733 0.610684 0.000000
0.000000 0.620970 0.236947
0.000000 0.627768 0.207747
0.000000 0.634658 0.169275
0.000000 0.641753 0.113231
0.000000 0.649105 0.000000
0.132895 0.650409 0.000000
0.217629 0.650583 0.000000
0.275882 0.650668 0.000000
0.322489 0.650672 0.000000
0.362175 0.650603 0.000000
0.397154 0.650466 0.000000
0.428676 0.650266 0.000000
0.457512 0.650009 0.000000
0.484194 0.649698 0.000000
0.509089 0.649340 0.000000
0.532475 0.648937 0.000000
0.554565 0.648494 0.000000
0.575526 0.648015 0.000000
0.595490 0.647502 0.000000
0.614565 0.646959 0.000000
0.632844 0.646389 0.000000
0.649929 0.645327 0.000000
0.664900 0.642849 0.000000
0.679309 0.640469 0.000000
0.693199 0.638173 0.000000
0.706606 0.635948 0.000000
0.719568 0.633785 0.000000
0.732109 0.631674 0.000000
0.744507 0.629826 0.000000
0.756591 0.628065 0.000000
0.768315 0.626324 0.000000
0.779714 0.624602 0.000000
0.790786 0.622895 0.000000
0.000000 0.631686 0.241358
0.000000 0.638307 0.213187
0.000000 0.645033 0.176669
0.000000 0.651999 0.124925
0.000000 0.659198 0.020500
0.106665 0.661803 0.000000
0.202367 0.661915 0.000000
0.263913 0.661947 0.000000
0.312189 0.661902 0.000000
0.352891 0.661785 0.000000
0.388557 0.661603 0.000000
0.420563 0.661362 0.000000
0.449749 0.661068 0.000000
0.476696 0.660723 0.000000
0.501796 0.660331 0.000000
0.525342 0.659897 0.000000
0.547556 0.659424 0.000000
0.568612 0.658915 0.000000
0.588649 0.658374 0.000000
0.607781 0.657804 0.000000
0.626101 0.657207 0.000000
0.643688 0.656585 0.000000
0.660123 0.655460 0.000000
0.674528 0.652956 0.000000
0.688413 0.650549 0.000000
0.701815 0.648224 0.000000
0.714766 0.645969 0.000000
0.727297 0.643775 0.000000
0.739497 0.641690 0.000000
0.751601 0.639893 0.000000
0.763352 0.638121 0.000000
0.774761 0.636370 0.000000
0.785851 0.634637 0.000000
0.000000 0.641847 0.245525
0.000000 0.648302 0.218308
0.000000 0.654888 0.183461
0.000000 0.661712 0.135392
0.000000 0.668750 0.049889
0.072899 0.672673 0.000000
0.185888 0.672729 0.000000
0.251488 0.672701 0.000000
0.301630 0.672611 0.000000
0.343435 0.672453 0.000000
0.379831 0.672233 0.000000
0.412352 0.671955 0.000000
0.441923 0.671626 0.000000
0.469150 0.671251 0.000000
0.494468 0.670830 0.000000
0.518184 0.670368 0.000000
0.540533 0.669868 0.000000
0.561694 0.669333 0.000000
0.581816 0.668767 0.000000
0.601012 0.668172 0.000000
0.619380 0.667552 0.000000
0.637003 0.666908 0.000000
0.653950 0.666242 0.000000
0.669780 0.665060 0.000000
0.683662 0.662538 0.000000
0.697058 0.660110 0.000000
0.710004 0.657761 0.000000
0.722526 0.655481 0.000000
0.734651 0.653261 0.000000
0.746627 0.651288 0.000000
0.758396 0.649484 0.000000
0.769820 0.647703 0.000000
0.780932 0.645945 0.000000
0.000000 0.651497 0.249470
0.000000 0.657799 0.223141
0.000000 0.664258 0.189773
0.000000 0.670936 0.144875
0.000000 0.677841 0.071645
0.020937 0.683052 0.000000
0.168070 0.683046 0.000000
0.238441 0.682982 0.000000
0.290756 0.682845 0.000000
0.333808 0.682645 0.000000
0.370979 0.682392 0.000000
0.404049 0.682082 0.000000
0.434029 0.681720 0.000000
0.461557 0.681318 0.000000
0.487107 0.680870 0.000000
0.511008 0.680383 0.000000
0.533501 0.679859 0.000000
0.554777 0.679302 0.000000
0.574984 0.678716 0.000000
0.594253 0.678100 0.000000
0.612679 0.677459 0.000000
0.630346 0.676794 0.000000
0.647326 0.676108 0.000000
0.663679 0.675403 0.000000
0.678944 0.674172 0.000000
0.692339 0.671638 0.000000
0.705281 0.669193 0.000000
0.717798 0.666825 0.000000
0.729915 0.664525 0.000000
0.741673 0.662288 0.000000
0.753452 0.660443 0.000000
0.764897 0.658633 0.000000
0.776029 0.656848 0.000000
0.000000 0.660679 0.253212
0.000000 0.666837 0.227710
0.000000 0.673173 0.195690
0.000000 0.679707 0.153558
0.000000 0.686504 0.088527
0.000000 0.692969 0.000000
0.148136 0.692926 0.000000
0.224798 0.692810 0.000000
0.279557 0.692636 0.000000
0.323950 0.692402 0.000000
0.362008 0.692111 0.000000
0.395657 0.691774 0.000000
0.426063 0.691386 0.000000
0.453922 0.690955 0.000000
0.479716 0.690486 0.000000
0.503812 0.689975 0.000000
0.526459 0.689430 0.000000
0.547855 0.688855 0.000000
0.568163 0.688249 0.000000
0.587511 0.687615 0.000000
0.605999 0.686955 0.000000
0.623717 0.686274 0.000000
0.640736 0.685571 0.000000
0.657117 0.684848 0.000000
0.672917 0.684109 0.000000
0.687656 0.682833 0.000000
0.700597 0.680291 0.000000
0.713111 0.677834 0.000000
0.725226 0.675452 0.000000
0.736975 0.673140 0.000000
0.748522 0.671025 0.000000
0.759989 0.669185 0.000000
0.771139 0.667375 0.000000
0.000000 0.669428 0.256765
0.000000 0.675450 0.232041
0.000000 0.681670 0.201254
0.000000 0.688072 0.161494
0.000000 0.694749 0.102706
0.000000 0.701661 0.000000
0.125513 0.702382 0.000000
0.210355 0.702227 0.000000
0.267990 0.702015 0.000000
0.313897 0.701747 0.000000
0.352879 0.701429 0.000000
0.387182 0.701060 0.000000
0.418035 0.700650 0.000000
0.446244 0.700194 0.000000
0.472298 0.699703 0.000000
0.496597 0.699174 0.000000
0.519409 0.698610 0.000000
0.540936 0.698017 0.000000
0.561351 0.697393 0.000000
0.580784 0.696743 0.000000
0.599340 0.696070 0.000000
0.617113 0.695372 0.000000
0.634177 0.694654 0.000000
0.650595 0.693918 0.000000
0.666420 0.693164 0.000000
0.681704 0.692394 0.000000
0.695950 0.691079 0.000000
0.708465 0.688533 0.000000
0.720579 0.686068 0.000000
0.732319 0.683678 0.000000
