samples/LUTs/3D/display_view/acescg_to_srgb_displayview_33.cube
LUT_3D_SIZE 5
0.000000 0.000000 0.000000
0.417581 0.000000 0.011710
0.639332 0.000000 0.027038
0.779048 0.000000 0.036364
0.877157 0.000000 0.040252
0.000000 0.390343 0.139128
0.429799 0.426557 0.000000
0.626279 0.423624 0.000000
0.757337 0.415344 0.000000
0.855317 0.404049 0.000000
0.000000 0.556930 0.210294
0.370043 0.585084 0.000000
0.588906 0.584672 0.000000
0.717650 0.569120 0.000000
0.815601 0.556262 0.000000
0.000000 0.651497 0.249470
0.290756 0.682845 0.000000
0.533501 0.679859 0.000000
0.678944 0.674172 0.000000
0.776029 0.656848 0.000000
0.000000 0.714443 0.274862
0.187652 0.751643 0.000000
0.477163 0.746959 0.000000
0.628262 0.740823 0.000000
0.738467 0.733361 0.000000
0.000000 0.057211 0.241330
0.457754 0.000000 0.383872
0.652484 0.000000 0.415911
0.778118 0.000000 0.428196
0.869318 0.000000 0.432175
0.000000 0.405301 0.392622
0.416712 0.416713 0.416712
0.642175 0.403972 0.421490
0.785507 0.390086 0.423481
0.893492 0.375146 0.423265
0.000000 0.557370 0.445385
0.299644 0.584399 0.405701
0.574407 0.568209 0.416335
0.716910 0.558042 0.424548
0.817892 0.550346 0.430841
0.000000 0.649689 0.468322
0.199062 0.683059 0.407567
0.512959 0.669790 0.411644
0.666010 0.658205 0.416069
0.771402 0.648069 0.423690
0.000000 0.712491 0.479163
0.158735 0.745629 0.420892
0.456546 0.742288 0.408221
0.616931 0.731366 0.407675
0.728356 0.720045 0.412341
0.000000 0.126094 0.422127
0.473305 0.000000 0.544770
0.664298 0.000000 0.560500
0.785416 0.000000 0.563291
0.873857 0.000000 0.561906
0.000000 0.423685 0.505181
0.404710 0.417457 0.580946
0.635166 0.402353 0.579438
0.776580 0.389037 0.576490
0.882410 0.374899 0.573633
0.000000 0.567043 0.549857
0.284127 0.580874 0.568927
0.565546 0.565546 0.565546
0.686574 0.564552 0.571943
0.781004 0.561643 0.575594
0.000000 0.653975 0.566477
0.195343 0.678017 0.557505
0.523960 0.657802 0.565093
0.654467 0.650987 0.571848
0.743426 0.647322 0.578625
0.000000 0.714590 0.573293
0.157964 0.740962 0.554391
0.477869 0.728080 0.559783
0.623603 0.715418 0.572748
0.714864 0.710066 0.575749
0.000000 0.174259 0.549561
0.475692 0.000000 0.668867
0.669198 0.000000 0.673207
0.789647 0.000000 0.667573
0.877289 0.000000 0.660497
0.000000 0.439117 0.591210
0.389732 0.416654 0.700572
0.626301 0.401460 0.691770
0.769216 0.386984 0.684587
0.874636 0.372701 0.678301
0.000000 0.570679 0.622376
0.271474 0.578046 0.679127
0.563206 0.568901 0.646892
0.686199 0.564642 0.653296
0.779034 0.561211 0.654860
0.000000 0.659241 0.639455
0.194820 0.674468 0.657740
0.519126 0.657130 0.650152
0.650412 0.650412 0.650412
0.725794 0.651725 0.655982
0.000000 0.717449 0.642374
0.158014 0.737720 0.645334
0.469408 0.726252 0.644361
0.628964 0.709388 0.652520
0.708786 0.706506 0.657122
0.000000 0.210544 0.646733
0.471539 0.000000 0.771839
0.665352 0.000000 0.763646
0.790754 0.000000 0.755574
0.878619 0.000000 0.743509
0.000000 0.451527 0.661688
0.373444 0.415410 0.795690
0.616671 0.400299 0.781866
0.760962 0.385272 0.771354
0.866842 0.370395 0.762313
0.000000 0.573495 0.680697
0.257350 0.576017 0.764631
0.558453 0.571080 0.718696
0.682865 0.565817 0.720956
0.777231 0.560471 0.720877
0.000000 0.658930 0.693923
0.190397 0.670819 0.733475
0.517914 0.656633 0.715997
0.650278 0.653460 0.699065
0.726939 0.652372 0.705964
0.000000 0.720484 0.698955
0.158431 0.735398 0.716207
0.467052 0.723679 0.711799
0.626735 0.709702 0.705239
0.706684 0.706684 0.706684
