samples/LUTs/3D/display_view/lin709_to_srgb_displayview_33.cube
LUT_3D_SIZE 33
0.000000 0.000000 0.000000
0.019085 0.000182 0.000060
0.075139 0.000617 0.000184
0.128816 0.001324 0.000380
0.176996 0.002397 0.000699
0.220598 0.003863 0.001159
0.260344 0.005711 0.001762
0.296810 0.007911 0.002502
0.330459 0.010426 0.003366
0.361671 0.013218 0.004341
0.390757 0.016252 0.005416
0.417976 0.019496 0.006577
0.443544 0.022924 0.007816
0.467646 0.026514 0.009124
0.490437 0.030250 0.010495
0.512047 0.034116 0.011922
0.532593 0.038103 0.013402
0.552172 0.042141 0.014932
0.570870 0.046060 0.016509
0.588762 0.049865 0.018131
0.605914 0.053564 0.019796
0.622385 0.057165 0.021504
0.638225 0.060679 0.023253
0.653481 0.064113 0.025042
0.668193 0.067473 0.026872
0.682400 0.070766 0.028743
0.696132 0.073996 0.030652
0.709422 0.077169 0.032602
0.722295 0.080288 0.034590
0.734776 0.083358 0.036619
0.746885 0.086378 0.038683
0.758533 0.089200 0.040647
0.769867 0.091997 0.042600
0.001395 0.055470 0.001265
0.070991 0.071391 0.001166
0.128491 0.083570 0.001615
0.176598 0.093463 0.002422
0.219174 0.101763 0.003417
0.257744 0.108842 0.004504
0.293137 0.114935 0.005616
0.325832 0.120281 0.006829
0.356220 0.125030 0.008135
0.384607 0.129290 0.009518
0.411226 0.133159 0.010989
0.436294 0.136686 0.012509
0.459976 0.139927 0.014076
0.482404 0.142940 0.015710
0.503702 0.145771 0.017420
0.523995 0.148401 0.019123
0.543347 0.150912 0.020916
0.561844 0.153304 0.022762
0.579592 0.155541 0.024563
0.596598 0.157730 0.026483
0.612928 0.159859 0.028482
0.628690 0.161839 0.030375
0.643866 0.163789 0.032359
0.658499 0.165706 0.034418
0.672629 0.167589 0.036536
0.686290 0.169440 0.038709
0.699545 0.171204 0.040803
0.712404 0.172916 0.042833
0.724856 0.174638 0.044904
0.736880 0.176293 0.046902
0.748521 0.177899 0.048844
0.759847 0.179499 0.050781
0.770872 0.181094 0.052711
0.005236 0.137081 0.004748
0.097723 0.148177 0.003818
0.156659 0.157352 0.004544
0.203811 0.165070 0.005476
0.244674 0.171747 0.006671
0.281206 0.177596 0.008182
0.314482 0.182780 0.009890
0.345172 0.187409 0.011693
0.373712 0.191567 0.013558
0.400414 0.195322 0.015465
0.425512 0.198737 0.017427
0.449223 0.201833 0.019336
0.471681 0.204665 0.021250
0.492992 0.207295 0.023258
0.513298 0.209717 0.025231
0.532667 0.211983 0.027266
0.551180 0.214115 0.029358
0.568916 0.216125 0.031482
0.585954 0.218006 0.033573
0.602319 0.219804 0.035734
0.618065 0.221531 0.037960
0.633259 0.223165 0.040146
0.647905 0.224757 0.042370
0.662063 0.226287 0.044534
0.675770 0.227751 0.046619
0.689015 0.229206 0.048764
0.701881 0.230588 0.050783
0.714359 0.231941 0.052787
0.726410 0.233196 0.054664
0.738117 0.234411 0.056495
0.749554 0.235559 0.058188
0.760680 0.236707 0.059909
0.771514 0.237854 0.061647
0.011599 0.201649 0.010215
0.114362 0.209697 0.007896
0.174535 0.216468 0.009206
0.221584 0.222537 0.010260
0.261583 0.227684 0.011669
0.297124 0.232294 0.013216
0.329345 0.236432 0.015015
0.358944 0.240171 0.017035
0.386398 0.243573 0.019219
0.412058 0.246678 0.021473
0.436175 0.249525 0.023780
0.458948 0.252142 0.026108
0.480532 0.254554 0.028440
0.501050 0.256787 0.030788
0.520606 0.258862 0.033150
0.539288 0.260800 0.035536
0.557181 0.262606 0.037897
0.574344 0.264304 0.040267
0.590833 0.265905 0.042589
0.606702 0.267419 0.044843
0.621996 0.268857 0.047041
0.636749 0.270231 0.049207
0.651007 0.271541 0.051309
0.664810 0.272787 0.053328
0.678155 0.274003 0.055378
0.691114 0.275154 0.057312
0.703665 0.276287 0.059279
0.715824 0.277309 0.061054
0.727607 0.278319 0.062877
0.739110 0.279273 0.064565
0.750289 0.280232 0.066312
0.761176 0.281180 0.068062
0.771820 0.282087 0.069712
0.020182 0.254814 0.017289
0.126096 0.260902 0.013330
0.187046 0.266006 0.015075
0.233958 0.270668 0.016648
0.273748 0.274937 0.018058
0.308582 0.278492 0.019865
0.340075 0.281744 0.021737
0.368963 0.284718 0.023790
0.395720 0.287443 0.026034
0.420693 0.289951 0.028437
0.444144 0.292266 0.030933
0.466271 0.294412 0.033522
0.487241 0.296401 0.036120
0.507176 0.298254 0.038761
0.526190 0.299979 0.041344
0.544364 0.301593 0.043855
0.561773 0.303106 0.046285
0.578480 0.304531 0.048653
0.594553 0.305867 0.050905
0.610025 0.307135 0.053122
0.624944 0.308338 0.055288
0.639352 0.309482 0.057396
0.653284 0.310570 0.059442
0.666772 0.311609 0.061436
0.679839 0.312606 0.063392
0.692508 0.313569 0.065325
0.704773 0.314472 0.067195
0.716687 0.315308 0.068929
0.728260 0.316136 0.070704
0.739541 0.316933 0.072411
0.750518 0.317723 0.074139
0.761231 0.318488 0.075815
0.771657 0.319257 0.077540
0.030617 0.299870 0.025636
0.135146 0.304644 0.019981
0.196376 0.308573 0.022067
0.243173 0.312203 0.024050
0.282570 0.315565 0.025902
0.317272 0.318681 0.027663
0.348195 0.321184 0.029796
0.376514 0.323509 0.031962
0.402731 0.325664 0.034252
0.427191 0.327661 0.036679
0.450146 0.329516 0.039260
0.471800 0.331242 0.041895
0.492313 0.332853 0.044491
0.511810 0.334359 0.047060
0.530403 0.335769 0.049553
0.548175 0.337093 0.051990
0.565206 0.338336 0.054344
0.581557 0.339508 0.056637
0.597282 0.340615 0.058874
0.612432 0.341661 0.061045
0.627050 0.342652 0.063151
0.641172 0.343594 0.065206
0.654827 0.344494 0.067229
0.668049 0.345355 0.069205
0.680865 0.346177 0.071136
0.693303 0.346966 0.073020
0.705343 0.347680 0.074786
0.717050 0.348375 0.076534
0.728436 0.349053 0.078277
0.739523 0.349715 0.080000
0.750337 0.350355 0.081672
0.760863 0.350994 0.083381
0.771150 0.351608 0.085018
0.042513 0.338885 0.035003
0.142619 0.342742 0.027692
0.203717 0.345820 0.030068
0.250315 0.348683 0.032342
0.289392 0.351351 0.034561
0.323674 0.353843 0.036720
0.354553 0.356168 0.038846
0.382405 0.357943 0.041223
0.408161 0.359609 0.043533
0.432186 0.361171 0.045854
0.454734 0.362632 0.048208
0.476003 0.364000 0.050572
0.496147 0.365281 0.052952
0.515295 0.366483 0.055312
0.533551 0.367613 0.057658
0.551002 0.368677 0.059972
0.567723 0.369680 0.062239
0.583778 0.370628 0.064459
0.599224 0.371523 0.066617
0.614104 0.372373 0.068740
0.628469 0.373176 0.070785
0.642346 0.373941 0.072799
0.655770 0.374671 0.074774
0.668768 0.375370 0.076722
0.681379 0.376034 0.078595
0.693604 0.376661 0.080423
0.705460 0.377244 0.082184
0.716990 0.377809 0.083919
0.728210 0.378359 0.085641
0.739129 0.378899 0.087364
0.749786 0.379418 0.089020
0.760175 0.379928 0.090669
0.770303 0.380433 0.092332
0.054186 0.373237 0.044966
0.149128 0.376433 0.036345
0.209753 0.378878 0.038916
0.256063 0.381156 0.041459
0.294822 0.383287 0.043866
0.328746 0.385285 0.046150
0.359231 0.387159 0.048345
0.387104 0.388916 0.050474
0.412474 0.390169 0.052679
0.436115 0.391353 0.054860
0.458302 0.392474 0.057013
0.479234 0.393531 0.059181
0.499060 0.394528 0.061365
0.517908 0.395467 0.063543
0.535877 0.396353 0.065731
0.553058 0.397188 0.067896
0.569522 0.397977 0.070030
0.585328 0.398725 0.072155
0.600538 0.399432 0.074219
0.615192 0.400103 0.076257
0.629335 0.400740 0.078257
0.643000 0.401348 0.080227
0.656225 0.401925 0.082145
0.669037 0.402477 0.084026
0.681459 0.403004 0.085877
0.693502 0.403500 0.087687
0.705197 0.403964 0.089427
0.716574 0.404411 0.091133
0.727645 0.404847 0.092829
0.738428 0.405272 0.094508
0.748934 0.405689 0.096184
0.759185 0.406093 0.097822
0.769191 0.406489 0.099436
0.065131 0.403886 0.054386
0.155007 0.406593 0.045492
0.214933 0.408549 0.048015
0.260844 0.410375 0.050441
0.299264 0.412085 0.052781
0.332852 0.413689 0.055052
0.362992 0.415196 0.057221
0.390511 0.416613 0.059350
0.415946 0.417945 0.061465
0.439260 0.418813 0.063529
0.461124 0.419637 0.065576
0.481749 0.420423 0.067606
0.501288 0.421171 0.069637
0.519866 0.421880 0.071674
0.537581 0.422552 0.073717
0.554521 0.423188 0.075742
0.570755 0.423789 0.077760
0.586346 0.424359 0.079754
0.601344 0.424901 0.081745
0.615800 0.425414 0.083695
0.629752 0.425902 0.085621
0.643235 0.426367 0.087521
0.656282 0.426809 0.089391
0.668926 0.427231 0.091213
0.681183 0.427635 0.093029
0.693080 0.428012 0.094775
0.704628 0.428369 0.096499
0.715863 0.428713 0.098195
0.726801 0.429046 0.099861
0.737454 0.429372 0.101517
0.747838 0.429689 0.103156
0.757964 0.430000 0.104780
0.767845 0.430306 0.106395
0.075465 0.431527 0.063233
0.160507 0.433863 0.054281
0.219527 0.435434 0.056662
0.264963 0.436899 0.059029
0.303004 0.438272 0.061276
0.336253 0.439560 0.063479
0.366070 0.440768 0.065633
0.393270 0.441904 0.067747
0.418389 0.442972 0.069838
0.441796 0.443976 0.071904
0.463380 0.444554 0.073855
0.483725 0.445103 0.075789
0.503000 0.445632 0.077705
0.521328 0.446139 0.079626
0.538811 0.446622 0.081553
0.555529 0.447081 0.083467
0.571555 0.447517 0.085372
0.586948 0.447931 0.087266
0.601758 0.448325 0.089160
0.616033 0.448699 0.091027
0.629814 0.449053 0.092873
0.643133 0.449391 0.094700
0.656022 0.449712 0.096507
0.668509 0.450019 0.098294
0.680623 0.450311 0.100044
0.692380 0.450586 0.101761
0.703800 0.450844 0.103448
0.714907 0.451095 0.105123
0.725723 0.451337 0.106759
0.736256 0.451573 0.108393
0.746524 0.451804 0.110010
0.756538 0.452029 0.111616
0.766310 0.452251 0.113206
0.085267 0.456677 0.071598
0.165723 0.458726 0.062622
0.223725 0.459986 0.064933
0.268602 0.461160 0.067203
0.306236 0.462258 0.069394
0.339139 0.463285 0.071541
0.368642 0.464247 0.073669
0.395539 0.465150 0.075726
0.420369 0.465996 0.077798
0.443494 0.466791 0.079816
0.465184 0.467538 0.081860
0.485285 0.467894 0.083710
0.504316 0.468229 0.085547
0.522413 0.468556 0.087374
0.539676 0.468872 0.089199
0.556189 0.469176 0.091022
0.572019 0.469466 0.092845
0.587227 0.469741 0.094656
0.601863 0.470004 0.096457
0.615972 0.470253 0.098244
0.629592 0.470489 0.100026
0.642758 0.470714 0.101792
0.655502 0.470927 0.103532
0.667852 0.471129 0.105251
0.679832 0.471321 0.106949
0.691460 0.471504 0.108634
0.702760 0.471674 0.110285
0.713752 0.471839 0.111919
0.724452 0.471999 0.113540
0.734873 0.472155 0.115154
0.745033 0.472308 0.116751
0.754947 0.472455 0.118318
0.764620 0.472601 0.119883
0.094622 0.479729 0.079547
0.170789 0.481551 0.070644
0.227659 0.482556 0.072883
0.271913 0.483490 0.075067
0.309108 0.484360 0.077200
0.341649 0.485171 0.079288
0.370831 0.485928 0.081345
0.397438 0.486635 0.083375
0.421992 0.487295 0.085385
0.444855 0.487912 0.087390
0.466293 0.488489 0.089390
0.486506 0.489030 0.091393
0.505323 0.489212 0.093149
0.523203 0.489380 0.094899
0.540261 0.489547 0.096652
0.556579 0.489712 0.098402
0.572225 0.489871 0.100153
0.587259 0.490022 0.101882
0.601729 0.490168 0.103619
0.615682 0.490305 0.105334
0.629152 0.490436 0.107047
0.642176 0.490559 0.108747
0.654784 0.490675 0.110430
0.667002 0.490784 0.112097
0.678856 0.490887 0.113746
0.690366 0.490984 0.115382
0.701551 0.491076 0.117009
0.712433 0.491164 0.118609
0.723026 0.491250 0.120208
0.733347 0.491333 0.121782
0.743410 0.491413 0.123347
0.753221 0.491492 0.124907
0.762797 0.491570 0.126456
0.103579 0.500992 0.087140
0.175765 0.502630 0.078381
0.231394 0.503425 0.080493
0.274982 0.504158 0.082604
0.311715 0.504836 0.084701
0.343880 0.505466 0.086725
0.372739 0.506050 0.088732
0.399059 0.506590 0.090724
0.423346 0.507091 0.092700
0.445958 0.507556 0.094666
0.467158 0.507987 0.096632
0.487144 0.508388 0.098595
0.506071 0.508759 0.100548
0.523762 0.508804 0.102234
0.540624 0.508840 0.103922
0.556759 0.508879 0.105592
0.572231 0.508921 0.107267
0.587098 0.508963 0.108947
0.601412 0.509003 0.110612
0.615214 0.509041 0.112274
0.628542 0.509077 0.113934
0.641429 0.509109 0.115585
0.653908 0.509138 0.117214
0.666001 0.509163 0.118832
0.677737 0.509185 0.120431
0.689133 0.509204 0.122018
0.700211 0.509224 0.123603
0.710988 0.509243 0.125184
0.721483 0.509260 0.126742
0.731704 0.509278 0.128302
0.741670 0.509293 0.129843
0.751393 0.509308 0.131366
0.760881 0.509323 0.132890
0.112190 0.520710 0.094422
0.180643 0.522200 0.085799
0.235018 0.522814 0.087864
0.277895 0.523377 0.089905
0.314132 0.523894 0.091929
0.345911 0.524368 0.093912
0.374444 0.524803 0.095876
0.400475 0.525201 0.097839
0.424497 0.525566 0.099756
0.446864 0.525900 0.101682
0.467836 0.526205 0.103613
0.487605 0.526484 0.105517
0.506326 0.526739 0.107439
0.524122 0.526971 0.109365
0.540816 0.526907 0.111000
0.556774 0.526836 0.112598
0.572078 0.526773 0.114227
0.586788 0.526715 0.115835
0.600950 0.526661 0.117458
0.614609 0.526609 0.119061
0.627802 0.526559 0.120665
0.640560 0.526509 0.122257
0.652914 0.526459 0.123847
0.664888 0.526409 0.125423
0.676509 0.526359 0.126985
0.687794 0.526308 0.128541
0.698767 0.526259 0.130084
0.709446 0.526215 0.131627
0.719840 0.526172 0.133176
0.729973 0.526128 0.134692
0.739847 0.526086 0.136217
0.749482 0.526043 0.137716
0.758884 0.526002 0.139216
0.120491 0.539080 0.101433
0.185474 0.540448 0.092971
0.238573 0.540906 0.095007
0.280708 0.541323 0.096985
0.316421 0.541701 0.098933
0.347802 0.542041 0.100882
0.375999 0.542348 0.102802
0.401734 0.542624 0.104697
0.425498 0.542870 0.106600
0.447625 0.543091 0.108471
0.468374 0.543286 0.110363
0.487934 0.543459 0.112225
0.506457 0.543611 0.114125
0.524065 0.543745 0.115985
0.540856 0.543861 0.117879
0.556660 0.543710 0.119450
0.571805 0.543553 0.121005
0.586362 0.543405 0.122564
0.600379 0.543266 0.124136
0.613900 0.543133 0.125701
0.626961 0.543006 0.127250
0.639594 0.542882 0.128805
0.651827 0.542761 0.130352
0.663687 0.542643 0.131887
0.675196 0.542526 0.133421
0.686376 0.542412 0.134937
0.697247 0.542299 0.136433
0.707829 0.542198 0.137956
0.718133 0.542098 0.139470
0.728174 0.542000 0.140968
0.737961 0.541904 0.142468
0.747511 0.541810 0.143949
0.756832 0.541716 0.145423
0.128525 0.556264 0.108201
0.190288 0.557528 0.099933
0.242065 0.557854 0.101899
0.283446 0.558143 0.103839
0.318632 0.558399 0.105759
0.349598 0.558623 0.107661
0.377448 0.558819 0.109517
0.402889 0.558988 0.111370
0.426388 0.559132 0.113225
0.448279 0.559252 0.115077
0.468807 0.559352 0.116900
0.488163 0.559432 0.118735
0.506495 0.559493 0.120593
0.523921 0.559540 0.122423
0.540541 0.559572 0.124259
0.556432 0.559590 0.126119
0.571437 0.559367 0.127636
0.585847 0.559140 0.129153
0.599725 0.558925 0.130661
0.613112 0.558719 0.132177
0.626046 0.558521 0.133691
0.638557 0.558330 0.135207
0.650674 0.558145 0.136713
0.662423 0.557964 0.138219
0.673825 0.557788 0.139714
0.684903 0.557616 0.141199
0.695674 0.557447 0.142671
0.706160 0.557289 0.144157
0.716374 0.557139 0.145648
0.726327 0.556991 0.147128
0.736030 0.556846 0.148602
0.745499 0.556703 0.150061
0.754739 0.556564 0.151519
0.136309 0.572396 0.114756
0.195091 0.573569 0.106703
0.245546 0.573780 0.108619
0.286146 0.573958 0.110509
0.320784 0.574108 0.112376
0.351323 0.574231 0.114221
0.378827 0.574329 0.116049
0.403969 0.574403 0.117867
0.427204 0.574456 0.119675
0.448856 0.574489 0.121479
0.469168 0.574503 0.123289
0.488322 0.574501 0.125082
0.506466 0.574484 0.126873
0.523717 0.574453 0.128674
0.540169 0.574409 0.130480
0.555902 0.574355 0.132290
0.570982 0.574290 0.134108
0.585265 0.574009 0.135583
0.599006 0.573726 0.137049
0.612265 0.573454 0.138517
0.625074 0.573193 0.139997
0.637467 0.572941 0.141472
0.649472 0.572697 0.142946
0.661114 0.572460 0.144410
0.672412 0.572229 0.145877
0.683388 0.572005 0.147345
0.694065 0.571785 0.148780
0.704455 0.571571 0.150226
0.714580 0.571375 0.151709
0.724449 0.571182 0.153165
0.734070 0.570992 0.154623
0.743458 0.570807 0.156063
0.752622 0.570624 0.157500
0.143874 0.587586 0.121119
0.199889 0.588682 0.113298
0.249034 0.588788 0.115184
0.288844 0.588868 0.117037
0.322915 0.588926 0.118845
0.353016 0.588959 0.120641
0.380164 0.588971 0.122426
0.405002 0.588962 0.124204
0.427971 0.588935 0.125969
0.449384 0.588890 0.127733
0.469477 0.588830 0.129493
0.488433 0.588755 0.131253
0.506392 0.588667 0.133010
0.523469 0.588567 0.134776
0.539759 0.588456 0.136548
0.555337 0.588336 0.138321
0.570271 0.588208 0.140093
0.584617 0.588073 0.141870
0.598243 0.587745 0.143309
0.611374 0.587414 0.144736
0.624064 0.587096 0.146164
0.636342 0.586788 0.147611
0.648235 0.586492 0.149055
0.659772 0.586203 0.150491
0.670971 0.585923 0.151919
0.681852 0.585650 0.153346
0.692432 0.585384 0.154776
0.702731 0.585123 0.156187
0.712769 0.584880 0.157627
0.722552 0.584645 0.159083
0.732095 0.584415 0.160519
0.741404 0.584189 0.161951
0.750494 0.583966 0.163364
0.151237 0.601930 0.127308
0.204690 0.602956 0.119735
0.252524 0.602971 0.121579
0.291520 0.602968 0.123359
0.325025 0.602941 0.125136
0.354693 0.602894 0.126904
0.381485 0.602827 0.128669
0.406012 0.602745 0.130399
0.428710 0.602646 0.132122
0.449882 0.602533 0.133844
0.469760 0.602406 0.135564
0.488515 0.602265 0.137287
0.506292 0.602114 0.139009
0.523197 0.601953 0.140735
0.539325 0.601782 0.142467
0.554754 0.601604 0.144207
0.569545 0.601419 0.145947
0.583756 0.601228 0.147688
0.597432 0.601032 0.149424
0.610456 0.600664 0.150832
0.623027 0.600295 0.152228
0.635193 0.599938 0.153627
0.646981 0.599593 0.155032
0.658414 0.599258 0.156436
0.669514 0.598933 0.157840
0.680298 0.598616 0.159255
0.690789 0.598307 0.160641
0.701000 0.598005 0.162036
0.710947 0.597715 0.163444
0.720653 0.597441 0.164868
0.730114 0.597174 0.166301
0.739347 0.596911 0.167717
0.748361 0.596653 0.169126
0.158420 0.615508 0.133341
0.209492 0.616472 0.126029
0.256014 0.616409 0.127805
0.294214 0.616326 0.129559
0.327157 0.616223 0.131324
0.356368 0.616106 0.133034
0.382789 0.615972 0.134741
0.407010 0.615822 0.136446
0.429440 0.615659 0.138152
0.450370 0.615484 0.139826
0.470029 0.615296 0.141509
0.488587 0.615098 0.143196
0.506180 0.614890 0.144888
0.522915 0.614674 0.146581
0.538885 0.614450 0.148261
0.554164 0.614219 0.149955
0.568814 0.613982 0.151661
0.582893 0.613741 0.153367
0.596443 0.613495 0.155082
0.609506 0.613247 0.156787
0.621977 0.612848 0.158169
0.634032 0.612445 0.159537
0.645715 0.612057 0.160895
0.657047 0.611680 0.162270
0.668050 0.611314 0.163653
0.678742 0.610957 0.165032
0.689144 0.610609 0.166406
0.699268 0.610269 0.167779
0.709131 0.609938 0.169141
0.718751 0.609626 0.170560
0.728138 0.609324 0.171968
0.737296 0.609027 0.173373
0.746238 0.608735 0.174767
0.165432 0.628390 0.139232
0.214295 0.629296 0.132188
0.259531 0.629162 0.133906
0.296941 0.629008 0.135646
0.329289 0.628841 0.137345
0.358055 0.628659 0.139031
0.384112 0.628461 0.140724
0.408014 0.628253 0.142373
0.430170 0.628033 0.144036
0.450860 0.627801 0.145694
0.470299 0.627560 0.147336
0.488658 0.627309 0.148986
0.506068 0.627050 0.150648
0.522633 0.626784 0.152293
0.538445 0.626512 0.153942
0.553578 0.626234 0.155607
0.568090 0.625950 0.157286
0.582035 0.625664 0.158946
0.595462 0.625374 0.160613
0.608408 0.625082 0.162297
0.620908 0.624788 0.163974
0.632869 0.624361 0.165333
0.644446 0.623933 0.166666
0.655681 0.623518 0.168003
0.666588 0.623114 0.169354
0.677189 0.622721 0.170710
0.687503 0.622338 0.172064
0.697542 0.621964 0.173414
0.707324 0.621598 0.174760
0.716862 0.621246 0.176121
0.726172 0.620911 0.177524
0.735257 0.620583 0.178924
0.744127 0.620260 0.180307
0.172293 0.640635 0.144995
0.219103 0.641487 0.138222
0.263076 0.641291 0.139890
0.299690 0.641073 0.141609
0.331450 0.640847 0.143257
0.359772 0.640604 0.144936
0.385442 0.640354 0.146557
0.409036 0.640090 0.148205
0.430913 0.639818 0.149817
0.451360 0.639536 0.151443
0.470581 0.639246 0.153058
0.488741 0.638948 0.154670
0.505968 0.638643 0.156294
0.522364 0.638332 0.157905
0.538018 0.638016 0.159527
0.553004 0.637695 0.161163
0.567379 0.637370 0.162780
0.581194 0.637042 0.164422
0.594498 0.636711 0.166078
0.607328 0.636381 0.167696
0.619718 0.636047 0.169351
0.631697 0.635714 0.170998
0.643186 0.635265 0.172341
0.654321 0.634815 0.173643
0.665135 0.634377 0.174961
0.675649 0.633951 0.176284
0.685874 0.633535 0.177619
0.695831 0.633130 0.178953
0.705533 0.632733 0.180273
0.714990 0.632345 0.181606
0.724224 0.631979 0.182974
0.733237 0.631621 0.184362
0.742036 0.631271 0.185746
0.179011 0.652296 0.150639
0.223896 0.653100 0.144122
0.266650 0.652844 0.145765
0.302460 0.652571 0.147437
0.333650 0.652288 0.149077
0.361501 0.651995 0.150695
0.386808 0.651692 0.152316
0.410076 0.651381 0.153907
0.431681 0.651061 0.155508
0.451880 0.650734 0.157090
0.470883 0.650399 0.158678
0.488842 0.650059 0.160256
0.505885 0.649712 0.161845
0.522114 0.649360 0.163428
0.537612 0.649004 0.165019
0.552451 0.648644 0.166612
0.566687 0.648282 0.168201
0.580375 0.647916 0.169817
0.593558 0.647549 0.171412
0.606271 0.647181 0.173035
0.618552 0.646813 0.174637
0.630428 0.646445 0.176254
0.641925 0.646078 0.177873
0.652976 0.645610 0.179193
0.663698 0.645142 0.180476
0.674121 0.644686 0.181782
0.684265 0.644241 0.183073
0.694138 0.643806 0.184396
0.703761 0.643381 0.185699
0.713142 0.642965 0.187010
0.722299 0.642564 0.188338
0.731240 0.642180 0.189712
0.739971 0.641802 0.191078
0.185600 0.663419 0.156173
0.228689 0.664176 0.149919
0.270258 0.663866 0.151543
0.305269 0.663543 0.153169
0.335884 0.663209 0.154798
0.363272 0.662870 0.156372
0.388201 0.662521 0.157957
0.411153 0.662165 0.159533
0.432476 0.661803 0.161087
0.452433 0.661433 0.162658
0.471212 0.661059 0.164201
0.488972 0.660678 0.165758
0.505830 0.660294 0.167307
0.521891 0.659906 0.168860
0.537232 0.659513 0.170419
0.551925 0.659118 0.171985
0.566025 0.658721 0.173541
0.579584 0.658322 0.175116
0.592644 0.657922 0.176687
0.605243 0.657521 0.178277
0.617416 0.657120 0.179852
0.629188 0.656720 0.181439
0.640589 0.656322 0.183017
0.651639 0.655925 0.184609
0.662280 0.655441 0.185910
0.672618 0.654958 0.187176
0.682675 0.654486 0.188460
0.692470 0.654026 0.189736
0.702014 0.653575 0.191034
0.711318 0.653134 0.192331
0.720400 0.652702 0.193620
0.729270 0.652290 0.194968
0.737932 0.651889 0.196331
0.192065 0.674044 0.161610
0.233480 0.674757 0.155619
0.273901 0.674395 0.157234
0.308117 0.674028 0.158813
0.338149 0.673649 0.160402
0.365093 0.673264 0.161983
0.389633 0.672876 0.163515
0.412263 0.672479 0.165058
0.433310 0.672077 0.166599
0.453015 0.671671 0.168118
0.471576 0.671259 0.169651
0.489133 0.670844 0.171167
0.505807 0.670425 0.172689
0.521700 0.670002 0.174221
0.536883 0.669577 0.175740
0.551431 0.669149 0.177279
0.565394 0.668721 0.178803
0.578825 0.668291 0.180342
0.591765 0.667860 0.181886
0.604250 0.667430 0.183430
0.616315 0.666999 0.184996
0.627984 0.666571 0.186540
0.639288 0.666143 0.188107
0.650246 0.665718 0.189652
0.660879 0.665295 0.191217
0.671138 0.664798 0.192501
0.681113 0.664303 0.193752
0.690827 0.663818 0.195019
0.700294 0.663344 0.196285
0.709527 0.662880 0.197555
0.718534 0.662425 0.198840
0.727331 0.661983 0.200145
0.735930 0.661559 0.201480
0.198419 0.684207 0.166954
0.238278 0.684876 0.161230
0.277573 0.684468 0.162834
0.311006 0.684060 0.164373
0.340457 0.683642 0.165927
0.366938 0.683217 0.167471
0.391114 0.682787 0.169012
0.413413 0.682357 0.170502
0.434179 0.681919 0.172013
0.453640 0.681477 0.173520
0.471975 0.681032 0.175012
0.489331 0.680584 0.176503
0.505824 0.680133 0.178004
0.521544 0.679680 0.179494
0.536571 0.679225 0.180987
0.550972 0.678768 0.182500
0.564799 0.678310 0.183996
0.578101 0.677853 0.185500
0.590921 0.677395 0.187017
0.603293 0.676937 0.188528
0.615251 0.676479 0.190067
0.626818 0.676024 0.191587
0.638024 0.675571 0.193114
0.648890 0.675119 0.194646
0.659436 0.674671 0.196167
0.669681 0.674225 0.197705
0.679581 0.673717 0.198975
0.689216 0.673211 0.200213
0.698607 0.672716 0.201465
0.707766 0.672231 0.202715
0.716704 0.671755 0.203972
0.725429 0.671289 0.205242
0.733958 0.670841 0.206564
0.204671 0.693939 0.172214
0.243067 0.694566 0.166758
0.281259 0.694118 0.168329
0.313949 0.693668 0.169868
0.342812 0.693215 0.171377
0.368833 0.692755 0.172890
0.392627 0.692291 0.174395
0.414614 0.691823 0.175889
0.435094 0.691354 0.177359
0.454304 0.690881 0.178831
0.472418 0.690405 0.180305
0.489573 0.689927 0.181779
0.505878 0.689448 0.183235
0.521429 0.688966 0.184703
0.536301 0.688483 0.186180
0.550553 0.688000 0.187647
0.564244 0.687516 0.189120
0.577420 0.687032 0.190610
0.590119 0.686549 0.192083
0.602377 0.686067 0.193565
0.614226 0.685585 0.195073
0.625694 0.685105 0.196567
0.636803 0.684628 0.198065
0.647577 0.684153 0.199577
0.658034 0.683681 0.201073
0.668196 0.683212 0.202569
0.678074 0.682747 0.204082
0.687638 0.682230 0.205340
0.696954 0.681715 0.206571
0.706039 0.681211 0.207805
