samples/LUTs/3D/display_view/lin709_to_srgb_displayview_33.cube
LUT_3D_SIZE 9
0.000000 0.000000 0.000000
0.176996 0.002397 0.000699
0.330459 0.010426 0.003366
0.443544 0.022924 0.007816
0.532593 0.038103 0.013402
0.605914 0.053564 0.019796
0.668193 0.067473 0.026872
0.722295 0.080288 0.034590
0.769867 0.091997 0.042600
0.020182 0.254814 0.017289
0.273748 0.274937 0.018058
0.395720 0.287443 0.026034
0.487241 0.296401 0.036120
0.561773 0.303106 0.046285
0.624944 0.308338 0.055288
0.679839 0.312606 0.063392
0.728260 0.316136 0.070704
0.771657 0.319257 0.077540
0.065131 0.403886 0.054386
0.299264 0.412085 0.052781
0.415946 0.417945 0.061465
0.501288 0.421171 0.069637
0.570755 0.423789 0.077760
0.629752 0.425902 0.085621
0.681183 0.427635 0.093029
0.726801 0.429046 0.099861
0.767845 0.430306 0.106395
0.103579 0.500992 0.087140
0.311715 0.504836 0.084701
0.423346 0.507091 0.092700
0.506071 0.508759 0.100548
0.572231 0.508921 0.107267
0.628542 0.509077 0.113934
0.677737 0.509185 0.120431
0.721483 0.509260 0.126742
0.760881 0.509323 0.132890
0.136309 0.572396 0.114756
0.320784 0.574108 0.112376
0.427204 0.574456 0.119675
0.506466 0.574484 0.126873
0.570982 0.574290 0.134108
0.625074 0.573193 0.139997
0.672412 0.572229 0.145877
0.714580 0.571375 0.151709
0.752622 0.570624 0.157500
0.165432 0.628390 0.139232
0.329289 0.628841 0.137345
0.430170 0.628033 0.144036
0.506068 0.627050 0.150648
0.568090 0.625950 0.157286
0.620908 0.624788 0.163974
0.666588 0.623114 0.169354
0.707324 0.621598 0.174760
0.744127 0.620260 0.180307
0.192065 0.674044 0.161610
0.338149 0.673649 0.160402
0.433310 0.672077 0.166599
0.505807 0.670425 0.172689
0.565394 0.668721 0.178803
0.616315 0.666999 0.184996
0.660879 0.665295 0.191217
0.700294 0.663344 0.196285
0.735930 0.661559 0.201480
0.216920 0.712233 0.182536
0.347668 0.711208 0.182085
0.437063 0.709110 0.187846
0.506125 0.706991 0.193529
0.563269 0.704868 0.199200
0.612311 0.702761 0.204928
0.655366 0.700689 0.210732
0.693753 0.698676 0.216535
0.728282 0.696591 0.221413
0.240638 0.744749 0.202583
0.358043 0.743225 0.202920
0.441685 0.740748 0.208307
0.507252 0.738296 0.213568
0.561911 0.735873 0.218801
0.609058 0.733491 0.224104
0.650603 0.731164 0.229497
0.687746 0.728903 0.234950
0.721314 0.726719 0.240410
0.000206 0.000000 0.138512
0.219877 0.005145 0.217674
0.356804 0.017095 0.253607
0.460063 0.032379 0.273489
0.542938 0.047956 0.285511
0.611999 0.062132 0.293302
0.671220 0.075054 0.298670
0.723083 0.087074 0.302574
0.768944 0.097783 0.305288
0.030106 0.267066 0.267125
0.279080 0.279081 0.279080
0.415296 0.282110 0.282175
0.508072 0.286350 0.286528
0.580549 0.291401 0.291344
0.640599 0.296971 0.296258
0.692015 0.302879 0.301124
0.736978 0.309005 0.305880
0.776889 0.315260 0.310504
0.079824 0.406610 0.299140
0.287475 0.415635 0.289852
0.416458 0.416969 0.294064
0.504824 0.418582 0.300443
0.574037 0.420775 0.305833
0.630980 0.423463 0.311595
0.679417 0.426581 0.317457
0.721631 0.430004 0.323215
0.759062 0.433626 0.328784
0.122308 0.499684 0.314565
0.303077 0.504384 0.304984
0.420102 0.505039 0.308346
0.503997 0.505218 0.313967
0.569535 0.505760 0.320933
0.624035 0.506782 0.326696
0.671117 0.508004 0.331628
0.712428 0.509394 0.336442
0.749113 0.510963 0.341268
0.161254 0.568334 0.325733
0.321631 0.570241 0.320751
0.426684 0.570256 0.323781
0.504774 0.569889 0.327895
0.567430 0.569432 0.333618
0.619497 0.569256 0.340093
0.664235 0.569443 0.345948
0.703775 0.569848 0.350865
0.739255 0.570372 0.355237
0.198133 0.622075 0.336440
0.340909 0.622125 0.336192
0.435147 0.621615 0.339013
0.507273 0.620869 0.342346
0.566400 0.619967 0.346712
0.616355 0.619101 0.352132
0.659404 0.618454 0.357973
0.697269 0.618078 0.363463
0.731220 0.617909 0.368280
0.234108 0.665581 0.348197
0.359846 0.664492 0.350974
0.444629 0.663569 0.353644
0.511178 0.662517 0.356542
0.566617 0.661342 0.360057
0.614152 0.660126 0.364382
0.655572 0.658991 0.369378
0.692131 0.658033 0.374620
0.724851 0.657286 0.379632
0.269557 0.701449 0.361577
0.377996 0.699934 0.365014
0.454597 0.698695 0.367555
0.516060 0.697398 0.370174
0.567955 0.696021 0.373163
0.612960 0.694597 0.376712
0.652592 0.693190 0.380856
0.687853 0.691878 0.385418
0.719515 0.690715 0.390121
0.302925 0.731541 0.375900
0.395201 0.730110 0.378320
0.464714 0.728638 0.380728
0.521598 0.727143 0.383164
0.570180 0.725612 0.385798
0.612709 0.724044 0.388825
0.650486 0.722477 0.392294
0.684362 0.720954 0.396197
0.714961 0.719528 0.400361
0.000869 0.000000 0.278928
0.244238 0.006628 0.339035
0.374235 0.019421 0.370608
0.471855 0.036401 0.388429
0.550524 0.054673 0.399422
0.616665 0.069502 0.406608
0.673936 0.081680 0.411452
0.724217 0.092955 0.414700
0.768943 0.103286 0.416820
0.039135 0.276442 0.381210
0.279685 0.277916 0.415677
0.415316 0.281970 0.414950
0.507696 0.286929 0.414794
0.579452 0.292587 0.415549
0.638704 0.298635 0.416926
0.689361 0.304902 0.418655
0.733637 0.311291 0.420576
0.772932 0.317741 0.422595
0.088430 0.409728 0.409744
0.289902 0.415243 0.415427
0.416712 0.416713 0.416712
0.497766 0.420991 0.420784
0.562371 0.425303 0.424733
0.616420 0.429669 0.428573
0.663023 0.434051 0.432276
0.704022 0.438426 0.435835
0.740611 0.442773 0.439248
0.129904 0.499982 0.421552
0.306760 0.503290 0.420184
0.427171 0.500676 0.427500
0.502795 0.503323 0.429190
0.563350 0.505300 0.434737
0.614403 0.507728 0.438563
0.657606 0.510551 0.443125
0.695095 0.513712 0.447850
0.728353 0.517064 0.452461
0.167552 0.567491 0.428401
0.329447 0.567499 0.428257
0.439407 0.563235 0.438837
0.507248 0.565528 0.439074
0.565105 0.566233 0.443156
0.612800 0.567171 0.449288
0.654241 0.568632 0.453486
0.691264 0.570184 0.456833
0.724313 0.571838 0.460306
0.203526 0.620561 0.434008
0.354129 0.617416 0.438429
0.452296 0.612749 0.449974
0.513712 0.614354 0.450276
0.567176 0.614911 0.452248
0.613221 0.614973 0.456731
0.652619 0.615268 0.462332
0.687307 0.615975 0.467019
0.718782 0.616868 0.470539
0.238801 0.663588 0.440062
0.378806 0.657753 0.449707
0.465191 0.653376 0.460633
0.521239 0.654358 0.461102
0.570388 0.654689 0.462365
0.613775 0.654526 0.465141
0.651860 0.654212 0.469472
0.685314 0.654087 0.474449
0.715202 0.654258 0.478998
0.274119 0.699036 0.447459
0.402566 0.691211 0.461481
0.477760 0.687530 0.470736
0.529194 0.688005 0.471339
0.574566 0.688067 0.472351
0.615102 0.687754 0.474253
0.651364 0.687211 0.477300
0.683732 0.686644 0.481330
0.712702 0.686231 0.485757
0.310034 0.728322 0.456774
0.425045 0.719493 0.473389
0.489837 0.716758 0.480275
0.537267 0.716823 0.480993
0.579339 0.716628 0.481909
0.617206 0.716166 0.483361
0.651475 0.715492 0.485604
0.682490 0.714721 0.488671
0.710550 0.713978 0.492371
0.001759 0.000000 0.389797
0.260163 0.007413 0.435227
0.385794 0.021006 0.460519
0.480901 0.038876 0.476187
0.557087 0.056683 0.485178
0.621071 0.072900 0.490805
0.676165 0.087935 0.494366
0.725110 0.098923 0.496767
0.768898 0.108960 0.498230
0.049820 0.283837 0.467923
0.280622 0.276881 0.510878
0.414955 0.282114 0.507959
0.506911 0.287512 0.505821
0.578536 0.293333 0.504301
0.637557 0.299535 0.503354
0.687854 0.305987 0.502889
0.731701 0.312570 0.502796
0.770548 0.319202 0.502978
0.095918 0.411824 0.491042
0.294313 0.414835 0.503003
0.418924 0.418579 0.495875
0.500057 0.421832 0.499005
0.564489 0.425835 0.500479
0.617535 0.430370 0.502127
0.663097 0.434963 0.504057
0.703184 0.439513 0.506096
0.738998 0.443999 0.508152
0.138370 0.500605 0.500543
0.312073 0.502221 0.502335
0.428515 0.501518 0.501569
0.503496 0.503496 0.503496
0.557824 0.507654 0.507499
0.604516 0.511638 0.511200
0.645474 0.515496 0.514660
0.681974 0.519239 0.517906
0.714885 0.522875 0.520958
0.175050 0.566823 0.504408
0.332491 0.566555 0.504300
0.439844 0.563704 0.507003
0.513359 0.561960 0.513451
0.564599 0.565004 0.514476
0.608645 0.567089 0.519265
0.647489 0.569501 0.522381
0.680999 0.572220 0.526274
0.710559 0.575196 0.530310
0.209868 0.619227 0.506857
0.355810 0.616510 0.508242
0.454767 0.611933 0.514078
0.523513 0.608728 0.522903
0.569301 0.611715 0.522235
0.611861 0.612751 0.525497
0.647980 0.613897 0.530880
0.680374 0.615521 0.534189
0.710035 0.617166 0.536768
0.244139 0.661842 0.509407
0.379893 0.656754 0.513864
0.470544 0.651046 0.522267
0.533641 0.647382 0.531811
0.575305 0.649779 0.531199
0.614586 0.650879 0.532236
0.649878 0.651273 0.535979
0.680602 0.651836 0.540929
0.708152 0.652801 0.544860
0.278608 0.697023 0.512939
0.403435 0.690065 0.520641
0.486331 0.683648 0.530957
0.543544 0.680063 0.540176
0.581927 0.681867 0.539760
0.617992 0.682842 0.540123
0.651311 0.683146 0.542095
0.681289 0.683180 0.545774
0.707942 0.683362 0.550186
0.313817 0.726163 0.518040
0.425884 0.718186 0.528150
0.501747 0.711343 0.539825
0.553100 0.708168 0.548016
0.588721 0.709459 0.547792
0.622062 0.710208 0.547958
0.653163 0.710443 0.549071
0.681790 0.710334 0.551432
0.707762 0.710125 0.554893
0.002396 0.000000 0.481521
0.271115 0.007235 0.516216
0.394295 0.021205 0.536185
0.486745 0.039649 0.548526
0.562076 0.058631 0.556457
0.624701 0.074490 0.560567
0.678750 0.089314 0.562880
0.726094 0.103124 0.563933
0.768694 0.114520 0.564464
0.059553 0.289599 0.539474
0.281844 0.276533 0.585844
0.414886 0.282433 0.581696
0.506172 0.288272 0.578199
0.577473 0.294256 0.575262
0.636327 0.300482 0.572804
0.686474 0.306933 0.570783
0.730133 0.313535 0.569156
0.768752 0.320210 0.567870
0.104018 0.413877 0.557677
0.298541 0.415143 0.571571
0.420424 0.419909 0.562070
0.500812 0.423427 0.562500
0.565159 0.426926 0.562909
0.618482 0.431001 0.562926
0.663900 0.435454 0.563097
0.703565 0.440033 0.563550
0.738852 0.444611 0.564227
0.145127 0.500545 0.564086
0.318062 0.501633 0.566769
0.432942 0.502146 0.559920
0.506008 0.505871 0.555408
0.560603 0.508906 0.559731
0.607561 0.512370 0.561977
0.647787 0.516223 0.564073
0.683407 0.520040 0.566271
0.715506 0.523746 0.568461
0.183409 0.566274 0.566114
0.339017 0.565276 0.565247
0.444003 0.563246 0.563234
0.514346 0.563379 0.563401
0.565546 0.565546 0.565546
0.604870 0.569267 0.569158
0.640063 0.572802 0.572491
0.671875 0.576187 0.575593
0.700891 0.579438 0.578490
0.217431 0.617954 0.566178
0.360394 0.615202 0.565587
0.456140 0.611804 0.566443
0.522946 0.610103 0.568950
0.574271 0.609203 0.574328
0.611850 0.612158 0.575128
0.645432 0.614154 0.579261
0.675898 0.616405 0.581919
0.702517 0.618907 0.585302
0.250660 0.660163 0.566204
0.382840 0.655532 0.567329
0.470738 0.651011 0.570450
0.534165 0.647809 0.575243
0.582906 0.645600 0.582465
0.616381 0.648716 0.581556
0.649179 0.649869 0.584279
0.677489 0.651064 0.588999
0.703460 0.652684 0.591724
0.284082 0.695114 0.566946
0.405391 0.688876 0.570369
0.486133 0.683520 0.575463
0.545824 0.679322 0.582134
0.591271 0.676610 0.589961
0.621823 0.679274 0.589063
0.652105 0.680615 0.589644
0.680078 0.681177 0.592855
0.704692 0.681862 0.597243
0.318346 0.724152 0.568953
0.427285 0.716979 0.574449
0.501479 0.711050 0.581165
0.557426 0.706207 0.589235
0.599343 0.703423 0.596926
0.627660 0.705580 0.596192
0.655445 0.706875 0.596138
0.681929 0.707437 0.597636
0.706163 0.707670 0.600836
0.002387 0.000000 0.559876
0.278873 0.005884 0.586553
0.400569 0.020216 0.602138
0.491219 0.038998 0.611595
0.564952 0.058564 0.617435
0.627367 0.076094 0.620949
0.680585 0.090667 0.622098
0.727291 0.104302 0.622151
0.768920 0.117373 0.621574
0.068456 0.294250 0.600921
0.283180 0.276735 0.648585
0.414904 0.282975 0.643656
0.505517 0.289118 0.639141
0.576400 0.295276 0.635126
0.635005 0.301545 0.631559
0.684999 0.307965 0.628393
0.728538 0.314515 0.625602
0.767031 0.321147 0.623157
0.111818 0.415694 0.614715
0.302609 0.415960 0.628665
0.421545 0.420969 0.619155
0.501667 0.424655 0.617315
0.565425 0.428237 0.616202
0.618639 0.432039 0.615138
0.664134 0.436182 0.614119
0.703790 0.440561 0.613303
0.738934 0.445046 0.612742
0.151964 0.500731 0.618462
0.322774 0.501642 0.620751
0.436781 0.503617 0.608128
0.507884 0.507836 0.602207
0.561810 0.510933 0.604723
0.608780 0.513750 0.606759
0.649514 0.517005 0.607904
0.685160 0.520573 0.608889
0.716944 0.524223 0.609968
0.189973 0.565445 0.618180
0.345417 0.564511 0.615862
0.448855 0.563321 0.609411
0.518375 0.564375 0.604941
0.567935 0.567850 0.602521
0.607546 0.570595 0.606886
0.643224 0.573608 0.609276
0.674568 0.576932 0.611426
0.702917 0.580200 0.613614
0.225595 0.616803 0.616529
0.366981 0.613886 0.613704
0.461091 0.611043 0.610929
0.526434 0.610049 0.610017
0.575120 0.610744 0.610759
0.612854 0.612855 0.612855
0.642826 0.616113 0.616034
0.670308 0.619210 0.618985
0.695644 0.622171 0.621741
0.258238 0.658550 0.614555
0.387984 0.654112 0.613011
0.473656 0.650320 0.612707
0.534954 0.648160 0.613772
0.582045 0.647329 0.616017
0.620458 0.646958 0.620509
0.649437 0.649674 0.621194
0.675962 0.651512 0.624775
0.700490 0.653558 0.627079
0.290765 0.693245 0.613163
0.409069 0.687508 0.613432
0.487635 0.682964 0.614996
0.545548 0.679798 0.617686
0.591015 0.677665 0.621618
0.627888 0.676162 0.627588
0.653634 0.679165 0.626661
0.679784 0.680324 0.628984
0.702594 0.681489 0.633129
0.324031 0.722176 0.612796
0.429884 0.715675 0.614891
0.502217 0.710539 0.618046
0.556817 0.706604 0.622202
0.600231 0.703587 0.627560
0.634979 0.701597 0.634049
0.658520 0.704270 0.633094
0.682683 0.705684 0.633435
0.705446 0.706317 0.636231
0.001528 0.000000 0.628363
0.284436 0.003270 0.648885
0.405199 0.018036 0.660854
0.494581 0.037196 0.667851
0.567110 0.057526 0.671816
0.628520 0.075648 0.673875
0.681773 0.092070 0.674620
0.727957 0.105560 0.673770
0.769180 0.118514 0.672393
0.076615 0.298134 0.655031
0.284531 0.277312 0.703006
0.414927 0.283714 0.697485
0.504879 0.290033 0.692191
0.575328 0.296331 0.687303
0.633643 0.302659 0.682840
0.683446 0.309068 0.678765
0.726857 0.315561 0.675053
0.765252 0.322124 0.671681
0.119168 0.417297 0.664876
0.306402 0.417096 0.678087
0.422433 0.421882 0.669463
0.502312 0.425657 0.665970
0.565654 0.429382 0.663351
0.618557 0.433149 0.661185
0.663955 0.437109 0.659213
0.703611 0.441273 0.657435
0.738742 0.445584 0.655889
0.158614 0.500993 0.666238
0.327376 0.501976 0.667321
0.440145 0.505467 0.650027
0.509311 0.509488 0.644816
0.563189 0.512555 0.645473
0.609593 0.515345 0.646454
0.650287 0.518222 0.647040
0.686138 0.521387 0.647285
0.718026 0.524763 0.647470
0.196322 0.564886 0.663929
0.350398 0.564269 0.659788
0.452317 0.564049 0.649570
0.521870 0.566133 0.640172
0.569847 0.569865 0.637083
0.608812 0.572643 0.640297
0.644522 0.575053 0.642914
0.676464 0.577790 0.644525
0.704965 0.580790 0.645855
0.232195 0.615669 0.660344
0.373175 0.613014 0.655088
0.465976 0.610811 0.648840
0.530599 0.610447 0.644547
0.578688 0.611816 0.641918
0.615011 0.614947 0.640697
0.645250 0.617387 0.644749
0.673296 0.620011 0.647043
0.698345 0.622898 0.649086
0.266172 0.657085 0.656685
0.394192 0.652813 0.652486
0.478598 0.649474 0.649248
0.539072 0.647751 0.647637
0.585035 0.647486 0.647458
0.621214 0.648452 0.648463
0.650412 0.650412 0.650412
0.674110 0.653255 0.653195
0.696187 0.655965 0.655797
0.298309 0.691462 0.653530
0.414236 0.686082 0.651112
0.491208 0.682056 0.650020
0.547721 0.679510 0.650159
0.591540 0.678257 0.651299
0.626975 0.677972 0.653288
0.657035 0.677910 0.657086
0.680175 0.680362 0.657687
0.701702 0.682028 0.660808
0.330789 0.720241 0.651269
0.433854 0.714266 0.650683
0.504536 0.709715 0.651217
0.557715 0.706478 0.652696
0.599798 0.704329 0.655005
0.634401 0.702934 0.658274
0.663485 0.701910 0.663284
0.684000 0.704710 0.662410
0.705393 0.705823 0.664423
0.000000 0.000000 0.689258
0.288421 0.000000 0.704934
0.408587 0.014761 0.713883
0.497039 0.034407 0.718770
0.568628 0.055564 0.721076
0.629187 0.074275 0.721767
0.681779 0.091310 0.721425
0.728165 0.106872 0.720325
0.769035 0.119721 0.718217
0.084231 0.301486 0.703475
0.285840 0.278130 0.751311
0.414922 0.284596 0.745289
0.504218 0.291006 0.739368
0.574240 0.297394 0.733765
0.632252 0.303779 0.728549
0.681844 0.310191 0.723714
0.725108 0.316647 0.719238
0.763402 0.323144 0.715099
0.125918 0.418660 0.709749
0.309995 0.418443 0.721857
0.423160 0.422709 0.714516
0.502732 0.426536 0.709786
0.565769 0.430358 0.705917
0.618376 0.434170 0.702681
0.663589 0.438061 0.699820
0.703165 0.442087 0.697223
0.738270 0.446240 0.694872
0.164998 0.501271 0.708972
0.331820 0.502569 0.708416
0.443020 0.507430 0.687686
0.510406 0.510893 0.683937
0.564350 0.513885 0.683074
0.610430 0.516716 0.682756
0.650828 0.519490 0.682541
0.686632 0.522403 0.682165
0.718592 0.525505 0.681692
0.202430 0.564489 0.704868
0.354889 0.564299 0.698738
0.455694 0.565048 0.685042
0.524878 0.568203 0.671599
0.571384 0.571632 0.669521
0.610309 0.574345 0.671368
0.645479 0.576710 0.673328
0.677406 0.579076 0.674734
0.706177 0.581671 0.675638
0.238456 0.614783 0.699506
0.378161 0.612576 0.691800
0.469483 0.611130 0.682600
0.533512 0.611450 0.675277
0.581825 0.613547 0.668694
0.616819 0.616834 0.667238
0.646446 0.619313 0.670545
0.674522 0.621411 0.673266
0.700180 0.623763 0.675009
0.272963 0.655807 0.694113
0.399957 0.651883 0.687251
0.483265 0.649062 0.681220
0.543181 0.647815 0.676928
0.588660 0.648016 0.674246
0.624349 0.649490 0.672768
0.652328 0.652276 0.672221
0.676265 0.654433 0.675877
0.698916 0.656726 0.677997
0.306025 0.689850 0.689315
0.419935 0.684820 0.684362
0.495888 0.681185 0.680850
0.551811 0.678982 0.678778
0.595068 0.678062 0.677967
0.629567 0.678234 0.678213
0.657711 0.679302 0.679312
0.681087 0.681087 0.681087
0.700348 0.683575 0.683529
0.338031 0.718435 0.685444
0.438797 0.712877 0.682534
0.508285 0.708734 0.680899
0.560512 0.705922 0.680380
0.601538 0.704287 0.680785
0.634787 0.703633 0.681921
0.662606 0.703677 0.683681
0.686882 0.703795 0.686933
0.705844 0.705994 0.687467
0.000000 0.000000 0.744115
0.291230 0.000000 0.755884
0.410997 0.010335 0.762288
0.498671 0.030022 0.765288
0.569550 0.052380 0.766161
0.629485 0.072194 0.765682
0.681513 0.089957 0.764320
0.727477 0.106203 0.762388
0.768539 0.120994 0.760038
0.091046 0.304279 0.747229
0.287080 0.279097 0.794874
0.414870 0.285573 0.788404
0.503517 0.292020 0.781960
0.573119 0.298459 0.775758
0.630831 0.304885 0.769902
0.680203 0.311307 0.764415
0.723310 0.317739 0.759285
0.761494 0.324182 0.754494
0.132245 0.419880 0.750476
0.312841 0.419687 0.761935
0.423767 0.423480 0.755357
0.502965 0.427337 0.749679
0.565736 0.431213 0.744805
0.618097 0.435071 0.740619
0.663112 0.438954 0.736922
0.702566 0.442904 0.733580
0.737608 0.446944 0.730522
0.171172 0.501582 0.747732
0.336025 0.503351 0.745339
0.445145 0.509241 0.722752
0.511246 0.512101 0.720095
0.565240 0.515016 0.717992
0.611163 0.517859 0.716481
0.651303 0.520621 0.715338
0.686939 0.523421 0.714276
0.718853 0.526341 0.713206
0.208429 0.564206 0.741969
0.359232 0.564520 0.733714
0.458874 0.566241 0.716991
0.527399 0.570334 0.700577
0.572615 0.573183 0.700082
0.611646 0.575784 0.700736
0.646525 0.578160 0.701706
0.678168 0.580412 0.702593
0.706915 0.582752 0.703145
0.244491 0.614083 0.734988
0.382473 0.612394 0.724952
0.472572 0.611684 0.713127
0.536376 0.612681 0.702815
0.584535 0.615546 0.692945
0.618334 0.618535 0.692596
0.647895 0.620953 0.694904
0.675464 0.623016 0.697233
0.701117 0.625033 0.698977
0.279402 0.654755 0.727940
0.404746 0.651311 0.718575
0.486818 0.649095 0.710100
0.546027 0.648399 0.703474
0.591201 0.649080 0.698432
0.627144 0.651095 0.693793
0.653985 0.653989 0.693255
0.677357 0.656193 0.696416
0.700029 0.658036 0.699042
0.313119 0.688474 0.721514
0.425202 0.683867 0.714152
0.500242 0.680666 0.708342
0.555701 0.678846 0.704087
0.598624 0.678277 0.701241
0.632741 0.678803 0.699617
0.660468 0.680268 0.698841
0.682784 0.682740 0.698679
0.702256 0.684649 0.701949
0.345188 0.716823 0.716148
0.443973 0.711663 0.711087
0.512628 0.707862 0.707424
0.564384 0.705342 0.705047
0.605046 0.703964 0.703795
0.637856 0.703567 0.703494
0.664872 0.703986 0.703972
0.687488 0.705069 0.705078
0.706684 0.706684 0.706684
