samples/LUTs/3D/display_view/lin709_to_srgb_displayview_33.cube
LUT_3D_SIZE 5
0.000000 0.000000 0.000000
0.330459 0.010426 0.003366
0.532593 0.038103 0.013402
0.668193 0.067473 0.026872
0.769867 0.091997 0.042600
0.065131 0.403886 0.054386
0.415946 0.417945 0.061465
0.570755 0.423789 0.077760
0.681183 0.427635 0.093029
0.767845 0.430306 0.106395
0.136309 0.572396 0.114756
0.427204 0.574456 0.119675
0.570982 0.574290 0.134108
0.672412 0.572229 0.145877
0.752622 0.570624 0.157500
0.192065 0.674044 0.161610
0.433310 0.672077 0.166599
0.565394 0.668721 0.178803
0.660879 0.665295 0.191217
0.735930 0.661559 0.201480
0.240638 0.744749 0.202583
0.441685 0.740748 0.208307
0.561911 0.735873 0.218801
0.650603 0.731164 0.229497
0.721314 0.726719 0.240410
0.000869 0.000000 0.278928
0.374235 0.019421 0.370608
0.550524 0.054673 0.399422
0.673936 0.081680 0.411452
0.768943 0.103286 0.416820
0.088430 0.409728 0.409744
0.416712 0.416713 0.416712
0.562371 0.425303 0.424733
0.663023 0.434051 0.432276
0.740611 0.442773 0.439248
0.167552 0.567491 0.428401
0.439407 0.563235 0.438837
0.565105 0.566233 0.443156
0.654241 0.568632 0.453486
0.724313 0.571838 0.460306
0.238801 0.663588 0.440062
0.465191 0.653376 0.460633
0.570388 0.654689 0.462365
0.651860 0.654212 0.469472
0.715202 0.654258 0.478998
0.310034 0.728322 0.456774
0.489837 0.716758 0.480275
0.579339 0.716628 0.481909
0.651475 0.715492 0.485604
0.710550 0.713978 0.492371
0.002396 0.000000 0.481521
0.394295 0.021205 0.536185
0.562076 0.058631 0.556457
0.678750 0.089314 0.562880
0.768694 0.114520 0.564464
0.104018 0.413877 0.557677
0.420424 0.419909 0.562070
0.565159 0.426926 0.562909
0.663900 0.435454 0.563097
0.738852 0.444611 0.564227
0.183409 0.566274 0.566114
0.444003 0.563246 0.563234
0.565546 0.565546 0.565546
0.640063 0.572802 0.572491
0.700891 0.579438 0.578490
0.250660 0.660163 0.566204
0.470738 0.651011 0.570450
0.582906 0.645600 0.582465
0.649179 0.649869 0.584279
0.703460 0.652684 0.591724
0.318346 0.724152 0.568953
0.501479 0.711050 0.581165
0.599343 0.703423 0.596926
0.655445 0.706875 0.596138
0.706163 0.707670 0.600836
0.001528 0.000000 0.628363
0.405199 0.018036 0.660854
0.567110 0.057526 0.671816
0.681773 0.092070 0.674620
0.769180 0.118514 0.672393
0.119168 0.417297 0.664876
0.422433 0.421882 0.669463
0.565654 0.429382 0.663351
0.663955 0.437109 0.659213
0.738742 0.445584 0.655889
0.196322 0.564886 0.663929
0.452317 0.564049 0.649570
0.569847 0.569865 0.637083
0.644522 0.575053 0.642914
0.704965 0.580790 0.645855
0.266172 0.657085 0.656685
0.478598 0.649474 0.649248
0.585035 0.647486 0.647458
0.650412 0.650412 0.650412
0.696187 0.655965 0.655797
0.330789 0.720241 0.651269
0.504536 0.709715 0.651217
0.599798 0.704329 0.655005
0.663485 0.701910 0.663284
0.705393 0.705823 0.664423
0.000000 0.000000 0.744115
0.410997 0.010335 0.762288
0.569550 0.052380 0.766161
0.681513 0.089957 0.764320
0.768539 0.120994 0.760038
0.132245 0.419880 0.750476
0.423767 0.423480 0.755357
0.565736 0.431213 0.744805
0.663112 0.438954 0.736922
0.737608 0.446944 0.730522
0.208429 0.564206 0.741969
0.458874 0.566241 0.716991
0.572615 0.573183 0.700082
0.646525 0.578160 0.701706
0.706915 0.582752 0.703145
0.279402 0.654755 0.727940
0.486818 0.649095 0.710100
0.591201 0.649080 0.698432
0.653985 0.653989 0.693255
0.700029 0.658036 0.699042
0.345188 0.716823 0.716148
0.512628 0.707862 0.707424
0.605046 0.703964 0.703795
0.664872 0.703986 0.703972
0.706684 0.706684 0.706684
