samples/LUTs/3D/colorspace/linp3_to_lin2020_17.cube
LUT_3D_SIZE 5
0.000000 0.000000 0.000000
0.188458 0.011436 -0.000303
0.376917 0.022872 -0.000605
0.565375 0.034308 -0.000908
0.753833 0.045744 -0.001210
0.049649 0.235444 0.004400
0.238108 0.246880 0.004098
0.426566 0.258316 0.003795
0.615024 0.269752 0.003493
0.803482 0.281188 0.003190
0.099299 0.470889 0.008801
0.287757 0.482325 0.008498
0.476215 0.493761 0.008196
0.664673 0.505197 0.007893
0.853132 0.516632 0.007591
0.148948 0.706333 0.013201
0.337406 0.717769 0.012899
0.525865 0.729205 0.012596
0.714323 0.740641 0.012294
0.902781 0.752077 0.011991
0.198597 0.941777 0.017602
0.387056 0.953213 0.017299
0.575514 0.964649 0.016997
0.763972 0.976085 0.016694
0.952430 0.987521 0.016391
0.011892 0.003120 0.245902
0.200351 0.014556 0.245600
0.388809 0.025992 0.245297
0.577267 0.037428 0.244994
0.765725 0.048864 0.244692
0.061542 0.238564 0.250303
0.250000 0.250000 0.250000
0.438458 0.261436 0.249697
0.626917 0.272872 0.249395
0.815375 0.284308 0.249092
0.111191 0.474008 0.254703
0.299649 0.485444 0.254400
0.488108 0.496880 0.254098
0.676566 0.508316 0.253795
0.865024 0.519752 0.253493
0.160840 0.709453 0.259103
0.349299 0.720889 0.258801
0.537757 0.732325 0.258498
0.726215 0.743761 0.258196
0.914673 0.755196 0.257893
0.210490 0.944897 0.263504
0.398948 0.956333 0.263201
0.587406 0.967769 0.262899
0.775865 0.979205 0.262596
0.964323 0.990641 0.262294
0.023785 0.006239 0.491804
0.212243 0.017675 0.491502
0.400701 0.029111 0.491199
0.589160 0.040547 0.490897
0.777618 0.051983 0.490594
0.073434 0.241684 0.496205
0.261892 0.253120 0.495902
0.450351 0.264556 0.495600
0.638809 0.275992 0.495297
0.827267 0.287428 0.494994
0.123083 0.477128 0.500605
0.311542 0.488564 0.500303
0.500000 0.500000 0.500000
0.688458 0.511436 0.499697
0.876917 0.522872 0.499395
0.172733 0.712572 0.505006
0.361191 0.724008 0.504703
0.549649 0.735444 0.504400
0.738108 0.746880 0.504098
0.926566 0.758316 0.503795
0.222382 0.948017 0.509406
0.410840 0.959453 0.509103
0.599299 0.970889 0.508801
0.787757 0.982325 0.508498
0.976215 0.993761 0.508196
0.035677 0.009359 0.737706
0.224135 0.020795 0.737404
0.412594 0.032231 0.737101
0.601052 0.043667 0.736799
0.789510 0.055103 0.736496
0.085327 0.244804 0.742107
0.273785 0.256239 0.741804
0.462243 0.267675 0.741502
0.650701 0.279111 0.741199
0.839160 0.290547 0.740897
0.134976 0.480248 0.746507
0.323434 0.491684 0.746205
0.511892 0.503120 0.745902
0.700351 0.514556 0.745600
0.888809 0.525992 0.745297
0.184625 0.715692 0.750908
0.373083 0.727128 0.750605
0.561542 0.738564 0.750303
0.750000 0.750000 0.750000
0.938458 0.761436 0.749697
0.234275 0.951136 0.755308
0.422733 0.962572 0.755006
0.611191 0.974008 0.754703
0.799649 0.985444 0.754400
0.988108 0.996880 0.754098
0.047570 0.012479 0.983609
0.236028 0.023915 0.983306
0.424486 0.035351 0.983003
0.612944 0.046787 0.982701
0.801403 0.058223 0.982398
0.097219 0.247923 0.988009
0.285677 0.259359 0.987706
0.474135 0.270795 0.987404
0.662594 0.282231 0.987101
0.851052 0.293667 0.986799
0.146868 0.483368 0.992409
0.335327 0.494803 0.992107
0.523785 0.506239 0.991804
0.712243 0.517675 0.991502
0.900701 0.529111 0.991199
0.196518 0.718812 0.996810
0.384976 0.730248 0.996507
0.573434 0.741684 0.996205
0.761892 0.753120 0.995902
0.950351 0.764556 0.995600
0.246167 0.954256 1.001210
0.434625 0.965692 1.000908
0.623083 0.977128 1.000605
0.811542 0.988564 1.000303
1.000000 1.000000 1.000000
