samples/LUTs/3D/colorspace/linp3_to_lin2020_17.cube
LUT_3D_SIZE 9
0.000000 0.000000 0.000000
0.094229 0.005718 -0.000151
0.188458 0.011436 -0.000303
0.282687 0.017154 -0.000454
0.376917 0.022872 -0.000605
0.471146 0.028590 -0.000756
0.565375 0.034308 -0.000908
0.659604 0.040026 -0.001059
0.753833 0.045744 -0.001210
0.024825 0.117722 0.002200
0.119054 0.123440 0.002049
0.213283 0.129158 0.001898
0.307512 0.134876 0.001746
0.401741 0.140594 0.001595
0.495970 0.146312 0.001444
0.590199 0.152030 0.001292
0.684429 0.157748 0.001141
0.778658 0.163466 0.000990
0.049649 0.235444 0.004400
0.143878 0.241162 0.004249
0.238108 0.246880 0.004098
0.332337 0.252598 0.003947
0.426566 0.258316 0.003795
0.520795 0.264034 0.003644
0.615024 0.269752 0.003493
0.709253 0.275470 0.003341
0.803482 0.281188 0.003190
0.074474 0.353166 0.006601
0.168703 0.358884 0.006449
0.262932 0.364602 0.006298
0.357161 0.370320 0.006147
0.451391 0.376038 0.005995
0.545620 0.381756 0.005844
0.639849 0.387474 0.005693
0.734078 0.393192 0.005542
0.828307 0.398910 0.005390
0.099299 0.470889 0.008801
0.193528 0.476607 0.008650
0.287757 0.482325 0.008498
0.381986 0.488043 0.008347
0.476215 0.493761 0.008196
0.570444 0.499479 0.008044
0.664673 0.505197 0.007893
0.758903 0.510915 0.007742
0.853132 0.516632 0.007591
0.124123 0.588611 0.011001
0.218352 0.594329 0.010850
0.312582 0.600047 0.010698
0.406811 0.605765 0.010547
0.501040 0.611483 0.010396
0.595269 0.617201 0.010245
0.689498 0.622919 0.010093
0.783727 0.628637 0.009942
0.877956 0.634355 0.009791
0.148948 0.706333 0.013201
0.243177 0.712051 0.013050
0.337406 0.717769 0.012899
0.431635 0.723487 0.012747
0.525865 0.729205 0.012596
0.620094 0.734923 0.012445
0.714323 0.740641 0.012294
0.808552 0.746359 0.012142
0.902781 0.752077 0.011991
0.173773 0.824055 0.015402
0.268002 0.829773 0.015250
0.362231 0.835491 0.015099
0.456460 0.841209 0.014948
0.550689 0.846927 0.014796
0.644918 0.852645 0.014645
0.739147 0.858363 0.014494
0.833377 0.864081 0.014342
0.927606 0.869799 0.014191
0.198597 0.941777 0.017602
0.292827 0.947495 0.017450
0.387056 0.953213 0.017299
0.481285 0.958931 0.017148
0.575514 0.964649 0.016997
0.669743 0.970367 0.016845
0.763972 0.976085 0.016694
0.858201 0.981803 0.016543
0.952430 0.987521 0.016391
0.005946 0.001560 0.122951
0.100175 0.007278 0.122800
0.194404 0.012996 0.122648
0.288634 0.018714 0.122497
0.382863 0.024432 0.122346
0.477092 0.030150 0.122195
0.571321 0.035868 0.122043
0.665550 0.041586 0.121892
0.759779 0.047304 0.121741
0.030771 0.119282 0.125151
0.125000 0.125000 0.125000
0.219229 0.130718 0.124849
0.313458 0.136436 0.124697
0.407687 0.142154 0.124546
0.501917 0.147872 0.124395
0.596146 0.153590 0.124244
0.690375 0.159308 0.124092
0.784604 0.165026 0.123941
0.055596 0.237004 0.127352
0.149825 0.242722 0.127200
0.244054 0.248440 0.127049
0.338283 0.254158 0.126898
0.432512 0.259876 0.126746
0.526741 0.265594 0.126595
0.620970 0.271312 0.126444
0.715200 0.277030 0.126292
0.809429 0.282748 0.126141
0.080420 0.354726 0.129552
0.174649 0.360444 0.129400
0.268878 0.366162 0.129249
0.363108 0.371880 0.129098
0.457337 0.377598 0.128947
0.551566 0.383316 0.128795
0.645795 0.389034 0.128644
0.740024 0.394752 0.128493
0.834253 0.400470 0.128341
0.105245 0.472448 0.131752
0.199474 0.478166 0.131601
0.293703 0.483884 0.131449
0.387932 0.489602 0.131298
0.482161 0.495320 0.131147
0.576391 0.501038 0.130995
0.670620 0.506756 0.130844
0.764849 0.512474 0.130693
0.859078 0.518192 0.130542
0.130070 0.590171 0.133952
0.224299 0.595889 0.133801
0.318528 0.601607 0.133650
0.412757 0.607325 0.133498
0.506986 0.613043 0.133347
0.601215 0.618761 0.133196
0.695444 0.624479 0.133044
0.789674 0.630197 0.132893
0.883903 0.635914 0.132742
0.154894 0.707893 0.136152
0.249123 0.713611 0.136001
0.343352 0.719329 0.135850
0.437582 0.725047 0.135698
0.531811 0.730765 0.135547
0.626040 0.736483 0.135396
0.720269 0.742201 0.135245
0.814498 0.747919 0.135093
0.908727 0.753637 0.134942
0.179719 0.825615 0.138353
0.273948 0.831333 0.138201
0.368177 0.837051 0.138050
0.462406 0.842769 0.137899
0.556635 0.848487 0.137747
0.650865 0.854205 0.137596
0.745094 0.859923 0.137445
0.839323 0.865641 0.137294
0.933552 0.871359 0.137142
0.204544 0.943337 0.140553
0.298773 0.949055 0.140401
0.393002 0.954773 0.140250
0.487231 0.960491 0.140099
0.581460 0.966209 0.139948
0.675689 0.971927 0.139796
0.769918 0.977645 0.139645
0.864148 0.983363 0.139494
0.958377 0.989081 0.139342
0.011892 0.003120 0.245902
0.106122 0.008838 0.245751
0.200351 0.014556 0.245600
0.294580 0.020274 0.245448
0.388809 0.025992 0.245297
0.483038 0.031710 0.245146
0.577267 0.037428 0.244994
0.671496 0.043146 0.244843
0.765725 0.048864 0.244692
0.036717 0.120842 0.248102
0.130946 0.126560 0.247951
0.225175 0.132278 0.247800
0.319404 0.137996 0.247648
0.413634 0.143714 0.247497
0.507863 0.149432 0.247346
0.602092 0.155150 0.247195
0.696321 0.160868 0.247043
0.790550 0.166586 0.246892
0.061542 0.238564 0.250303
0.155771 0.244282 0.250151
0.250000 0.250000 0.250000
0.344229 0.255718 0.249849
0.438458 0.261436 0.249697
0.532687 0.267154 0.249546
0.626917 0.272872 0.249395
0.721146 0.278590 0.249244
0.815375 0.284308 0.249092
0.086366 0.356286 0.252503
0.180596 0.362004 0.252351
0.274825 0.367722 0.252200
0.369054 0.373440 0.252049
0.463283 0.379158 0.251898
0.557512 0.384876 0.251746
0.651741 0.390594 0.251595
0.745970 0.396312 0.251444
0.840199 0.402030 0.251292
0.111191 0.474008 0.254703
0.205420 0.479726 0.254552
0.299649 0.485444 0.254400
0.393878 0.491162 0.254249
0.488108 0.496880 0.254098
0.582337 0.502598 0.253947
0.676566 0.508316 0.253795
0.770795 0.514034 0.253644
0.865024 0.519752 0.253493
0.136016 0.591730 0.256903
0.230245 0.597448 0.256752
0.324474 0.603166 0.256601
0.418703 0.608884 0.256449
0.512932 0.614602 0.256298
0.607161 0.620320 0.256147
0.701391 0.626038 0.255995
0.795620 0.631756 0.255844
0.889849 0.637474 0.255693
0.160840 0.709453 0.259103
0.255070 0.715171 0.258952
0.349299 0.720889 0.258801
0.443528 0.726607 0.258650
0.537757 0.732325 0.258498
0.631986 0.738043 0.258347
0.726215 0.743761 0.258196
0.820444 0.749479 0.258044
0.914673 0.755196 0.257893
0.185665 0.827175 0.261304
0.279894 0.832893 0.261152
0.374123 0.838611 0.261001
0.468352 0.844329 0.260850
0.562582 0.850047 0.260698
0.656811 0.855765 0.260547
0.751040 0.861483 0.260396
0.845269 0.867201 0.260245
0.939498 0.872919 0.260093
0.210490 0.944897 0.263504
0.304719 0.950615 0.263353
0.398948 0.956333 0.263201
0.493177 0.962051 0.263050
0.587406 0.967769 0.262899
0.681635 0.973487 0.262747
0.775865 0.979205 0.262596
0.870094 0.984923 0.262445
0.964323 0.990641 0.262294
0.017839 0.004680 0.368853
0.112068 0.010398 0.368702
0.206297 0.016116 0.368551
0.300526 0.021834 0.368399
0.394755 0.027552 0.368248
0.488984 0.033270 0.368097
0.583213 0.038987 0.367945
0.677443 0.044705 0.367794
0.771672 0.050423 0.367643
0.042663 0.122402 0.371053
0.136892 0.128120 0.370902
0.231122 0.133838 0.370751
0.325351 0.139556 0.370600
0.419580 0.145274 0.370448
0.513809 0.150992 0.370297
0.608038 0.156710 0.370146
0.702267 0.162428 0.369994
0.796496 0.168146 0.369843
0.067488 0.240124 0.373254
0.161717 0.245842 0.373102
0.255946 0.251560 0.372951
0.350175 0.257278 0.372800
0.444404 0.262996 0.372648
0.538634 0.268714 0.372497
0.632863 0.274432 0.372346
0.727092 0.280150 0.372195
0.821321 0.285868 0.372043
0.092313 0.357846 0.375454
0.186542 0.363564 0.375303
0.280771 0.369282 0.375151
0.375000 0.375000 0.375000
0.469229 0.380718 0.374849
0.563458 0.386436 0.374697
0.657687 0.392154 0.374546
0.751917 0.397872 0.374395
0.846146 0.403590 0.374244
0.117137 0.475568 0.377654
0.211366 0.481286 0.377503
0.305596 0.487004 0.377351
0.399825 0.492722 0.377200
0.494054 0.498440 0.377049
0.588283 0.504158 0.376898
0.682512 0.509876 0.376746
0.776741 0.515594 0.376595
0.870970 0.521312 0.376444
0.141962 0.593290 0.379854
0.236191 0.599008 0.379703
0.330420 0.604726 0.379552
0.424649 0.610444 0.379400
0.518878 0.616162 0.379249
0.613108 0.621880 0.379098
0.707337 0.627598 0.378947
0.801566 0.633316 0.378795
0.895795 0.639034 0.378644
0.166787 0.711013 0.382055
0.261016 0.716731 0.381903
0.355245 0.722449 0.381752
0.449474 0.728166 0.381601
0.543703 0.733884 0.381449
0.637932 0.739602 0.381298
0.732161 0.745320 0.381147
0.826391 0.751038 0.380995
0.920620 0.756756 0.380844
0.191611 0.828735 0.384255
0.285840 0.834453 0.384103
0.380070 0.840171 0.383952
0.474299 0.845889 0.383801
0.568528 0.851607 0.383650
0.662757 0.857325 0.383498
0.756986 0.863043 0.383347
0.851215 0.868761 0.383196
0.945444 0.874479 0.383044
0.216436 0.946457 0.386455
0.310665 0.952175 0.386304
0.404894 0.957893 0.386152
0.499123 0.963611 0.386001
0.593352 0.969329 0.385850
0.687582 0.975047 0.385698
0.781811 0.980765 0.385547
0.876040 0.986483 0.385396
0.970269 0.992201 0.385245
0.023785 0.006239 0.491804
0.118014 0.011957 0.491653
0.212243 0.017675 0.491502
0.306472 0.023393 0.491350
0.400701 0.029111 0.491199
0.494930 0.034829 0.491048
0.589160 0.040547 0.490897
0.683389 0.046265 0.490745
0.777618 0.051983 0.490594
0.048609 0.123962 0.494005
0.142839 0.129680 0.493853
0.237068 0.135398 0.493702
0.331297 0.141116 0.493551
0.425526 0.146834 0.493399
0.519755 0.152552 0.493248
0.613984 0.158269 0.493097
0.708213 0.163987 0.492945
0.802443 0.169705 0.492794
0.073434 0.241684 0.496205
0.167663 0.247402 0.496053
0.261892 0.253120 0.495902
0.356122 0.258838 0.495751
0.450351 0.264556 0.495600
0.544580 0.270274 0.495448
0.638809 0.275992 0.495297
0.733038 0.281710 0.495146
0.827267 0.287428 0.494994
0.098259 0.359406 0.498405
0.192488 0.365124 0.498254
0.286717 0.370842 0.498102
0.380946 0.376560 0.497951
0.475175 0.382278 0.497800
0.569404 0.387996 0.497648
0.663634 0.393714 0.497497
0.757863 0.399432 0.497346
0.852092 0.405150 0.497195
0.123083 0.477128 0.500605
0.217313 0.482846 0.500454
0.311542 0.488564 0.500303
0.405771 0.494282 0.500151
0.500000 0.500000 0.500000
0.594229 0.505718 0.499849
0.688458 0.511436 0.499697
0.782687 0.517154 0.499546
0.876917 0.522872 0.499395
0.147908 0.594850 0.502805
0.242137 0.600568 0.502654
0.336366 0.606286 0.502503
0.430596 0.612004 0.502352
0.524825 0.617722 0.502200
0.619054 0.623440 0.502049
0.713283 0.629158 0.501898
0.807512 0.634876 0.501746
0.901741 0.640594 0.501595
0.172733 0.712572 0.505006
0.266962 0.718290 0.504854
0.361191 0.724008 0.504703
0.455420 0.729726 0.504552
0.549649 0.735444 0.504400
0.643879 0.741162 0.504249
0.738108 0.746880 0.504098
0.832337 0.752598 0.503947
0.926566 0.758316 0.503795
0.197557 0.830295 0.507206
0.291787 0.836013 0.507055
0.386016 0.841731 0.506903
0.480245 0.847448 0.506752
0.574474 0.853166 0.506601
0.668703 0.858884 0.506449
0.762932 0.864602 0.506298
0.857161 0.870320 0.506147
0.951391 0.876038 0.505995
0.222382 0.948017 0.509406
0.316611 0.953735 0.509255
0.410840 0.959453 0.509103
0.505070 0.965171 0.508952
0.599299 0.970889 0.508801
0.693528 0.976607 0.508650
0.787757 0.982325 0.508498
0.881986 0.988043 0.508347
0.976215 0.993761 0.508196
0.029731 0.007799 0.614755
0.123960 0.013517 0.614604
0.218189 0.019235 0.614453
0.312418 0.024953 0.614302
0.406648 0.030671 0.614150
0.500877 0.036389 0.613999
0.595106 0.042107 0.613848
0.689335 0.047825 0.613696
0.783564 0.053543 0.613545
0.054556 0.125521 0.616956
0.148785 0.131239 0.616804
0.243014 0.136957 0.616653
0.337243 0.142675 0.616502
0.431472 0.148393 0.616350
0.525701 0.154111 0.616199
0.619930 0.159829 0.616048
0.714160 0.165547 0.615897
0.808389 0.171265 0.615745
0.079380 0.243244 0.619156
0.173609 0.248962 0.619005
0.267839 0.254680 0.618853
0.362068 0.260398 0.618702
0.456297 0.266116 0.618551
0.550526 0.271834 0.618399
0.644755 0.277552 0.618248
0.738984 0.283269 0.618097
0.833213 0.288987 0.617945
0.104205 0.360966 0.621356
0.198434 0.366684 0.621205
0.292663 0.372402 0.621053
0.386892 0.378120 0.620902
0.481122 0.383838 0.620751
0.575351 0.389556 0.620600
0.669580 0.395274 0.620448
0.763809 0.400992 0.620297
0.858038 0.406710 0.620146
0.129030 0.478688 0.623556
0.223259 0.484406 0.623405
0.317488 0.490124 0.623254
0.411717 0.495842 0.623102
0.505946 0.501560 0.622951
0.600175 0.507278 0.622800
0.694404 0.512996 0.622648
0.788634 0.518714 0.622497
0.882863 0.524432 0.622346
0.153854 0.596410 0.625756
0.248084 0.602128 0.625605
0.342313 0.607846 0.625454
0.436542 0.613564 0.625303
0.530771 0.619282 0.625151
0.625000 0.625000 0.625000
0.719229 0.630718 0.624849
0.813458 0.636436 0.624697
0.907687 0.642154 0.624546
0.178679 0.714132 0.627957
0.272908 0.719850 0.627805
0.367137 0.725568 0.627654
0.461366 0.731286 0.627503
0.555596 0.737004 0.627352
0.649825 0.742722 0.627200
0.744054 0.748440 0.627049
0.838283 0.754158 0.626898
0.932512 0.759876 0.626746
0.203504 0.831854 0.630157
0.297733 0.837572 0.630006
0.391962 0.843290 0.629854
0.486191 0.849008 0.629703
0.580420 0.854726 0.629552
0.674649 0.860444 0.629400
0.768878 0.866162 0.629249
0.863108 0.871880 0.629098
0.957337 0.877598 0.628947
0.228328 0.949577 0.632357
0.322558 0.955295 0.632206
0.416787 0.961013 0.632055
0.511016 0.966730 0.631903
0.605245 0.972448 0.631752
0.699474 0.978166 0.631601
0.793703 0.983884 0.631449
0.887932 0.989602 0.631298
0.982161 0.995320 0.631147
0.035677 0.009359 0.737706
0.129906 0.015077 0.737555
0.224135 0.020795 0.737404
0.318365 0.026513 0.737253
0.412594 0.032231 0.737101
0.506823 0.037949 0.736950
0.601052 0.043667 0.736799
0.695281 0.049385 0.736647
0.789510 0.055103 0.736496
0.060502 0.127081 0.739907
0.154731 0.132799 0.739755
0.248960 0.138517 0.739604
0.343189 0.144235 0.739453
0.437418 0.149953 0.739301
0.531648 0.155671 0.739150
0.625877 0.161389 0.738999
0.720106 0.167107 0.738848
0.814335 0.172825 0.738696
0.085327 0.244804 0.742107
0.179556 0.250521 0.741956
0.273785 0.256239 0.741804
0.368014 0.261957 0.741653
0.462243 0.267675 0.741502
0.556472 0.273393 0.741350
0.650701 0.279111 0.741199
0.744931 0.284829 0.741048
0.839160 0.290547 0.740897
0.110151 0.362526 0.744307
0.204380 0.368244 0.744156
0.298609 0.373962 0.744004
0.392839 0.379680 0.743853
0.487068 0.385398 0.743702
0.581297 0.391116 0.743551
0.675526 0.396834 0.743399
0.769755 0.402552 0.743248
0.863984 0.408270 0.743097
0.134976 0.480248 0.746507
0.229205 0.485966 0.746356
0.323434 0.491684 0.746205
0.417663 0.497402 0.746053
0.511892 0.503120 0.745902
0.606122 0.508838 0.745751
0.700351 0.514556 0.745600
0.794580 0.520274 0.745448
0.888809 0.525992 0.745297
0.159801 0.597970 0.748707
0.254030 0.603688 0.748556
0.348259 0.609406 0.748405
0.442488 0.615124 0.748254
0.536717 0.620842 0.748102
0.630946 0.626560 0.747951
0.725175 0.632278 0.747800
0.819404 0.637996 0.747648
0.913634 0.643714 0.747497
0.184625 0.715692 0.750908
0.278854 0.721410 0.750756
0.373083 0.727128 0.750605
0.467313 0.732846 0.750454
0.561542 0.738564 0.750303
0.655771 0.744282 0.750151
0.750000 0.750000 0.750000
0.844229 0.755718 0.749849
0.938458 0.761436 0.749697
0.209450 0.833414 0.753108
0.303679 0.839132 0.752957
0.397908 0.844850 0.752805
0.492137 0.850568 0.752654
0.586366 0.856286 0.752503
0.680596 0.862004 0.752351
0.774825 0.867722 0.752200
0.869054 0.873440 0.752049
0.963283 0.879158 0.751898
0.234275 0.951136 0.755308
0.328504 0.956854 0.755157
0.422733 0.962572 0.755006
0.516962 0.968290 0.754854
0.611191 0.974008 0.754703
0.705420 0.979726 0.754552
0.799649 0.985444 0.754400
0.893879 0.991162 0.754249
0.988108 0.996880 0.754098
0.041623 0.010919 0.860658
0.135853 0.016637 0.860506
0.230082 0.022355 0.860355
0.324311 0.028073 0.860204
0.418540 0.033791 0.860052
0.512769 0.039509 0.859901
0.606998 0.045227 0.859750
0.701227 0.050945 0.859598
0.795456 0.056663 0.859447
0.066448 0.128641 0.862858
0.160677 0.134359 0.862706
0.254906 0.140077 0.862555
0.349135 0.145795 0.862404
0.443365 0.151513 0.862253
0.537594 0.157231 0.862101
0.631823 0.162949 0.861950
0.726052 0.168667 0.861799
0.820281 0.174385 0.861647
0.091273 0.246363 0.865058
0.185502 0.252081 0.864907
0.279731 0.257799 0.864755
0.373960 0.263517 0.864604
0.468189 0.269235 0.864453
0.562418 0.274953 0.864302
0.656648 0.280671 0.864150
0.750877 0.286389 0.863999
0.845106 0.292107 0.863848
0.116097 0.364086 0.867258
0.210327 0.369804 0.867107
0.304556 0.375521 0.866956
0.398785 0.381239 0.866804
0.493014 0.386957 0.866653
0.587243 0.392675 0.866502
0.681472 0.398393 0.866350
0.775701 0.404111 0.866199
0.869931 0.409829 0.866048
0.140922 0.481808 0.869458
0.235151 0.487526 0.869307
0.329380 0.493244 0.869156
0.423609 0.498962 0.869004
0.517839 0.504680 0.868853
0.612068 0.510398 0.868702
0.706297 0.516116 0.868551
0.800526 0.521834 0.868399
0.894755 0.527552 0.868248
0.165747 0.599530 0.871659
0.259976 0.605248 0.871507
0.354205 0.610966 0.871356
0.448434 0.616684 0.871205
0.542663 0.622402 0.871053
0.636892 0.628120 0.870902
0.731122 0.633838 0.870751
0.825351 0.639556 0.870600
0.919580 0.645274 0.870448
0.190571 0.717252 0.873859
0.284801 0.722970 0.873708
0.379030 0.728688 0.873556
0.473259 0.734406 0.873405
0.567488 0.740124 0.873254
0.661717 0.745842 0.873102
0.755946 0.751560 0.872951
0.850175 0.757278 0.872800
0.944404 0.762996 0.872648
0.215396 0.834974 0.876059
0.309625 0.840692 0.875908
0.403854 0.846410 0.875756
0.498083 0.852128 0.875605
0.592313 0.857846 0.875454
0.686542 0.863564 0.875303
0.780771 0.869282 0.875151
0.875000 0.875000 0.875000
0.969229 0.880718 0.874849
0.240221 0.952696 0.878259
0.334450 0.958414 0.878108
0.428679 0.964132 0.877957
0.522908 0.969850 0.877805
0.617137 0.975568 0.877654
0.711366 0.981286 0.877503
0.805596 0.987004 0.877351
0.899825 0.992722 0.877200
0.994054 0.998440 0.877049
0.047570 0.012479 0.983609
0.141799 0.018197 0.983457
0.236028 0.023915 0.983306
0.330257 0.029633 0.983155
0.424486 0.035351 0.983003
0.518715 0.041069 0.982852
0.612944 0.046787 0.982701
0.707174 0.052505 0.982550
0.801403 0.058223 0.982398
0.072394 0.130201 0.985809
0.166623 0.135919 0.985658
0.260853 0.141637 0.985506
0.355082 0.147355 0.985355
0.449311 0.153073 0.985204
0.543540 0.158791 0.985052
0.637769 0.164509 0.984901
0.731998 0.170227 0.984750
0.826227 0.175945 0.984598
0.097219 0.247923 0.988009
0.191448 0.253641 0.987858
0.285677 0.259359 0.987706
0.379906 0.265077 0.987555
0.474135 0.270795 0.987404
0.568365 0.276513 0.987253
0.662594 0.282231 0.987101
0.756823 0.287949 0.986950
0.851052 0.293667 0.986799
0.122044 0.365645 0.990209
0.216273 0.371363 0.990058
0.310502 0.377081 0.989907
0.404731 0.382799 0.989755
0.498960 0.388517 0.989604
0.593189 0.394235 0.989453
0.687418 0.399953 0.989302
0.781648 0.405671 0.989150
0.875877 0.411389 0.988999
0.146868 0.483368 0.992409
0.241097 0.489086 0.992258
0.335327 0.494803 0.992107
0.429556 0.500521 0.991956
0.523785 0.506239 0.991804
0.618014 0.511957 0.991653
0.712243 0.517675 0.991502
0.806472 0.523393 0.991350
0.900701 0.529111 0.991199
0.171693 0.601090 0.994610
0.265922 0.606808 0.994458
0.360151 0.612526 0.994307
0.454380 0.618244 0.994156
0.548609 0.623962 0.994004
0.642839 0.629680 0.993853
0.737068 0.635398 0.993702
0.831297 0.641116 0.993551
0.925526 0.646834 0.993399
0.196518 0.718812 0.996810
0.290747 0.724530 0.996659
0.384976 0.730248 0.996507
0.479205 0.735966 0.996356
0.573434 0.741684 0.996205
0.667663 0.747402 0.996053
0.761892 0.753120 0.995902
0.856122 0.758838 0.995751
0.950351 0.764556 0.995600
0.221342 0.836534 0.999010
0.315571 0.842252 0.998859
0.409801 0.847970 0.998708
0.504030 0.853688 0.998556
0.598259 0.859406 0.998405
0.692488 0.865124 0.998254
0.786717 0.870842 0.998102
0.880946 0.876560 0.997951
0.975175 0.882278 0.997800
0.246167 0.954256 1.001210
0.340396 0.959974 1.001059
0.434625 0.965692 1.000908
0.528854 0.971410 1.000757
0.623083 0.977128 1.000605
0.717313 0.982846 1.000454
0.811542 0.988564 1.000303
0.905771 0.994282 1.000151
1.000000 1.000000 1.000000
