samples/LUTs/3D/colorspace/linp3_to_lin2020_17.cube
LUT_3D_SIZE 17
0.000000 0.000000 0.000000
0.047115 0.002859 -0.000076
0.094229 0.005718 -0.000151
0.141344 0.008577 -0.000227
0.188458 0.011436 -0.000303
0.235573 0.014295 -0.000378
0.282687 0.017154 -0.000454
0.329802 0.020013 -0.000530
0.376917 0.022872 -0.000605
0.424031 0.025731 -0.000681
0.471146 0.028590 -0.000756
0.518260 0.031449 -0.000832
0.565375 0.034308 -0.000908
0.612489 0.037167 -0.000983
0.659604 0.040026 -0.001059
0.706719 0.042885 -0.001135
0.753833 0.045744 -0.001210
0.012412 0.058861 0.001100
0.059527 0.061720 0.001024
0.106641 0.064579 0.000949
0.153756 0.067438 0.000873
0.200871 0.070297 0.000798
0.247985 0.073156 0.000722
0.295100 0.076015 0.000646
0.342214 0.078874 0.000571
0.389329 0.081733 0.000495
0.436443 0.084592 0.000419
0.483558 0.087451 0.000344
0.530673 0.090310 0.000268
0.577787 0.093169 0.000192
0.624902 0.096028 0.000117
0.672016 0.098887 0.000041
0.719131 0.101746 -0.000035
0.766245 0.104605 -0.000110
0.024825 0.117722 0.002200
0.071939 0.120581 0.002125
0.119054 0.123440 0.002049
0.166168 0.126299 0.001973
0.213283 0.129158 0.001898
0.260397 0.132017 0.001822
0.307512 0.134876 0.001746
0.354627 0.137735 0.001671
0.401741 0.140594 0.001595
0.448856 0.143453 0.001519
0.495970 0.146312 0.001444
0.543085 0.149171 0.001368
0.590199 0.152030 0.001292
0.637314 0.154889 0.001217
0.684429 0.157748 0.001141
0.731543 0.160607 0.001066
0.778658 0.163466 0.000990
0.037237 0.176583 0.003300
0.084352 0.179442 0.003225
0.131466 0.182301 0.003149
0.178581 0.185160 0.003073
0.225695 0.188019 0.002998
0.272810 0.190878 0.002922
0.319924 0.193737 0.002846
0.367039 0.196596 0.002771
0.414154 0.199455 0.002695
0.461268 0.202314 0.002620
0.508383 0.205173 0.002544
0.555497 0.208032 0.002468
0.602612 0.210891 0.002393
0.649726 0.213750 0.002317
0.696841 0.216609 0.002241
0.743955 0.219468 0.002166
0.791070 0.222327 0.002090
0.049649 0.235444 0.004400
0.096764 0.238303 0.004325
0.143878 0.241162 0.004249
0.190993 0.244021 0.004173
0.238108 0.246880 0.004098
0.285222 0.249739 0.004022
0.332337 0.252598 0.003947
0.379451 0.255457 0.003871
0.426566 0.258316 0.003795
0.473680 0.261175 0.003720
0.520795 0.264034 0.003644
0.567910 0.266893 0.003568
0.615024 0.269752 0.003493
0.662139 0.272611 0.003417
0.709253 0.275470 0.003341
0.756368 0.278329 0.003266
0.803482 0.281188 0.003190
0.062062 0.294305 0.005501
0.109176 0.297164 0.005425
0.156291 0.300023 0.005349
0.203405 0.302882 0.005274
0.250520 0.305741 0.005198
0.297635 0.308600 0.005122
0.344749 0.311459 0.005047
0.391864 0.314318 0.004971
0.438978 0.317177 0.004895
0.486093 0.320036 0.004820
0.533207 0.322895 0.004744
0.580322 0.325754 0.004668
0.627436 0.328613 0.004593
0.674551 0.331472 0.004517
0.721666 0.334331 0.004441
0.768780 0.337190 0.004366
0.815895 0.340049 0.004290
0.074474 0.353166 0.006601
0.121589 0.356025 0.006525
0.168703 0.358884 0.006449
0.215818 0.361743 0.006374
0.262932 0.364602 0.006298
0.310047 0.367461 0.006222
0.357161 0.370320 0.006147
0.404276 0.373179 0.006071
0.451391 0.376038 0.005995
0.498505 0.378897 0.005920
0.545620 0.381756 0.005844
0.592734 0.384615 0.005769
0.639849 0.387474 0.005693
0.686963 0.390333 0.005617
0.734078 0.393192 0.005542
0.781193 0.396051 0.005466
0.828307 0.398910 0.005390
0.086886 0.412028 0.007701
0.134001 0.414887 0.007625
0.181115 0.417746 0.007549
0.228230 0.420604 0.007474
0.275345 0.423463 0.007398
0.322459 0.426322 0.007323
0.369574 0.429181 0.007247
0.416688 0.432040 0.007171
0.463803 0.434899 0.007096
0.510917 0.437758 0.007020
0.558032 0.440617 0.006944
0.605147 0.443476 0.006869
0.652261 0.446335 0.006793
0.699376 0.449194 0.006717
0.746490 0.452053 0.006642
0.793605 0.454912 0.006566
0.840719 0.457771 0.006490
0.099299 0.470889 0.008801
0.146413 0.473748 0.008725
0.193528 0.476607 0.008650
0.240642 0.479466 0.008574
0.287757 0.482325 0.008498
0.334872 0.485184 0.008423
0.381986 0.488043 0.008347
0.429101 0.490902 0.008271
0.476215 0.493761 0.008196
0.523330 0.496620 0.008120
0.570444 0.499479 0.008044
0.617559 0.502338 0.007969
0.664673 0.505197 0.007893
0.711788 0.508056 0.007817
0.758903 0.510915 0.007742
0.806017 0.513774 0.007666
0.853132 0.516632 0.007591
0.111711 0.529750 0.009901
0.158826 0.532609 0.009825
0.205940 0.535468 0.009750
0.253055 0.538327 0.009674
0.300169 0.541186 0.009598
0.347284 0.544045 0.009523
0.394398 0.546904 0.009447
0.441513 0.549763 0.009371
0.488628 0.552622 0.009296
0.535742 0.555481 0.009220
0.582857 0.558340 0.009145
0.629971 0.561199 0.009069
0.677086 0.564058 0.008993
0.724200 0.566917 0.008918
0.771315 0.569776 0.008842
0.818430 0.572635 0.008766
0.865544 0.575494 0.008691
0.124123 0.588611 0.011001
0.171238 0.591470 0.010925
0.218352 0.594329 0.010850
0.265467 0.597188 0.010774
0.312582 0.600047 0.010698
0.359696 0.602906 0.010623
0.406811 0.605765 0.010547
0.453925 0.608624 0.010472
0.501040 0.611483 0.010396
0.548154 0.614342 0.010320
0.595269 0.617201 0.010245
0.642384 0.620060 0.010169
0.689498 0.622919 0.010093
0.736613 0.625778 0.010018
0.783727 0.628637 0.009942
0.830842 0.631496 0.009866
0.877956 0.634355 0.009791
0.136536 0.647472 0.012101
0.183650 0.650331 0.012026
0.230765 0.653190 0.011950
0.277879 0.656049 0.011874
0.324994 0.658908 0.011799
0.372109 0.661767 0.011723
0.419223 0.664626 0.011647
0.466338 0.667485 0.011572
0.513452 0.670344 0.011496
0.560567 0.673203 0.011420
0.607681 0.676062 0.011345
0.654796 0.678921 0.011269
0.701910 0.681780 0.011193
0.749025 0.684639 0.011118
0.796140 0.687498 0.011042
0.843254 0.690357 0.010966
0.890369 0.693216 0.010891
0.148948 0.706333 0.013201
0.196063 0.709192 0.013126
0.243177 0.712051 0.013050
0.290292 0.714910 0.012974
0.337406 0.717769 0.012899
0.384521 0.720628 0.012823
0.431635 0.723487 0.012747
0.478750 0.726346 0.012672
0.525865 0.729205 0.012596
0.572979 0.732064 0.012520
0.620094 0.734923 0.012445
0.667208 0.737782 0.012369
0.714323 0.740641 0.012294
0.761437 0.743500 0.012218
0.808552 0.746359 0.012142
0.855667 0.749218 0.012067
0.902781 0.752077 0.011991
0.161360 0.765194 0.014301
0.208475 0.768053 0.014226
0.255589 0.770912 0.014150
0.302704 0.773771 0.014074
0.349819 0.776630 0.013999
0.396933 0.779489 0.013923
0.444048 0.782348 0.013848
0.491162 0.785207 0.013772
0.538277 0.788066 0.013696
0.585391 0.790925 0.013621
0.632506 0.793784 0.013545
0.679621 0.796643 0.013469
0.726735 0.799502 0.013394
0.773850 0.802361 0.013318
0.820964 0.805220 0.013242
0.868079 0.808079 0.013167
0.915193 0.810938 0.013091
0.173773 0.824055 0.015402
0.220887 0.826914 0.015326
0.268002 0.829773 0.015250
0.315116 0.832632 0.015175
0.362231 0.835491 0.015099
0.409346 0.838350 0.015023
0.456460 0.841209 0.014948
0.503575 0.844068 0.014872
0.550689 0.846927 0.014796
0.597804 0.849786 0.014721
0.644918 0.852645 0.014645
0.692033 0.855504 0.014569
0.739147 0.858363 0.014494
0.786262 0.861222 0.014418
0.833377 0.864081 0.014342
0.880491 0.866940 0.014267
0.927606 0.869799 0.014191
0.186185 0.882916 0.016502
0.233300 0.885775 0.016426
0.280414 0.888634 0.016350
0.327529 0.891493 0.016275
0.374643 0.894352 0.016199
0.421758 0.897211 0.016123
0.468872 0.900070 0.016048
0.515987 0.902929 0.015972
0.563102 0.905788 0.015896
0.610216 0.908647 0.015821
0.657331 0.911506 0.015745
0.704445 0.914365 0.015670
0.751560 0.917224 0.015594
0.798674 0.920083 0.015518
0.845789 0.922942 0.015443
0.892904 0.925801 0.015367
0.940018 0.928660 0.015291
0.198597 0.941777 0.017602
0.245712 0.944636 0.017526
0.292827 0.947495 0.017450
0.339941 0.950354 0.017375
0.387056 0.953213 0.017299
0.434170 0.956072 0.017223
0.481285 0.958931 0.017148
0.528399 0.961790 0.017072
0.575514 0.964649 0.016997
0.622628 0.967508 0.016921
0.669743 0.970367 0.016845
0.716858 0.973226 0.016770
0.763972 0.976085 0.016694
0.811087 0.978944 0.016618
0.858201 0.981803 0.016543
0.905316 0.984662 0.016467
0.952430 0.987521 0.016391
0.002973 0.000780 0.061476
0.050088 0.003639 0.061400
0.097202 0.006498 0.061324
0.144317 0.009357 0.061249
0.191431 0.012216 0.061173
0.238546 0.015075 0.061097
0.285661 0.017934 0.061022
0.332775 0.020793 0.060946
0.379890 0.023652 0.060870
0.427004 0.026511 0.060795
0.474119 0.029370 0.060719
0.521233 0.032229 0.060643
0.568348 0.035088 0.060568
0.615462 0.037947 0.060492
0.662577 0.040806 0.060416
0.709692 0.043665 0.060341
0.756806 0.046524 0.060265
0.015385 0.059641 0.062576
0.062500 0.062500 0.062500
0.109615 0.065359 0.062424
0.156729 0.068218 0.062349
0.203844 0.071077 0.062273
0.250958 0.073936 0.062197
0.298073 0.076795 0.062122
0.345187 0.079654 0.062046
0.392302 0.082513 0.061970
0.439417 0.085372 0.061895
0.486531 0.088231 0.061819
0.533646 0.091090 0.061744
0.580760 0.093949 0.061668
0.627875 0.096808 0.061592
0.674989 0.099667 0.061517
0.722104 0.102526 0.061441
0.769218 0.105385 0.061365
0.027798 0.118502 0.063676
0.074912 0.121361 0.063600
0.122027 0.124220 0.063524
0.169141 0.127079 0.063449
0.216256 0.129938 0.063373
0.263371 0.132797 0.063298
0.310485 0.135656 0.063222
0.357600 0.138515 0.063146
0.404714 0.141374 0.063071
0.451829 0.144233 0.062995
0.498943 0.147092 0.062919
0.546058 0.149951 0.062844
0.593173 0.152810 0.062768
0.640287 0.155669 0.062692
0.687402 0.158528 0.062617
0.734516 0.161387 0.062541
0.781631 0.164246 0.062465
0.040210 0.177363 0.064776
0.087325 0.180222 0.064700
0.134439 0.183081 0.064625
0.181554 0.185940 0.064549
0.228668 0.188799 0.064473
0.275783 0.191658 0.064398
0.322898 0.194517 0.064322
0.370012 0.197376 0.064246
0.417127 0.200235 0.064171
0.464241 0.203094 0.064095
0.511356 0.205953 0.064019
0.558470 0.208812 0.063944
0.605585 0.211671 0.063868
0.652699 0.214530 0.063792
0.699814 0.217389 0.063717
0.746929 0.220248 0.063641
0.794043 0.223107 0.063566
0.052622 0.236224 0.065876
0.099737 0.239083 0.065800
0.146852 0.241942 0.065725
0.193966 0.244801 0.065649
0.241081 0.247660 0.065573
0.288195 0.250519 0.065498
0.335310 0.253378 0.065422
0.382424 0.256237 0.065346
0.429539 0.259096 0.065271
0.476654 0.261955 0.065195
0.523768 0.264814 0.065120
0.570883 0.267673 0.065044
0.617997 0.270532 0.064968
0.665112 0.273391 0.064893
0.712226 0.276250 0.064817
0.759341 0.279109 0.064741
0.806455 0.281968 0.064666
0.065035 0.295085 0.066976
0.112149 0.297944 0.066900
0.159264 0.300803 0.066825
0.206378 0.303662 0.066749
0.253493 0.306521 0.066673
0.300608 0.309380 0.066598
0.347722 0.312239 0.066522
0.394837 0.315098 0.066447
0.441951 0.317957 0.066371
0.489066 0.320816 0.066295
0.536180 0.323675 0.066220
0.583295 0.326534 0.066144
0.630410 0.329393 0.066068
0.677524 0.332252 0.065993
0.724639 0.335111 0.065917
0.771753 0.337970 0.065841
0.818868 0.340829 0.065766
0.077447 0.353946 0.068076
0.124562 0.356805 0.068001
0.171676 0.359664 0.067925
0.218791 0.362523 0.067849
0.265905 0.365382 0.067774
0.313020 0.368241 0.067698
0.360135 0.371100 0.067622
0.407249 0.373959 0.067547
0.454364 0.376818 0.067471
0.501478 0.379677 0.067395
0.548593 0.382536 0.067320
0.595707 0.385395 0.067244
0.642822 0.388254 0.067168
0.689936 0.391113 0.067093
0.737051 0.393972 0.067017
0.784166 0.396831 0.066941
0.831280 0.399690 0.066866
0.089859 0.412807 0.069176
0.136974 0.415666 0.069101
0.184089 0.418525 0.069025
0.231203 0.421384 0.068949
0.278318 0.424243 0.068874
0.325432 0.427102 0.068798
0.372547 0.429961 0.068722
0.419661 0.432820 0.068647
0.466776 0.435679 0.068571
0.513891 0.438538 0.068495
0.561005 0.441397 0.068420
0.608120 0.444256 0.068344
0.655234 0.447115 0.068269
0.702349 0.449974 0.068193
0.749463 0.452833 0.068117
0.796578 0.455692 0.068042
0.843692 0.458551 0.067966
0.102272 0.471669 0.070276
0.149386 0.474528 0.070201
0.196501 0.477387 0.070125
0.243615 0.480246 0.070049
0.290730 0.483104 0.069974
0.337845 0.485963 0.069898
0.384959 0.488822 0.069823
0.432074 0.491681 0.069747
0.479188 0.494540 0.069671
0.526303 0.497399 0.069596
0.573417 0.500258 0.069520
0.620532 0.503117 0.069444
0.667647 0.505976 0.069369
0.714761 0.508835 0.069293
0.761876 0.511694 0.069217
0.808990 0.514553 0.069142
0.856105 0.517412 0.069066
0.114684 0.530530 0.071377
0.161799 0.533389 0.071301
0.208913 0.536248 0.071225
0.256028 0.539107 0.071150
0.303142 0.541966 0.071074
0.350257 0.544825 0.070998
0.397372 0.547684 0.070923
0.444486 0.550543 0.070847
0.491601 0.553402 0.070771
0.538715 0.556261 0.070696
0.585830 0.559120 0.070620
0.632944 0.561979 0.070544
0.680059 0.564838 0.070469
0.727173 0.567697 0.070393
0.774288 0.570556 0.070317
0.821403 0.573415 0.070242
0.868517 0.576273 0.070166
0.127096 0.589391 0.072477
0.174211 0.592250 0.072401
0.221326 0.595109 0.072325
0.268440 0.597968 0.072250
0.315555 0.600827 0.072174
0.362669 0.603686 0.072098
0.409784 0.606545 0.072023
0.456898 0.609404 0.071947
0.504013 0.612263 0.071871
0.551127 0.615122 0.071796
0.598242 0.617981 0.071720
0.645357 0.620840 0.071644
0.692471 0.623699 0.071569
0.739586 0.626558 0.071493
0.786700 0.629417 0.071418
0.833815 0.632276 0.071342
0.880929 0.635135 0.071266
0.139509 0.648252 0.073577
0.186623 0.651111 0.073501
0.233738 0.653970 0.073425
0.280852 0.656829 0.073350
0.327967 0.659688 0.073274
0.375082 0.662547 0.073198
0.422196 0.665406 0.073123
0.469311 0.668265 0.073047
0.516425 0.671124 0.072972
0.563540 0.673983 0.072896
0.610654 0.676842 0.072820
0.657769 0.679701 0.072745
0.704884 0.682560 0.072669
0.751998 0.685419 0.072593
0.799113 0.688278 0.072518
0.846227 0.691137 0.072442
0.893342 0.693996 0.072366
0.151921 0.707113 0.074677
0.199036 0.709972 0.074601
0.246150 0.712831 0.074526
0.293265 0.715690 0.074450
0.340379 0.718549 0.074374
0.387494 0.721408 0.074299
0.434609 0.724267 0.074223
0.481723 0.727126 0.074147
0.528838 0.729985 0.074072
0.575952 0.732844 0.073996
0.623067 0.735703 0.073920
0.670181 0.738562 0.073845
0.717296 0.741421 0.073769
0.764410 0.744280 0.073693
0.811525 0.747139 0.073618
0.858640 0.749998 0.073542
0.905754 0.752857 0.073466
0.164333 0.765974 0.075777
0.211448 0.768833 0.075701
0.258563 0.771692 0.075626
0.305677 0.774551 0.075550
0.352792 0.777410 0.075474
0.399906 0.780269 0.075399
0.447021 0.783128 0.075323
0.494135 0.785987 0.075247
0.541250 0.788846 0.075172
0.588365 0.791705 0.075096
0.635479 0.794564 0.075020
0.682594 0.797423 0.074945
0.729708 0.800282 0.074869
0.776823 0.803141 0.074794
0.823937 0.806000 0.074718
0.871052 0.808859 0.074642
0.918167 0.811718 0.074567
0.176746 0.824835 0.076877
0.223860 0.827694 0.076801
0.270975 0.830553 0.076726
0.318090 0.833412 0.076650
0.365204 0.836271 0.076574
0.412319 0.839130 0.076499
0.459433 0.841989 0.076423
0.506548 0.844848 0.076348
0.553662 0.847707 0.076272
0.600777 0.850566 0.076196
0.647891 0.853425 0.076121
0.695006 0.856284 0.076045
0.742121 0.859143 0.075969
0.789235 0.862002 0.075894
0.836350 0.864861 0.075818
0.883464 0.867720 0.075742
0.930579 0.870579 0.075667
0.189158 0.883696 0.077977
0.236273 0.886555 0.077901
0.283387 0.889414 0.077826
0.330502 0.892273 0.077750
0.377616 0.895132 0.077675
0.424731 0.897991 0.077599
0.471846 0.900850 0.077523
0.518960 0.903709 0.077448
0.566075 0.906568 0.077372
0.613189 0.909427 0.077296
0.660304 0.912286 0.077221
0.707418 0.915145 0.077145
0.754533 0.918004 0.077069
0.801647 0.920863 0.076994
0.848762 0.923722 0.076918
0.895877 0.926581 0.076842
0.942991 0.929440 0.076767
0.201570 0.942557 0.079077
0.248685 0.945416 0.079002
0.295800 0.948275 0.078926
0.342914 0.951134 0.078850
0.390029 0.953993 0.078775
0.437143 0.956852 0.078699
0.484258 0.959711 0.078623
0.531372 0.962570 0.078548
0.578487 0.965429 0.078472
0.625602 0.968288 0.078396
0.672716 0.971147 0.078321
0.719831 0.974006 0.078245
0.766945 0.976865 0.078170
0.814060 0.979724 0.078094
0.861174 0.982583 0.078018
0.908289 0.985442 0.077943
0.955404 0.988301 0.077867
0.005946 0.001560 0.122951
0.053061 0.004419 0.122875
0.100175 0.007278 0.122800
0.147290 0.010137 0.122724
0.194404 0.012996 0.122648
0.241519 0.015855 0.122573
0.288634 0.018714 0.122497
0.335748 0.021573 0.122422
0.382863 0.024432 0.122346
0.429977 0.027291 0.122270
0.477092 0.030150 0.122195
0.524206 0.033009 0.122119
0.571321 0.035868 0.122043
0.618436 0.038727 0.121968
0.665550 0.041586 0.121892
0.712665 0.044445 0.121816
0.759779 0.047304 0.121741
0.018359 0.060421 0.124051
0.065473 0.063280 0.123976
0.112588 0.066139 0.123900
0.159702 0.068998 0.123824
0.206817 0.071857 0.123749
0.253931 0.074716 0.123673
0.301046 0.077575 0.123597
0.348161 0.080434 0.123522
0.395275 0.083293 0.123446
0.442390 0.086152 0.123370
0.489504 0.089011 0.123295
0.536619 0.091870 0.123219
0.583733 0.094729 0.123143
0.630848 0.097588 0.123068
0.677962 0.100447 0.122992
0.725077 0.103306 0.122916
0.772192 0.106165 0.122841
0.030771 0.119282 0.125151
0.077885 0.122141 0.125076
0.125000 0.125000 0.125000
0.172115 0.127859 0.124924
0.219229 0.130718 0.124849
0.266344 0.133577 0.124773
0.313458 0.136436 0.124697
0.360573 0.139295 0.124622
0.407687 0.142154 0.124546
0.454802 0.145013 0.124470
0.501917 0.147872 0.124395
0.549031 0.150731 0.124319
0.596146 0.153590 0.124244
0.643260 0.156449 0.124168
0.690375 0.159308 0.124092
0.737489 0.162167 0.124017
0.784604 0.165026 0.123941
0.043183 0.178143 0.126251
0.090298 0.181002 0.126176
0.137412 0.183861 0.126100
0.184527 0.186720 0.126024
0.231641 0.189579 0.125949
0.278756 0.192438 0.125873
0.325871 0.195297 0.125798
0.372985 0.198156 0.125722
0.420100 0.201015 0.125646
0.467214 0.203874 0.125571
0.514329 0.206733 0.125495
0.561443 0.209592 0.125419
0.608558 0.212451 0.125344
0.655673 0.215310 0.125268
0.702787 0.218169 0.125192
0.749902 0.221028 0.125117
0.797016 0.223887 0.125041
0.055596 0.237004 0.127352
0.102710 0.239863 0.127276
0.149825 0.242722 0.127200
0.196939 0.245581 0.127125
0.244054 0.248440 0.127049
0.291168 0.251299 0.126973
0.338283 0.254158 0.126898
0.385398 0.257017 0.126822
0.432512 0.259876 0.126746
0.479627 0.262735 0.126671
0.526741 0.265594 0.126595
0.573856 0.268453 0.126519
0.620970 0.271312 0.126444
0.668085 0.274171 0.126368
0.715200 0.277030 0.126292
0.762314 0.279889 0.126217
0.809429 0.282748 0.126141
0.068008 0.295865 0.128452
0.115122 0.298724 0.128376
0.162237 0.301583 0.128300
0.209352 0.304442 0.128225
0.256466 0.307301 0.128149
0.303581 0.310160 0.128073
0.350695 0.313019 0.127998
0.397810 0.315878 0.127922
0.444924 0.318737 0.127846
0.492039 0.321596 0.127771
0.539154 0.324455 0.127695
0.586268 0.327314 0.127620
0.633383 0.330173 0.127544
0.680497 0.333032 0.127468
0.727612 0.335891 0.127393
0.774726 0.338750 0.127317
0.821841 0.341609 0.127241
0.080420 0.354726 0.129552
0.127535 0.357585 0.129476
0.174649 0.360444 0.129400
0.221764 0.363303 0.129325
0.268878 0.366162 0.129249
0.315993 0.369021 0.129173
0.363108 0.371880 0.129098
0.410222 0.374739 0.129022
0.457337 0.377598 0.128947
0.504451 0.380457 0.128871
0.551566 0.383316 0.128795
0.598680 0.386175 0.128720
0.645795 0.389034 0.128644
0.692910 0.391893 0.128568
0.740024 0.394752 0.128493
0.787139 0.397611 0.128417
0.834253 0.400470 0.128341
0.092833 0.413587 0.130652
0.139947 0.416446 0.130576
0.187062 0.419305 0.130501
0.234176 0.422164 0.130425
0.281291 0.425023 0.130349
0.328405 0.427882 0.130274
0.375520 0.430741 0.130198
0.422635 0.433600 0.130122
0.469749 0.436459 0.130047
0.516864 0.439318 0.129971
0.563978 0.442177 0.129895
0.611093 0.445036 0.129820
0.658207 0.447895 0.129744
0.705322 0.450754 0.129668
0.752437 0.453613 0.129593
0.799551 0.456472 0.129517
0.846666 0.459331 0.129441
0.105245 0.472448 0.131752
0.152359 0.475307 0.131676
0.199474 0.478166 0.131601
0.246589 0.481025 0.131525
0.293703 0.483884 0.131449
0.340818 0.486743 0.131374
0.387932 0.489602 0.131298
0.435047 0.492461 0.131222
0.482161 0.495320 0.131147
0.529276 0.498179 0.131071
0.576391 0.501038 0.130995
0.623505 0.503897 0.130920
0.670620 0.506756 0.130844
0.717734 0.509615 0.130769
0.764849 0.512474 0.130693
0.811963 0.515333 0.130617
0.859078 0.518192 0.130542
0.117657 0.531310 0.132852
0.164772 0.534169 0.132776
0.211886 0.537028 0.132701
0.259001 0.539887 0.132625
0.306115 0.542746 0.132549
0.353230 0.545605 0.132474
0.400345 0.548463 0.132398
0.447459 0.551322 0.132323
0.494574 0.554181 0.132247
0.541688 0.557040 0.132171
0.588803 0.559899 0.132096
0.635917 0.562758 0.132020
0.683032 0.565617 0.131944
0.730147 0.568476 0.131869
0.777261 0.571335 0.131793
0.824376 0.574194 0.131717
0.871490 0.577053 0.131642
0.130070 0.590171 0.133952
0.177184 0.593030 0.133877
0.224299 0.595889 0.133801
0.271413 0.598748 0.133725
0.318528 0.601607 0.133650
0.365642 0.604466 0.133574
0.412757 0.607325 0.133498
0.459872 0.610184 0.133423
0.506986 0.613043 0.133347
0.554101 0.615902 0.133271
0.601215 0.618761 0.133196
0.648330 0.621620 0.133120
0.695444 0.624479 0.133044
0.742559 0.627338 0.132969
0.789674 0.630197 0.132893
0.836788 0.633056 0.132817
0.883903 0.635914 0.132742
0.142482 0.649032 0.135052
0.189596 0.651891 0.134977
0.236711 0.654750 0.134901
0.283826 0.657609 0.134825
0.330940 0.660468 0.134750
0.378055 0.663327 0.134674
0.425169 0.666186 0.134598
0.472284 0.669045 0.134523
0.519398 0.671904 0.134447
0.566513 0.674763 0.134371
0.613628 0.677622 0.134296
0.660742 0.680481 0.134220
0.707857 0.683340 0.134144
0.754971 0.686199 0.134069
0.802086 0.689058 0.133993
0.849200 0.691917 0.133918
0.896315 0.694776 0.133842
0.154894 0.707893 0.136152
0.202009 0.710752 0.136077
0.249123 0.713611 0.136001
0.296238 0.716470 0.135925
0.343352 0.719329 0.135850
0.390467 0.722188 0.135774
0.437582 0.725047 0.135698
0.484696 0.727906 0.135623
0.531811 0.730765 0.135547
0.578925 0.733624 0.135472
0.626040 0.736483 0.135396
0.673154 0.739342 0.135320
0.720269 0.742201 0.135245
0.767384 0.745060 0.135169
0.814498 0.747919 0.135093
0.861613 0.750778 0.135018
0.908727 0.753637 0.134942
0.167307 0.766754 0.137252
0.214421 0.769613 0.137177
0.261536 0.772472 0.137101
0.308650 0.775331 0.137026
0.355765 0.778190 0.136950
0.402879 0.781049 0.136874
0.449994 0.783908 0.136799
0.497109 0.786767 0.136723
0.544223 0.789626 0.136647
0.591338 0.792485 0.136572
0.638452 0.795344 0.136496
0.685567 0.798203 0.136420
0.732681 0.801062 0.136345
0.779796 0.803921 0.136269
0.826911 0.806780 0.136193
0.874025 0.809639 0.136118
0.921140 0.812498 0.136042
0.179719 0.825615 0.138353
0.226833 0.828474 0.138277
0.273948 0.831333 0.138201
0.321063 0.834192 0.138126
0.368177 0.837051 0.138050
0.415292 0.839910 0.137974
0.462406 0.842769 0.137899
0.509521 0.845628 0.137823
0.556635 0.848487 0.137747
0.603750 0.851346 0.137672
0.650865 0.854205 0.137596
0.697979 0.857064 0.137520
0.745094 0.859923 0.137445
0.792208 0.862782 0.137369
0.839323 0.865641 0.137294
0.886437 0.868500 0.137218
0.933552 0.871359 0.137142
0.192131 0.884476 0.139453
0.239246 0.887335 0.139377
0.286360 0.890194 0.139301
0.333475 0.893053 0.139226
0.380589 0.895912 0.139150
0.427704 0.898771 0.139074
0.474819 0.901630 0.138999
0.521933 0.904489 0.138923
0.569048 0.907348 0.138848
0.616162 0.910207 0.138772
0.663277 0.913066 0.138696
0.710391 0.915925 0.138621
0.757506 0.918784 0.138545
0.804621 0.921643 0.138469
0.851735 0.924502 0.138394
0.898850 0.927361 0.138318
0.945964 0.930220 0.138242
0.204544 0.943337 0.140553
0.251658 0.946196 0.140477
0.298773 0.949055 0.140401
0.345887 0.951914 0.140326
0.393002 0.954773 0.140250
0.440116 0.957632 0.140175
0.487231 0.960491 0.140099
0.534346 0.963350 0.140023
0.581460 0.966209 0.139948
0.628575 0.969068 0.139872
0.675689 0.971927 0.139796
0.722804 0.974786 0.139721
0.769918 0.977645 0.139645
0.817033 0.980504 0.139569
0.864148 0.983363 0.139494
0.911262 0.986222 0.139418
0.958377 0.989081 0.139342
0.008919 0.002340 0.184427
0.056034 0.005199 0.184351
0.103148 0.008058 0.184275
0.150263 0.010917 0.184200
0.197378 0.013776 0.184124
0.244492 0.016635 0.184048
0.291607 0.019494 0.183973
0.338721 0.022353 0.183897
0.385836 0.025212 0.183821
0.432950 0.028071 0.183746
0.480065 0.030930 0.183670
0.527180 0.033789 0.183594
0.574294 0.036648 0.183519
0.621409 0.039507 0.183443
0.668523 0.042366 0.183368
0.715638 0.045225 0.183292
0.762752 0.048084 0.183216
0.021332 0.061201 0.185527
0.068446 0.064060 0.185451
0.115561 0.066919 0.185375
