samples/LUTs/3D/colorspace/srgbenc_to_aces2065_33.cube
LUT_3D_SIZE 33
0.000000 0.000000 0.000000
0.001063 0.000217 0.000042
0.002267 0.000463 0.000090
0.003992 0.000815 0.000159
0.006309 0.001288 0.000252
0.009264 0.001892 0.000370
0.012900 0.002634 0.000515
0.017256 0.003524 0.000688
0.022367 0.004567 0.000892
0.028267 0.005772 0.001128
0.034987 0.007145 0.001396
0.042557 0.008690 0.001698
0.051005 0.010416 0.002035
0.060358 0.012325 0.002408
0.070641 0.014426 0.002819
0.081881 0.016721 0.003267
0.094100 0.019216 0.003755
0.107321 0.021916 0.004282
0.121566 0.024825 0.004850
0.136858 0.027947 0.005461
0.153217 0.031288 0.006113
0.170662 0.034851 0.006809
0.189215 0.038639 0.007550
0.208894 0.042658 0.008335
0.229718 0.046910 0.009166
0.251705 0.051400 0.010043
0.274872 0.056131 0.010967
0.299239 0.061107 0.011939
0.324820 0.066331 0.012960
0.351635 0.071806 0.014030
0.379697 0.077537 0.015150
0.409025 0.083526 0.016320
0.439633 0.089776 0.017541
0.000926 0.001967 0.000270
0.001989 0.002184 0.000312
0.003193 0.002430 0.000360
0.004918 0.002782 0.000429
0.007235 0.003255 0.000521
0.010190 0.003859 0.000639
0.013826 0.004601 0.000784
0.018182 0.005491 0.000958
0.023293 0.006534 0.001162
0.029193 0.007739 0.001398
0.035913 0.009112 0.001666
0.043483 0.010657 0.001968
0.051931 0.012383 0.002305
0.061284 0.014292 0.002678
0.071568 0.016393 0.003088
0.082807 0.018688 0.003537
0.095026 0.021183 0.004024
0.108247 0.023883 0.004552
0.122492 0.026792 0.005120
0.137784 0.029914 0.005730
0.154143 0.033255 0.006383
0.171589 0.036818 0.007079
0.190141 0.040606 0.007819
0.209820 0.044625 0.008605
0.230644 0.048877 0.009435
0.252631 0.053367 0.010313
0.275798 0.058098 0.011237
0.300165 0.063074 0.012209
0.325747 0.068298 0.013230
0.352561 0.073774 0.014300
0.380623 0.079504 0.015419
0.409951 0.085493 0.016590
0.440559 0.091743 0.017811
0.001975 0.004194 0.000575
0.003038 0.004411 0.000618
0.004241 0.004657 0.000666
0.005966 0.005009 0.000734
0.008283 0.005482 0.000827
0.011239 0.006086 0.000945
0.014875 0.006828 0.001090
0.019230 0.007718 0.001264
0.024341 0.008761 0.001468
0.030241 0.009966 0.001703
0.036961 0.011338 0.001971
0.044531 0.012884 0.002273
0.052979 0.014609 0.002610
0.062332 0.016519 0.002983
0.072616 0.018619 0.003394
0.083855 0.020915 0.003842
0.096074 0.023410 0.004330
0.109295 0.026110 0.004857
0.123541 0.029019 0.005426
0.138833 0.032141 0.006036
0.155191 0.035482 0.006688
0.172637 0.039044 0.007384
0.191190 0.042833 0.008125
0.210869 0.046852 0.008910
0.231692 0.051104 0.009741
0.253679 0.055594 0.010618
0.276847 0.060325 0.011542
0.301213 0.065301 0.012515
0.326795 0.070525 0.013535
0.353609 0.076000 0.014605
0.381672 0.081731 0.015725
0.411000 0.087720 0.016895
0.441608 0.093970 0.018116
0.003478 0.007386 0.001013
0.004541 0.007603 0.001055
0.005744 0.007849 0.001103
0.007469 0.008201 0.001172
0.009786 0.008674 0.001265
0.012742 0.009278 0.001382
0.016378 0.010020 0.001528
0.020733 0.010910 0.001701
0.025844 0.011954 0.001905
0.031744 0.013158 0.002141
0.038464 0.014531 0.002409
0.046034 0.016076 0.002711
0.054482 0.017802 0.003048
0.063835 0.019712 0.003421
0.074119 0.021812 0.003831
0.085358 0.024107 0.004280
0.097577 0.026602 0.004767
0.110798 0.029302 0.005295
0.125044 0.032211 0.005863
0.140336 0.035334 0.006473
0.156694 0.038674 0.007126
0.174140 0.042237 0.007822
0.192693 0.046025 0.008562
0.212372 0.050044 0.009348
0.233195 0.054296 0.010178
0.255182 0.058786 0.011056
0.278350 0.063517 0.011980
0.302716 0.068493 0.012952
0.328298 0.073717 0.013973
0.355112 0.079193 0.015043
0.383175 0.084923 0.016163
0.412503 0.090912 0.017333
0.443111 0.097163 0.018554
0.005496 0.011673 0.001601
0.006559 0.011890 0.001643
0.007762 0.012136 0.001691
0.009488 0.012488 0.001760
0.011805 0.012961 0.001852
0.014760 0.013565 0.001970
0.018396 0.014307 0.002115
0.022752 0.015197 0.002289
0.027863 0.016240 0.002493
0.033762 0.017445 0.002729
0.040482 0.018817 0.002997
0.048052 0.020363 0.003299
0.056500 0.022088 0.003636
0.065853 0.023998 0.004009
0.076137 0.026098 0.004419
0.087377 0.028393 0.004868
0.099595 0.030889 0.005355
0.112816 0.033588 0.005883
0.127062 0.036498 0.006451
0.142354 0.039620 0.007061
0.158712 0.042961 0.007714
0.176158 0.046523 0.008410
0.194711 0.050312 0.009150
0.214390 0.054331 0.009935
0.235214 0.058583 0.010766
0.257200 0.063073 0.011644
0.280368 0.067804 0.012568
0.304735 0.072780 0.013540
0.330316 0.078004 0.014561
0.357130 0.083479 0.015631
0.385193 0.089210 0.016750
0.414521 0.095199 0.017921
0.445129 0.101449 0.019142
0.008070 0.017141 0.002351
0.009133 0.017358 0.002393
0.010337 0.017604 0.002441
0.012062 0.017956 0.002510
0.014379 0.018429 0.002602
0.017334 0.019033 0.002720
0.020970 0.019775 0.002865
0.025326 0.020665 0.003039
0.030437 0.021708 0.003243
0.036337 0.022913 0.003478
0.043057 0.024285 0.003746
0.050627 0.025831 0.004048
0.059075 0.027556 0.004386
0.068428 0.029466 0.004759
0.078712 0.031566 0.005169
0.089951 0.033861 0.005618
0.102170 0.036357 0.006105
0.115391 0.039057 0.006633
0.129637 0.041966 0.007201
0.144928 0.045088 0.007811
0.161287 0.048429 0.008464
0.178733 0.051991 0.009160
0.197286 0.055780 0.009900
0.216964 0.059799 0.010685
0.237788 0.064051 0.011516
0.259775 0.068541 0.012393
0.282943 0.073272 0.013318
0.307309 0.078248 0.014290
0.332891 0.083472 0.015311
0.359705 0.088947 0.016381
0.387768 0.094678 0.017500
0.417095 0.100667 0.018670
0.447703 0.106917 0.019892
0.011238 0.023869 0.003273
0.012301 0.024086 0.003316
0.013505 0.024331 0.003364
0.015230 0.024684 0.003432
0.017547 0.025157 0.003525
0.020502 0.025760 0.003643
0.024138 0.026503 0.003788
0.028494 0.027392 0.003962
0.033605 0.028436 0.004166
0.039505 0.029641 0.004401
0.046225 0.031013 0.004669
0.053794 0.032559 0.004971
0.062242 0.034284 0.005308
0.071596 0.036194 0.005681
0.081879 0.038294 0.006092
0.093119 0.040589 0.006540
0.105338 0.043084 0.007028
0.118559 0.045784 0.007555
0.132804 0.048693 0.008124
0.148096 0.051816 0.008734
0.164455 0.055157 0.009386
0.181900 0.058719 0.010082
0.200453 0.062508 0.010823
0.220132 0.066526 0.011608
0.240956 0.070779 0.012439
0.262943 0.075269 0.013316
0.286110 0.080000 0.014240
0.310477 0.084975 0.015213
0.336058 0.090199 0.016233
0.362873 0.095675 0.017303
0.390935 0.101406 0.018423
0.420263 0.107395 0.019593
0.450871 0.113645 0.020814
0.015032 0.031928 0.004378
0.016096 0.032145 0.004421
0.017299 0.032391 0.004469
0.019024 0.032743 0.004538
0.021341 0.033216 0.004630
0.024296 0.033820 0.004748
0.027933 0.034562 0.004893
0.032288 0.035452 0.005067
0.037399 0.036495 0.005271
0.043299 0.037700 0.005506
0.050019 0.039072 0.005774
0.057589 0.040618 0.006076
0.066037 0.042343 0.006413
0.075390 0.044253 0.006786
0.085674 0.046353 0.007197
0.096913 0.048648 0.007645
0.109132 0.051144 0.008133
0.122353 0.053844 0.008660
0.136599 0.056753 0.009229
0.151890 0.059875 0.009839
0.168249 0.063216 0.010492
0.185695 0.066778 0.011188
0.204248 0.070567 0.011928
0.223926 0.074586 0.012713
0.244750 0.078838 0.013544
0.266737 0.083328 0.014421
0.289905 0.088059 0.015346
0.314271 0.093035 0.016318
0.339853 0.098259 0.017338
0.366667 0.103734 0.018408
0.394730 0.109465 0.019528
0.424057 0.115454 0.020698
0.454665 0.121704 0.021919
0.019485 0.041385 0.005675
0.020548 0.041602 0.005717
0.021752 0.041847 0.005765
0.023477 0.042200 0.005834
0.025794 0.042673 0.005927
0.028749 0.043276 0.006045
0.032385 0.044019 0.006190
0.036741 0.044908 0.006364
0.041852 0.045952 0.006567
0.047752 0.047157 0.006803
0.054472 0.048529 0.007071
0.062041 0.050075 0.007373
0.070489 0.051800 0.007710
0.079843 0.053710 0.008083
0.090126 0.055810 0.008494
0.101366 0.058105 0.008942
0.113585 0.060600 0.009430
0.126806 0.063300 0.009957
0.141051 0.066209 0.010525
0.156343 0.069332 0.011136
0.172702 0.072673 0.011788
0.190147 0.076235 0.012484
0.208700 0.080024 0.013225
0.228379 0.084042 0.014010
0.249203 0.088295 0.014841
0.271190 0.092785 0.015718
0.294357 0.097516 0.016642
0.318724 0.102491 0.017615
0.344305 0.107715 0.018635
0.371120 0.113191 0.019705
0.399182 0.118922 0.020825
0.428510 0.124911 0.021995
0.459118 0.131161 0.023216
0.024625 0.052301 0.007172
0.025688 0.052518 0.007214
0.026891 0.052764 0.007262
0.028617 0.053116 0.007331
0.030933 0.053589 0.007424
0.033889 0.054193 0.007542
0.037525 0.054935 0.007687
0.041880 0.055825 0.007860
0.046991 0.056868 0.008064
0.052891 0.058073 0.008300
0.059611 0.059445 0.008568
0.067181 0.060991 0.008870
0.075629 0.062716 0.009207
0.084982 0.064626 0.009580
0.095266 0.066726 0.009991
0.106505 0.069022 0.010439
0.118724 0.071517 0.010927
0.131945 0.074217 0.011454
0.146191 0.077126 0.012022
0.161483 0.080248 0.012633
0.177841 0.083589 0.013285
0.195287 0.087151 0.013981
0.213840 0.090940 0.014722
0.233519 0.094959 0.015507
0.254342 0.099211 0.016338
0.276329 0.103701 0.017215
0.299497 0.108432 0.018139
0.323863 0.113408 0.019111
0.349445 0.118632 0.020132
0.376259 0.124107 0.021202
0.404322 0.129838 0.022322
0.433650 0.135827 0.023492
0.464258 0.142077 0.024713
0.030479 0.064735 0.008877
0.031542 0.064952 0.008919
0.032745 0.065198 0.008967
0.034471 0.065550 0.009036
0.036787 0.066023 0.009129
0.039743 0.066626 0.009247
0.043379 0.067369 0.009392
0.047735 0.068258 0.009566
0.052846 0.069302 0.009769
0.058745 0.070507 0.010005
0.065465 0.071879 0.010273
0.073035 0.073425 0.010575
0.081483 0.075150 0.010912
0.090836 0.077060 0.011285
0.101120 0.079160 0.011696
0.112360 0.081455 0.012144
0.124578 0.083951 0.012632
0.137799 0.086650 0.013159
0.152045 0.089559 0.013727
0.167337 0.092682 0.014338
0.183695 0.096023 0.014990
0.201141 0.099585 0.015686
0.219694 0.103374 0.016427
0.239373 0.107392 0.017212
0.260196 0.111645 0.018043
0.282183 0.116135 0.018920
0.305351 0.120866 0.019844
0.329717 0.125841 0.020817
0.355299 0.131066 0.021837
0.382113 0.136541 0.022907
0.410176 0.142272 0.024027
0.439504 0.148261 0.025197
0.470112 0.154511 0.026418
0.037073 0.078741 0.010798
0.038136 0.078958 0.010840
0.039340 0.079204 0.010888
0.041065 0.079556 0.010957
0.043382 0.080029 0.011049
0.046337 0.080633 0.011167
0.049973 0.081375 0.011312
0.054329 0.082265 0.011486
0.059440 0.083308 0.011690
0.065340 0.084513 0.011926
0.072060 0.085886 0.012194
0.079630 0.087431 0.012496
0.088078 0.089157 0.012833
0.097431 0.091066 0.013206
0.107715 0.093167 0.013616
0.118954 0.095462 0.014065
0.131173 0.097957 0.014552
0.144394 0.100657 0.015080
0.158640 0.103566 0.015648
0.173931 0.106688 0.016258
0.190290 0.110029 0.016911
0.207736 0.113592 0.017607
0.226288 0.117380 0.018347
0.245967 0.121399 0.019132
0.266791 0.125651 0.019963
0.288778 0.130141 0.020841
0.311946 0.134872 0.021765
0.336312 0.139848 0.022737
0.361894 0.145072 0.023758
0.388708 0.150548 0.024828
0.416771 0.156278 0.025947
0.446098 0.162267 0.027118
0.476706 0.168517 0.028339
0.044433 0.094372 0.012941
0.045496 0.094589 0.012984
0.046699 0.094835 0.013032
0.048425 0.095187 0.013100
0.050742 0.095660 0.013193
0.053697 0.096264 0.013311
0.057333 0.097006 0.013456
0.061689 0.097896 0.013630
0.066800 0.098940 0.013834
0.072699 0.100144 0.014069
0.079419 0.101517 0.014337
0.086989 0.103062 0.014639
0.095437 0.104788 0.014976
0.104790 0.106698 0.015349
0.115074 0.108798 0.015760
0.126314 0.111093 0.016208
0.138532 0.113588 0.016696
0.151753 0.116288 0.017223
0.165999 0.119197 0.017792
0.181291 0.122320 0.018402
0.197649 0.125660 0.019054
0.215095 0.129223 0.019751
0.233648 0.133011 0.020491
0.253327 0.137030 0.021276
0.274151 0.141282 0.022107
0.296137 0.145772 0.022984
0.319305 0.150503 0.023908
0.343672 0.155479 0.024881
0.369253 0.160703 0.025901
0.396067 0.166179 0.026971
0.424130 0.171909 0.028091
0.453458 0.177898 0.029261
0.484066 0.184149 0.030482
0.052581 0.111678 0.015314
0.053644 0.111895 0.015357
0.054847 0.112141 0.015405
0.056573 0.112493 0.015474
0.058889 0.112966 0.015566
0.061845 0.113569 0.015684
0.065481 0.114312 0.015829
0.069837 0.115201 0.016003
0.074948 0.116245 0.016207
0.080847 0.117450 0.016442
0.087567 0.118822 0.016710
0.095137 0.120368 0.017012
0.103585 0.122093 0.017349
0.112938 0.124003 0.017723
0.123222 0.126103 0.018133
0.134462 0.128398 0.018581
0.146680 0.130894 0.019069
0.159901 0.133593 0.019596
0.174147 0.136502 0.020165
0.189439 0.139625 0.020775
0.205797 0.142966 0.021428
0.223243 0.146528 0.022124
0.241796 0.150317 0.022864
0.261475 0.154335 0.023649
0.282299 0.158588 0.024480
0.304285 0.163078 0.025357
0.327453 0.167809 0.026282
0.351819 0.172785 0.027254
0.377401 0.178009 0.028275
0.404215 0.183484 0.029344
0.432278 0.189215 0.030464
0.461606 0.195204 0.031634
0.492214 0.201454 0.032855
0.061540 0.130706 0.017924
0.062603 0.130923 0.017966
0.063806 0.131168 0.018014
0.065532 0.131521 0.018083
0.067848 0.131994 0.018175
0.070804 0.132597 0.018293
0.074440 0.133340 0.018438
0.078795 0.134229 0.018612
0.083906 0.135273 0.018816
0.089806 0.136478 0.019051
0.096526 0.137850 0.019320
0.104096 0.139396 0.019622
0.112544 0.141121 0.019959
0.121897 0.143031 0.020332
0.132181 0.145131 0.020742
0.143420 0.147426 0.021191
0.155639 0.149921 0.021678
0.168860 0.152621 0.022206
0.183106 0.155530 0.022774
0.198398 0.158653 0.023384
0.214756 0.161994 0.024037
0.232202 0.165556 0.024733
0.250755 0.169345 0.025473
0.270434 0.173363 0.026258
0.291257 0.177616 0.027089
0.313244 0.182106 0.027966
0.336412 0.186837 0.028891
0.360778 0.191812 0.029863
0.386360 0.197036 0.030884
0.413174 0.202512 0.031954
0.441237 0.208243 0.033073
0.470565 0.214232 0.034244
0.501173 0.220482 0.035465
0.071331 0.151501 0.020775
0.072394 0.151719 0.020818
0.073597 0.151964 0.020866
0.075323 0.152317 0.020935
0.077640 0.152790 0.021027
0.080595 0.153393 0.021145
0.084231 0.154136 0.021290
0.088587 0.155025 0.021464
0.093698 0.156069 0.021668
0.099597 0.157274 0.021903
0.106318 0.158646 0.022171
0.113887 0.160192 0.022473
0.122335 0.161917 0.022810
0.131688 0.163827 0.023184
0.141972 0.165927 0.023594
0.153212 0.168222 0.024042
0.165430 0.170717 0.024530
0.178652 0.173417 0.025057
0.192897 0.176326 0.025626
0.208189 0.179449 0.026236
0.224547 0.182790 0.026889
0.241993 0.186352 0.027585
0.260546 0.190141 0.028325
0.280225 0.194159 0.029110
0.301049 0.198412 0.029941
0.323035 0.202901 0.030818
0.346203 0.207633 0.031743
0.370570 0.212608 0.032715
0.396151 0.217832 0.033736
0.422966 0.223308 0.034805
0.451028 0.229039 0.035925
0.480356 0.235028 0.037095
0.510964 0.241278 0.038316
0.081975 0.174110 0.023876
0.083038 0.174327 0.023918
0.084242 0.174572 0.023966
0.085967 0.174925 0.024035
0.088284 0.175398 0.024127
0.091239 0.176001 0.024245
0.094875 0.176744 0.024390
0.099231 0.177633 0.024564
0.104342 0.178677 0.024768
0.110242 0.179882 0.025003
0.116962 0.181254 0.025272
0.124532 0.182800 0.025574
0.132980 0.184525 0.025911
0.142333 0.186435 0.026284
0.152617 0.188535 0.026694
0.163856 0.190830 0.027143
0.176075 0.193325 0.027630
0.189296 0.196025 0.028158
0.203542 0.198934 0.028726
0.218833 0.202057 0.029336
0.235192 0.205398 0.029989
0.252638 0.208960 0.030685
0.271190 0.212749 0.031425
0.290869 0.216767 0.032210
0.311693 0.221020 0.033041
0.333680 0.225510 0.033918
0.356848 0.230241 0.034843
0.381214 0.235216 0.035815
0.406796 0.240440 0.036836
0.433610 0.245916 0.037906
0.461673 0.251647 0.039025
0.491000 0.257636 0.040195
0.521608 0.263886 0.041417
0.093493 0.198572 0.027230
0.094556 0.198789 0.027273
0.095760 0.199035 0.027321
0.097485 0.199387 0.027389
0.099802 0.199860 0.027482
0.102757 0.200464 0.027600
0.106393 0.201206 0.027745
0.110749 0.202096 0.027919
0.115860 0.203140 0.028123
0.121760 0.204344 0.028358
0.128480 0.205717 0.028626
0.136049 0.207262 0.028928
0.144497 0.208988 0.029265
0.153850 0.210898 0.029638
0.164134 0.212998 0.030049
0.175374 0.215293 0.030497
0.187592 0.217788 0.030985
0.200814 0.220488 0.031512
0.215059 0.223397 0.032081
0.230351 0.226519 0.032691
0.246710 0.229860 0.033343
0.264155 0.233423 0.034039
0.282708 0.237211 0.034780
0.302387 0.241230 0.035565
0.323211 0.245482 0.036396
0.345197 0.249972 0.037273
0.368365 0.254703 0.038197
0.392732 0.259679 0.039170
0.418313 0.264903 0.040190
0.445128 0.270379 0.041260
0.473190 0.276109 0.042380
0.502518 0.282098 0.043550
0.533126 0.288348 0.044771
0.105903 0.224930 0.030845
0.106966 0.225147 0.030887
0.108170 0.225393 0.030935
0.109895 0.225746 0.031004
0.112212 0.226219 0.031096
0.115167 0.226822 0.031214
0.118803 0.227565 0.031359
0.123159 0.228454 0.031533
0.128270 0.229498 0.031737
0.134170 0.230703 0.031972
0.140890 0.232075 0.032241
0.148460 0.233621 0.032543
0.156908 0.235346 0.032880
0.166261 0.237256 0.033253
0.176545 0.239356 0.033663
0.187784 0.241651 0.034112
0.200003 0.244146 0.034599
0.213224 0.246846 0.035127
0.227469 0.249755 0.035695
0.242761 0.252878 0.036305
0.259120 0.256218 0.036958
0.276566 0.259781 0.037654
0.295118 0.263570 0.038394
0.314797 0.267588 0.039179
0.335621 0.271840 0.040010
0.357608 0.276330 0.040887
0.380775 0.281061 0.041812
0.405142 0.286037 0.042784
0.430724 0.291261 0.043805
0.457538 0.296737 0.044875
0.485601 0.302467 0.045994
0.514928 0.308456 0.047165
0.545536 0.314707 0.048386
0.119225 0.253224 0.034724
0.120288 0.253441 0.034767
0.121491 0.253687 0.034815
0.123216 0.254039 0.034884
0.125533 0.254512 0.034976
0.128489 0.255116 0.035094
0.132125 0.255858 0.035239
0.136480 0.256748 0.035413
0.141591 0.257792 0.035617
0.147491 0.258996 0.035852
0.154211 0.260369 0.036120
0.161781 0.261914 0.036422
0.170229 0.263640 0.036760
0.179582 0.265550 0.037133
0.189866 0.267650 0.037543
0.201105 0.269945 0.037992
0.213324 0.272440 0.038479
0.226545 0.275140 0.039007
0.240791 0.278049 0.039575
0.256083 0.281172 0.040185
0.272441 0.284512 0.040838
0.289887 0.288075 0.041534
0.308440 0.291863 0.042274
0.328119 0.295882 0.043059
0.348942 0.300134 0.043890
0.370929 0.304624 0.044767
0.394097 0.309355 0.045692
0.418463 0.314331 0.046664
0.444045 0.319555 0.047685
0.470859 0.325031 0.048755
0.498922 0.330761 0.049874
0.528250 0.336750 0.051044
0.558858 0.343001 0.052266
0.133475 0.283492 0.038875
0.134539 0.283709 0.038918
0.135742 0.283955 0.038966
0.137467 0.284307 0.039034
0.139784 0.284780 0.039127
0.142739 0.285384 0.039245
0.146376 0.286126 0.039390
0.150731 0.287016 0.039564
0.155842 0.288059 0.039768
0.161742 0.289264 0.040003
0.168462 0.290636 0.040271
0.176032 0.292182 0.040573
0.184480 0.293907 0.040910
0.193833 0.295817 0.041283
0.204117 0.297917 0.041694
0.215356 0.300213 0.042142
0.227575 0.302708 0.042630
0.240796 0.305408 0.043157
0.255042 0.308317 0.043726
0.270333 0.311439 0.044336
0.286692 0.314780 0.044988
0.304138 0.318343 0.045684
0.322691 0.322131 0.046425
0.342369 0.326150 0.047210
0.363193 0.330402 0.048041
0.385180 0.334892 0.048918
0.408348 0.339623 0.049842
0.432714 0.344599 0.050815
0.458296 0.349823 0.051835
0.485110 0.355298 0.052905
0.513173 0.361029 0.054025
0.542500 0.367018 0.055195
0.573108 0.373268 0.056416
0.148673 0.315771 0.043302
0.149737 0.315988 0.043344
0.150940 0.316234 0.043392
0.152665 0.316587 0.043461
0.154982 0.317060 0.043553
0.157937 0.317663 0.043671
0.161574 0.318406 0.043816
0.165929 0.319295 0.043990
0.171040 0.320339 0.044194
0.176940 0.321544 0.044429
0.183660 0.322916 0.044698
0.191230 0.324462 0.045000
0.199678 0.326187 0.045337
0.209031 0.328097 0.045710
0.219315 0.330197 0.046120
0.230554 0.332492 0.046569
0.242773 0.334987 0.047056
0.255994 0.337687 0.047584
0.270240 0.340596 0.048152
0.285531 0.343719 0.048762
0.301890 0.347059 0.049415
0.319336 0.350622 0.050111
0.337889 0.354411 0.050851
0.357567 0.358429 0.051636
0.378391 0.362682 0.052467
0.400378 0.367171 0.053344
0.423546 0.371902 0.054269
0.447912 0.376878 0.055241
0.473494 0.382102 0.056262
0.500308 0.387578 0.057332
0.528371 0.393308 0.058451
0.557698 0.399297 0.059621
0.588306 0.405548 0.060843
0.164836 0.350099 0.048009
0.165899 0.350316 0.048051
0.167102 0.350562 0.048099
0.168828 0.350914 0.048168
0.171144 0.351387 0.048261
0.174100 0.351991 0.048379
0.177736 0.352733 0.048524
0.182092 0.353623 0.048697
0.187203 0.354666 0.048901
0.193102 0.355871 0.049137
0.199822 0.357244 0.049405
0.207392 0.358789 0.049707
0.215840 0.360515 0.050044
0.225193 0.362424 0.050417
0.235477 0.364525 0.050827
0.246717 0.366820 0.051276
0.258935 0.369315 0.051763
0.272156 0.372015 0.052291
0.286402 0.374924 0.052859
0.301694 0.378046 0.053469
0.318052 0.381387 0.054122
0.335498 0.384950 0.054818
0.354051 0.388738 0.055559
0.373730 0.392757 0.056344
0.394553 0.397009 0.057175
0.416540 0.401499 0.058052
0.439708 0.406230 0.058976
0.464074 0.411206 0.059948
0.489656 0.416430 0.060969
0.516470 0.421905 0.062039
0.544533 0.427636 0.063159
0.573861 0.433625 0.064329
0.604469 0.439875 0.065550
0.181979 0.386510 0.053002
0.183042 0.386727 0.053044
0.184246 0.386973 0.053092
0.185971 0.387325 0.053161
0.188288 0.387798 0.053254
0.191243 0.388402 0.053372
0.194879 0.389144 0.053517
0.199235 0.390034 0.053690
0.204346 0.391078 0.053894
0.210246 0.392282 0.054130
0.216966 0.393655 0.054398
0.224536 0.395200 0.054700
0.232984 0.396926 0.055037
0.242337 0.398836 0.055410
0.252621 0.400936 0.055821
0.263860 0.403231 0.056269
0.276079 0.405726 0.056756
0.289300 0.408426 0.057284
0.303545 0.411335 0.057852
0.318837 0.414458 0.058463
0.335196 0.417798 0.059115
0.352642 0.421361 0.059811
0.371194 0.425149 0.060552
0.390873 0.429168 0.061337
0.411697 0.433420 0.062168
0.433684 0.437910 0.063045
0.456852 0.442641 0.063969
0.481218 0.447617 0.064941
0.506800 0.452841 0.065962
0.533614 0.458317 0.067032
0.561677 0.464047 0.068152
0.591004 0.470036 0.069322
0.621612 0.476287 0.070543
0.200120 0.425040 0.058285
0.201183 0.425257 0.058328
0.202386 0.425502 0.058376
0.204112 0.425855 0.058445
0.206428 0.426328 0.058537
0.209384 0.426931 0.058655
0.213020 0.427674 0.058800
0.217376 0.428563 0.058974
0.222487 0.429607 0.059178
0.228386 0.430812 0.059413
0.235106 0.432184 0.059681
0.242676 0.433730 0.059983
0.251124 0.435455 0.060321
0.260477 0.437365 0.060694
0.270761 0.439465 0.061104
0.282001 0.441760 0.061552
0.294219 0.444255 0.062040
0.307440 0.446955 0.062568
0.321686 0.449864 0.063136
0.336978 0.452987 0.063746
0.353336 0.456328 0.064399
0.370782 0.459890 0.065095
0.389335 0.463679 0.065835
0.409014 0.467697 0.066620
0.429838 0.471950 0.067451
0.451824 0.476440 0.068328
0.474992 0.481171 0.069253
0.499359 0.486146 0.070225
0.524940 0.491370 0.071246
0.551754 0.496846 0.072316
0.579817 0.502577 0.073435
0.609145 0.508566 0.074605
0.639753 0.514816 0.075827
0.219274 0.465721 0.063864
0.220337 0.465938 0.063907
0.221540 0.466184 0.063955
0.223266 0.466536 0.064023
0.225582 0.467010 0.064116
0.228538 0.467613 0.064234
0.232174 0.468356 0.064379
0.236530 0.469245 0.064553
0.241641 0.470289 0.064757
0.247540 0.471493 0.064992
0.254260 0.472866 0.065260
0.261830 0.474412 0.065562
0.270278 0.476137 0.065899
0.279631 0.478047 0.066272
0.289915 0.480147 0.066683
0.301155 0.482442 0.067131
0.313373 0.484937 0.067619
0.326594 0.487637 0.068146
0.340840 0.490546 0.068715
0.356132 0.493669 0.069325
0.372490 0.497009 0.069977
0.389936 0.500572 0.070673
0.408489 0.504360 0.071414
0.428168 0.508379 0.072199
0.448991 0.512631 0.073030
0.470978 0.517121 0.073907
0.494146 0.521852 0.074831
0.518512 0.526828 0.075804
0.544094 0.532052 0.076824
0.570908 0.537528 0.077894
0.598971 0.543258 0.079014
0.628299 0.549247 0.080184
0.658907 0.555498 0.081405
0.239457 0.508588 0.069742
0.240520 0.508805 0.069785
0.241723 0.509051 0.069833
0.243448 0.509403 0.069902
0.245765 0.509876 0.069994
0.248721 0.510480 0.070112
0.252357 0.511222 0.070257
0.256712 0.512112 0.070431
0.261823 0.513155 0.070635
0.267723 0.514360 0.070870
0.274443 0.515732 0.071138
0.282013 0.517278 0.071440
0.290461 0.519003 0.071777
0.299814 0.520913 0.072151
0.310098 0.523013 0.072561
0.321337 0.525309 0.073009
0.333556 0.527804 0.073497
0.346777 0.530504 0.074024
0.361023 0.533413 0.074593
0.376315 0.536535 0.075203
0.392673 0.539876 0.075856
0.410119 0.543438 0.076552
0.428672 0.547227 0.077292
0.448351 0.551246 0.078077
0.469174 0.555498 0.078908
0.491161 0.559988 0.079785
0.514329 0.564719 0.080710
0.538695 0.569695 0.081682
0.564277 0.574919 0.082703
0.591091 0.580394 0.083772
