samples/LUTs/3D/colorspace/srgbenc_to_aces2065_33.cube
LUT_3D_SIZE 5
0.000000 0.000000 0.000000
0.022367 0.004567 0.000892
0.094100 0.019216 0.003755
0.229718 0.046910 0.009166
0.439633 0.089776 0.017541
0.019485 0.041385 0.005675
0.041852 0.045952 0.006567
0.113585 0.060600 0.009430
0.249203 0.088295 0.014841
0.459118 0.131161 0.023216
0.081975 0.174110 0.023876
0.104342 0.178677 0.024768
0.176075 0.193325 0.027630
0.311693 0.221020 0.033041
0.521608 0.263886 0.041417
0.200120 0.425040 0.058285
0.222487 0.429607 0.059178
0.294219 0.444255 0.062040
0.429838 0.471950 0.067451
0.639753 0.514816 0.075827
0.382989 0.813439 0.111547
0.405355 0.818007 0.112439
0.477088 0.832655 0.115301
0.612706 0.860350 0.120712
0.822622 0.903216 0.129088
0.009024 0.004924 0.044309
0.031391 0.009491 0.045201
0.103124 0.024140 0.048063
0.238742 0.051834 0.053474
0.448657 0.094700 0.061850
0.028509 0.046309 0.049984
0.050876 0.050876 0.050876
0.122609 0.065524 0.053738
0.258227 0.093219 0.059149
0.468142 0.136085 0.067525
0.091000 0.179034 0.068184
0.113366 0.183601 0.069077
0.185099 0.198249 0.071939
0.320717 0.225944 0.077350
0.530633 0.268810 0.085725
0.209144 0.429964 0.102594
0.231511 0.434531 0.103486
0.303244 0.449179 0.106349
0.438862 0.476874 0.111760
0.648777 0.519740 0.120135
0.392013 0.818363 0.155855
0.414380 0.822931 0.156748
0.486113 0.837579 0.159610
0.621731 0.865274 0.165021
0.831646 0.908140 0.173396
0.037966 0.020716 0.186411
0.060333 0.025283 0.187303
0.132066 0.039932 0.190166
0.267684 0.067626 0.195577
0.477599 0.110492 0.203952
0.057451 0.062100 0.192086
0.079818 0.066668 0.192979
0.151551 0.081316 0.195841
0.287169 0.109011 0.201252
0.497084 0.151877 0.209627
0.119942 0.194825 0.210287
0.142308 0.199393 0.211179
0.214041 0.214041 0.214041
0.349659 0.241735 0.219452
0.559575 0.284602 0.227828
0.238086 0.445755 0.244697
0.260453 0.450323 0.245589
0.332186 0.464971 0.248451
0.467804 0.492665 0.253862
0.677719 0.535532 0.262238
0.420955 0.834155 0.297958
0.443322 0.838723 0.298850
0.515055 0.853371 0.301712
0.650673 0.881065 0.307123
0.860588 0.923932 0.315499
0.092684 0.050572 0.455070
0.115051 0.055139 0.455963
0.186784 0.069788 0.458825
0.322402 0.097482 0.464236
0.532317 0.140348 0.472612
0.112169 0.091956 0.460745
0.134536 0.096524 0.461638
0.206268 0.111172 0.464500
0.341887 0.138867 0.469911
0.551802 0.181733 0.478287
0.174659 0.224681 0.478946
0.197026 0.229249 0.479838
0.268759 0.243897 0.482700
0.404377 0.271591 0.488112
0.614292 0.314458 0.496487
0.292804 0.475611 0.513356
0.315171 0.480179 0.514248
0.386903 0.494827 0.517110
0.522521 0.522521 0.522521
0.732437 0.565388 0.530897
0.475673 0.864011 0.566617
0.498039 0.868579 0.567509
0.569772 0.883227 0.570371
0.705390 0.910921 0.575783
0.915306 0.953788 0.584158
0.177378 0.096784 0.870912
0.199745 0.101352 0.871805
0.271478 0.116000 0.874667
0.407096 0.143694 0.880078
0.617011 0.186561 0.888453
0.196863 0.138169 0.876587
0.219230 0.142736 0.877480
0.290963 0.157385 0.880342
0.426581 0.185079 0.885753
0.636496 0.227945 0.894129
0.259354 0.270894 0.894788
0.281720 0.275461 0.895680
0.353453 0.290109 0.898542
0.489071 0.317804 0.903953
0.698987 0.360670 0.912329
0.377498 0.521824 0.929198
0.399865 0.526391 0.930090
0.471598 0.541040 0.932952
0.607216 0.568734 0.938363
0.817131 0.611600 0.946739
0.560367 0.910224 0.982459
0.582734 0.914791 0.983351
0.654467 0.929439 0.986213
0.790085 0.957134 0.991624
1.000000 1.000000 1.000000
