samples/LUTs/3D/colorspace/srgbenc_to_aces2065_33.cube
LUT_3D_SIZE 9
0.000000 0.000000 0.000000
0.006309 0.001288 0.000252
0.022367 0.004567 0.000892
0.051005 0.010416 0.002035
0.094100 0.019216 0.003755
0.153217 0.031288 0.006113
0.229718 0.046910 0.009166
0.324820 0.066331 0.012960
0.439633 0.089776 0.017541
0.005496 0.011673 0.001601
0.011805 0.012961 0.001852
0.027863 0.016240 0.002493
0.056500 0.022088 0.003636
0.099595 0.030889 0.005355
0.158712 0.042961 0.007714
0.235214 0.058583 0.010766
0.330316 0.078004 0.014561
0.445129 0.101449 0.019142
0.019485 0.041385 0.005675
0.025794 0.042673 0.005927
0.041852 0.045952 0.006567
0.070489 0.051800 0.007710
0.113585 0.060600 0.009430
0.172702 0.072673 0.011788
0.249203 0.088295 0.014841
0.344305 0.107715 0.018635
0.459118 0.131161 0.023216
0.044433 0.094372 0.012941
0.050742 0.095660 0.013193
0.066800 0.098940 0.013834
0.095437 0.104788 0.014976
0.138532 0.113588 0.016696
0.197649 0.125660 0.019054
0.274151 0.141282 0.022107
0.369253 0.160703 0.025901
0.484066 0.184149 0.030482
0.081975 0.174110 0.023876
0.088284 0.175398 0.024127
0.104342 0.178677 0.024768
0.132980 0.184525 0.025911
0.176075 0.193325 0.027630
0.235192 0.205398 0.029989
0.311693 0.221020 0.033041
0.406796 0.240440 0.036836
0.521608 0.263886 0.041417
0.133475 0.283492 0.038875
0.139784 0.284780 0.039127
0.155842 0.288059 0.039768
0.184480 0.293907 0.040910
0.227575 0.302708 0.042630
0.286692 0.314780 0.044988
0.363193 0.330402 0.048041
0.458296 0.349823 0.051835
0.573108 0.373268 0.056416
0.200120 0.425040 0.058285
0.206428 0.426328 0.058537
0.222487 0.429607 0.059178
0.251124 0.435455 0.060321
0.294219 0.444255 0.062040
0.353336 0.456328 0.064399
0.429838 0.471950 0.067451
0.524940 0.491370 0.071246
0.639753 0.514816 0.075827
0.282969 0.601005 0.082416
0.289278 0.602294 0.082667
0.305336 0.605573 0.083308
0.333974 0.611421 0.084451
0.377069 0.620221 0.086170
0.436186 0.632293 0.088529
0.512687 0.647915 0.091581
0.607790 0.667336 0.095376
0.722602 0.690782 0.099957
0.382989 0.813439 0.111547
0.389297 0.814728 0.111798
0.405355 0.818007 0.112439
0.433993 0.823855 0.113582
0.477088 0.832655 0.115301
0.536205 0.844727 0.117660
0.612706 0.860350 0.120712
0.707809 0.879770 0.124507
0.822622 0.903216 0.129088
0.002545 0.001389 0.012497
0.008854 0.002677 0.012749
0.024912 0.005956 0.013390
0.053550 0.011804 0.014533
0.096645 0.020605 0.016252
0.155762 0.032677 0.018611
0.232263 0.048299 0.021663
0.327366 0.067720 0.025458
0.442178 0.091165 0.030039
0.008041 0.013062 0.014098
0.014350 0.014350 0.014350
0.030408 0.017629 0.014991
0.059046 0.023477 0.016133
0.102141 0.032277 0.017853
0.161258 0.044350 0.020211
0.237759 0.059972 0.023264
0.332862 0.079392 0.027058
0.447674 0.102838 0.031639
0.022030 0.042773 0.018173
0.028339 0.044062 0.018424
0.044397 0.047341 0.019065
0.073035 0.053189 0.020208
0.116130 0.061989 0.021927
0.175247 0.074061 0.024286
0.251748 0.089684 0.027338
0.346851 0.109104 0.031133
0.461663 0.132550 0.035714
0.046978 0.095761 0.025439
0.053287 0.097049 0.025690
0.069345 0.100328 0.026331
0.097983 0.106176 0.027474
0.141078 0.114977 0.029193
0.200195 0.127049 0.031552
0.276696 0.142671 0.034604
0.371799 0.162092 0.038399
0.486611 0.185537 0.042980
0.084521 0.175498 0.036373
0.090829 0.176787 0.036625
0.106887 0.180066 0.037265
0.135525 0.185914 0.038408
0.178620 0.194714 0.040128
0.237737 0.206786 0.042486
0.314238 0.222408 0.045539
0.409341 0.241829 0.049333
0.524154 0.265275 0.053914
0.136021 0.284881 0.051373
0.142329 0.286169 0.051624
0.158388 0.289448 0.052265
0.187025 0.295296 0.053408
0.230120 0.304097 0.055127
0.289237 0.316169 0.057486
0.365739 0.331791 0.060538
0.460841 0.351212 0.064333
0.575654 0.374657 0.068914
0.202665 0.426428 0.070783
0.208974 0.427717 0.071035
0.225032 0.430996 0.071675
0.253670 0.436844 0.072818
0.296765 0.445644 0.074537
0.355882 0.457716 0.076896
0.432383 0.473339 0.079949
0.527486 0.492759 0.083743
0.642298 0.516205 0.088324
0.285515 0.602394 0.094913
0.291823 0.603683 0.095165
0.307881 0.606962 0.095805
0.336519 0.612810 0.096948
0.379614 0.621610 0.098668
0.438731 0.633682 0.101026
0.515232 0.649304 0.104079
0.610335 0.668725 0.107873
0.725147 0.692171 0.112454
0.385534 0.814828 0.124044
0.391843 0.816117 0.124296
0.407901 0.819396 0.124936
0.436539 0.825244 0.126079
0.479634 0.834044 0.127799
0.538751 0.846116 0.130157
0.615252 0.861738 0.133210
0.710355 0.881159 0.137004
0.825167 0.904605 0.141585
0.009024 0.004924 0.044309
0.015333 0.006212 0.044560
0.031391 0.009491 0.045201
0.060029 0.015340 0.046344
0.103124 0.024140 0.048063
0.162241 0.036212 0.050422
0.238742 0.051834 0.053474
0.333845 0.071255 0.057269
0.448657 0.094700 0.061850
0.014520 0.016597 0.045909
0.020829 0.017885 0.046161
0.036887 0.021164 0.046802
0.065525 0.027012 0.047944
0.108620 0.035813 0.049664
0.167737 0.047885 0.052023
0.244238 0.063507 0.055075
0.339341 0.082928 0.058869
0.454153 0.106373 0.063450
0.028509 0.046309 0.049984
0.034818 0.047597 0.050235
0.050876 0.050876 0.050876
0.079514 0.056724 0.052019
0.122609 0.065524 0.053738
0.181726 0.077597 0.056097
0.258227 0.093219 0.059149
0.353330 0.112639 0.062944
0.468142 0.136085 0.067525
0.053457 0.099296 0.057250
0.059766 0.100584 0.057502
0.075824 0.103864 0.058142
0.104462 0.109712 0.059285
0.147557 0.118512 0.061004
0.206674 0.130584 0.063363
0.283175 0.146206 0.066415
0.378278 0.165627 0.070210
0.493090 0.189073 0.074791
0.091000 0.179034 0.068184
0.097308 0.180322 0.068436
0.113366 0.183601 0.069077
0.142004 0.189449 0.070219
0.185099 0.198249 0.071939
0.244216 0.210322 0.074297
0.320717 0.225944 0.077350
0.415820 0.245364 0.081144
0.530633 0.268810 0.085725
0.142500 0.288416 0.083184
0.148808 0.289704 0.083435
0.164867 0.292983 0.084076
0.193504 0.298831 0.085219
0.236599 0.307632 0.086938
0.295716 0.319704 0.089297
0.372217 0.335326 0.092349
0.467320 0.354747 0.096144
0.582133 0.378192 0.100725
0.209144 0.429964 0.102594
0.215453 0.431252 0.102846
0.231511 0.434531 0.103486
0.260149 0.440379 0.104629
0.303244 0.449179 0.106349
0.362361 0.461252 0.108707
0.438862 0.476874 0.111760
0.533965 0.496294 0.115554
0.648777 0.519740 0.120135
0.291993 0.605929 0.126724
0.298302 0.607218 0.126976
0.314360 0.610497 0.127617
0.342998 0.616345 0.128759
0.386093 0.625145 0.130479
0.445210 0.637217 0.132837
0.521711 0.652839 0.135890
0.616814 0.672260 0.139684
0.731626 0.695706 0.144265
0.392013 0.818363 0.155855
0.398322 0.819652 0.156107
0.414380 0.822931 0.156748
0.443018 0.828779 0.157890
0.486113 0.837579 0.159610
0.545230 0.849651 0.161968
0.621731 0.865274 0.165021
0.716834 0.884694 0.168815
0.831646 0.908140 0.173396
0.020579 0.011229 0.101040
0.026887 0.012517 0.101292
0.042946 0.015796 0.101932
0.071583 0.021644 0.103075
0.114678 0.030444 0.104794
0.173795 0.042517 0.107153
0.250296 0.058139 0.110205
0.345399 0.077559 0.114000
0.460212 0.101005 0.118581
0.026075 0.022901 0.102641
0.032383 0.024190 0.102892
0.048441 0.027469 0.103533
0.077079 0.033317 0.104676
0.120174 0.042117 0.106395
0.179291 0.054189 0.108754
0.255792 0.069811 0.111806
0.350895 0.089232 0.115601
0.465708 0.112678 0.120182
0.040064 0.052613 0.106715
0.046372 0.053901 0.106967
0.062431 0.057181 0.107607
0.091068 0.063029 0.108750
0.134163 0.071829 0.110469
0.193280 0.083901 0.112828
0.269781 0.099523 0.115881
0.364884 0.118944 0.119675
0.479697 0.142390 0.124256
0.065012 0.105601 0.113981
0.071320 0.106889 0.114233
0.087378 0.110168 0.114873
0.116016 0.116016 0.116016
0.159111 0.124816 0.117736
0.218228 0.136889 0.120094
0.294729 0.152511 0.123147
0.389832 0.171931 0.126941
0.504645 0.195377 0.131522
0.102554 0.185338 0.124915
0.108863 0.186626 0.125167
0.124921 0.189905 0.125808
0.153559 0.195754 0.126950
0.196654 0.204554 0.128670
0.255771 0.216626 0.131029
0.332272 0.232248 0.134081
0.427375 0.251669 0.137876
0.542187 0.275114 0.142457
0.154054 0.294720 0.139915
0.160363 0.296009 0.140167
0.176421 0.299288 0.140807
0.205059 0.305136 0.141950
0.248154 0.313936 0.143670
0.307271 0.326008 0.146028
0.383772 0.341631 0.149081
0.478875 0.361051 0.152875
0.593687 0.384497 0.157456
0.220699 0.436268 0.159325
0.227007 0.437556 0.159577
0.243065 0.440836 0.160218
0.271703 0.446684 0.161360
0.314798 0.455484 0.163080
0.373915 0.467556 0.165439
0.450416 0.483178 0.168491
0.545519 0.502599 0.172286
0.660332 0.526045 0.176867
0.303548 0.612234 0.183455
0.309857 0.613522 0.183707
0.325915 0.616801 0.184348
0.354552 0.622649 0.185490
0.397647 0.631450 0.187210
0.456765 0.643522 0.189569
0.533266 0.659144 0.192621
0.628368 0.678565 0.196416
0.743181 0.702010 0.200997
0.403567 0.824668 0.212586
0.409876 0.825956 0.212838
0.425934 0.829235 0.213479
0.454572 0.835083 0.214621
0.497667 0.843884 0.216341
0.556784 0.855956 0.218700
0.633285 0.871578 0.221752
0.728388 0.890999 0.225547
0.843200 0.914444 0.230128
0.037966 0.020716 0.186411
0.044275 0.022004 0.186663
0.060333 0.025283 0.187303
0.088971 0.031131 0.188446
0.132066 0.039932 0.190166
0.191183 0.052004 0.192524
0.267684 0.067626 0.195577
0.362787 0.087047 0.199371
0.477599 0.110492 0.203952
0.043462 0.032389 0.188012
0.049771 0.033677 0.188263
0.065829 0.036956 0.188904
0.094467 0.042804 0.190047
0.137562 0.051604 0.191766
0.196679 0.063677 0.194125
0.273180 0.079299 0.197177
0.368283 0.098719 0.200972
0.483095 0.122165 0.205553
0.057451 0.062100 0.192086
0.063760 0.063389 0.192338
0.079818 0.066668 0.192979
0.108456 0.072516 0.194121
0.151551 0.081316 0.195841
0.210668 0.093388 0.198199
0.287169 0.109011 0.201252
0.382272 0.128431 0.205046
0.497084 0.151877 0.209627
0.082399 0.115088 0.199352
0.088708 0.116376 0.199604
0.104766 0.119655 0.200245
0.133404 0.125503 0.201387
0.176499 0.134304 0.203107
0.235616 0.146376 0.205466
0.312117 0.161998 0.208518
0.407220 0.181419 0.212312
0.522032 0.204864 0.216893
0.119942 0.194825 0.210287
0.126250 0.196114 0.210538
0.142308 0.199393 0.211179
0.170946 0.205241 0.212322
0.214041 0.214041 0.214041
0.273158 0.226113 0.216400
0.349659 0.241735 0.219452
0.444762 0.261156 0.223247
0.559575 0.284602 0.227828
0.171442 0.304208 0.225286
0.177750 0.305496 0.225538
0.193809 0.308775 0.226179
0.222446 0.314623 0.227321
0.265541 0.323424 0.229041
0.324658 0.335496 0.231399
0.401159 0.351118 0.234452
0.496262 0.370539 0.238246
0.611075 0.393984 0.242827
0.238086 0.445755 0.244697
0.244395 0.447044 0.244948
0.260453 0.450323 0.245589
0.289091 0.456171 0.246732
0.332186 0.464971 0.248451
0.391303 0.477043 0.250810
0.467804 0.492665 0.253862
0.562907 0.512086 0.257657
0.677719 0.535532 0.262238
0.320935 0.621721 0.268827
0.327244 0.623009 0.269078
0.343302 0.626289 0.269719
0.371940 0.632137 0.270862
0.415035 0.640937 0.272581
0.474152 0.653009 0.274940
0.550653 0.668631 0.277992
0.645756 0.688052 0.281787
0.760568 0.711498 0.286368
0.420955 0.834155 0.297958
0.427264 0.835443 0.298209
0.443322 0.838723 0.298850
0.471959 0.844571 0.299993
0.515055 0.853371 0.301712
0.574172 0.865443 0.304071
0.650673 0.881065 0.307123
0.745775 0.900486 0.310918
0.860588 0.923932 0.315499
0.061818 0.033730 0.303522
0.068127 0.035019 0.303774
0.084185 0.038298 0.304414
0.112823 0.044146 0.305557
0.155918 0.052946 0.307276
0.215035 0.065018 0.309635
0.291536 0.080640 0.312687
0.386639 0.100061 0.316482
0.501451 0.123507 0.321063
0.067314 0.045403 0.305122
0.073623 0.046691 0.305374
0.089681 0.049970 0.306015
0.118318 0.055819 0.307158
0.161414 0.064619 0.308877
0.220531 0.076691 0.311236
0.297032 0.092313 0.314288
0.392134 0.111734 0.318083
0.506947 0.135179 0.322664
0.081303 0.075115 0.309197
0.087612 0.076403 0.309449
0.103670 0.079682 0.310089
0.132308 0.085530 0.311232
0.175403 0.094331 0.312951
0.234520 0.106403 0.315310
0.311021 0.122025 0.318363
0.406124 0.141446 0.322157
0.520936 0.164891 0.326738
0.106251 0.128102 0.316463
0.112560 0.129391 0.316715
0.128618 0.132670 0.317355
0.157256 0.138518 0.318498
0.200351 0.147318 0.320218
0.259468 0.159390 0.322576
0.335969 0.175012 0.325629
0.431071 0.194433 0.329423
0.545884 0.217879 0.334004
0.143793 0.207840 0.327397
0.150102 0.209128 0.327649
0.166160 0.212407 0.328290
0.194798 0.218255 0.329432
0.237893 0.227056 0.331152
0.297010 0.239128 0.333511
0.373511 0.254750 0.336563
0.468614 0.274171 0.340358
0.583427 0.297616 0.344939
0.195294 0.317222 0.342397
0.201602 0.318511 0.342649
0.217660 0.321790 0.343289
0.246298 0.327638 0.344432
0.289393 0.336438 0.346151
0.348510 0.348510 0.348510
0.425011 0.364132 0.351563
0.520114 0.383553 0.355357
0.634927 0.406999 0.359938
0.261938 0.458770 0.361807
0.268247 0.460058 0.362059
0.284305 0.463337 0.362700
0.312942 0.469185 0.363842
0.356038 0.477986 0.365562
0.415155 0.490058 0.367921
0.491656 0.505680 0.370973
0.586758 0.525101 0.374767
0.701571 0.548546 0.379348
0.344787 0.634736 0.385937
0.351096 0.636024 0.386189
0.367154 0.639303 0.386830
0.395792 0.645151 0.387972
0.438887 0.653952 0.389692
0.498004 0.666024 0.392051
0.574505 0.681646 0.395103
0.669608 0.701066 0.398898
0.784420 0.724512 0.403479
0.444807 0.847170 0.415068
0.451116 0.848458 0.415320
0.467174 0.851737 0.415961
0.495811 0.857585 0.417103
0.538906 0.866386 0.418823
0.598023 0.878458 0.421182
0.674525 0.894080 0.424234
0.769627 0.913501 0.428029
0.884440 0.936946 0.432610
0.092684 0.050572 0.455070
0.098993 0.051860 0.455322
0.115051 0.055139 0.455963
0.143688 0.060987 0.457105
0.186784 0.069788 0.458825
0.245901 0.081860 0.461184
0.322402 0.097482 0.464236
0.417504 0.116903 0.468031
0.532317 0.140348 0.472612
0.098180 0.062245 0.456671
0.104488 0.063533 0.456923
0.120547 0.066812 0.457563
0.149184 0.072660 0.458706
0.192279 0.081460 0.460426
0.251396 0.093533 0.462784
0.327897 0.109155 0.465837
0.423000 0.128575 0.469631
0.537813 0.152021 0.474212
0.112169 0.091956 0.460745
0.118478 0.093245 0.460997
0.134536 0.096524 0.461638
0.163173 0.102372 0.462780
0.206268 0.111172 0.464500
0.265386 0.123244 0.466859
0.341887 0.138867 0.469911
0.436989 0.158287 0.473706
0.551802 0.181733 0.478287
0.137117 0.144944 0.468012
0.143426 0.146232 0.468263
0.159484 0.149511 0.468904
0.188121 0.155359 0.470047
0.231216 0.164160 0.471766
0.290333 0.176232 0.474125
0.366835 0.191854 0.477177
0.461937 0.211275 0.480972
0.576750 0.234720 0.485553
0.174659 0.224681 0.478946
0.180968 0.225970 0.479198
0.197026 0.229249 0.479838
0.225664 0.235097 0.480981
0.268759 0.243897 0.482700
0.327876 0.255969 0.485059
0.404377 0.271591 0.488112
0.499480 0.291012 0.491906
0.614292 0.314458 0.496487
0.226159 0.334064 0.493945
0.232468 0.335352 0.494197
0.248526 0.338631 0.494838
0.277164 0.344479 0.495981
0.320259 0.353280 0.497700
0.379376 0.365352 0.500059
0.455877 0.380974 0.503111
0.550980 0.400395 0.506906
0.665792 0.423840 0.511487
0.292804 0.475611 0.513356
0.299112 0.476900 0.513608
0.315171 0.480179 0.514248
0.343808 0.486027 0.515391
0.386903 0.494827 0.517110
0.446020 0.506899 0.519469
0.522521 0.522521 0.522521
0.617624 0.541942 0.526316
0.732437 0.565388 0.530897
0.375653 0.651577 0.537486
0.381962 0.652865 0.537738
0.398020 0.656145 0.538378
0.426658 0.661993 0.539521
0.469753 0.670793 0.541241
0.528870 0.682865 0.543599
0.605371 0.698487 0.546652
0.700474 0.717908 0.550446
0.815286 0.741354 0.555027
0.475673 0.864011 0.566617
0.481981 0.865300 0.566869
0.498039 0.868579 0.567509
0.526677 0.874427 0.568652
0.569772 0.883227 0.570371
0.628889 0.895299 0.572730
0.705390 0.910921 0.575783
0.800493 0.930342 0.579577
0.915306 0.953788 0.584158
0.131055 0.071508 0.643469
0.137364 0.072797 0.643721
0.153422 0.076076 0.644361
0.182060 0.081924 0.645504
0.225155 0.090724 0.647223
0.284272 0.102796 0.649582
0.360773 0.118419 0.652635
0.455876 0.137839 0.656429
0.570688 0.161285 0.661010
0.136551 0.083181 0.645070
0.142860 0.084469 0.645321
0.158918 0.087749 0.645962
0.187555 0.093597 0.647105
0.230650 0.102397 0.648824
0.289767 0.114469 0.651183
0.366269 0.130091 0.654235
0.461371 0.149512 0.658030
0.576184 0.172958 0.662611
0.150540 0.112893 0.649144
0.156849 0.114181 0.649396
0.172907 0.117461 0.650036
0.201545 0.123309 0.651179
0.244640 0.132109 0.652898
0.303757 0.144181 0.655257
0.380258 0.159803 0.658310
0.475361 0.179224 0.662104
0.590173 0.202669 0.666685
0.175488 0.165881 0.656410
0.181797 0.167169 0.656662
0.197855 0.170448 0.657303
0.226492 0.176296 0.658445
0.269587 0.185096 0.660165
0.328704 0.197169 0.662523
0.405206 0.212791 0.665576
0.500308 0.232211 0.669370
0.615121 0.255657 0.673951
0.213030 0.245618 0.667344
0.219339 0.246906 0.667596
0.235397 0.250185 0.668237
0.264035 0.256033 0.669380
0.307130 0.264834 0.671099
0.366247 0.276906 0.673458
0.442748 0.292528 0.676510
0.537851 0.311949 0.680305
0.652663 0.335394 0.684886
0.264531 0.355000 0.682344
0.270839 0.356289 0.682596
0.286897 0.359568 0.683236
0.315535 0.365416 0.684379
0.358630 0.374216 0.686099
0.417747 0.386288 0.688457
0.494248 0.401911 0.691510
0.589351 0.421331 0.695304
0.704163 0.444777 0.699885
0.331175 0.496548 0.701754
0.337484 0.497836 0.702006
0.353542 0.501116 0.702647
0.382179 0.506964 0.703789
0.425274 0.515764 0.705509
0.484391 0.527836 0.707868
0.560893 0.543458 0.710920
0.655995 0.562879 0.714715
0.770808 0.586324 0.719296
0.414024 0.672514 0.725884
0.420333 0.673802 0.726136
0.436391 0.677081 0.726777
0.465029 0.682929 0.727920
0.508124 0.691730 0.729639
0.567241 0.703802 0.731998
0.643742 0.719424 0.735050
0.738845 0.738845 0.738845
0.853657 0.762290 0.743426
0.514044 0.884948 0.755015
0.520352 0.886236 0.755267
0.536411 0.889515 0.755908
0.565048 0.895363 0.757051
0.608143 0.904164 0.758770
0.667260 0.916236 0.761129
0.743761 0.931858 0.764181
0.838864 0.951279 0.767976
0.953677 0.974724 0.772557
0.177378 0.096784 0.870912
0.183687 0.098072 0.871164
0.199745 0.101352 0.871805
0.228383 0.107200 0.872947
0.271478 0.116000 0.874667
0.330595 0.128072 0.877026
0.407096 0.143694 0.880078
0.502199 0.163115 0.883872
0.617011 0.186561 0.888453
0.182874 0.108457 0.872513
0.189183 0.109745 0.872765
0.205241 0.113024 0.873405
0.233879 0.118872 0.874548
0.276974 0.127673 0.876267
0.336091 0.139745 0.878626
0.412592 0.155367 0.881679
0.507695 0.174788 0.885473
0.622507 0.198233 0.890054
0.196863 0.138169 0.876587
0.203172 0.139457 0.876839
0.219230 0.142736 0.877480
0.247868 0.148584 0.878622
0.290963 0.157385 0.880342
0.350080 0.169457 0.882701
0.426581 0.185079 0.885753
0.521684 0.204500 0.889548
0.636496 0.227945 0.894129
0.221811 0.191156 0.883853
0.228120 0.192444 0.884105
0.244178 0.195724 0.884746
0.272816 0.201572 0.885889
0.315911 0.210372 0.887608
0.375028 0.222444 0.889967
0.451529 0.238066 0.893019
0.546632 0.257487 0.896814
0.661444 0.280933 0.901395
0.259354 0.270894 0.894788
0.265662 0.272182 0.895039
0.281720 0.275461 0.895680
0.310358 0.281309 0.896823
0.353453 0.290109 0.898542
0.412570 0.302182 0.900901
0.489071 0.317804 0.903953
0.584174 0.337224 0.907748
0.698987 0.360670 0.912329
0.310854 0.380276 0.909787
0.317162 0.381564 0.910039
0.333221 0.384844 0.910680
0.361858 0.390692 0.911822
0.404953 0.399492 0.913542
0.464070 0.411564 0.915901
0.540571 0.427186 0.918953
0.635674 0.446607 0.922748
0.750487 0.470052 0.927329
0.377498 0.521824 0.929198
0.383807 0.523112 0.929449
0.399865 0.526391 0.930090
0.428503 0.532239 0.931233
0.471598 0.541040 0.932952
0.530715 0.553112 0.935311
0.607216 0.568734 0.938363
0.702319 0.588155 0.942158
0.817131 0.611600 0.946739
0.460348 0.697789 0.953328
0.466656 0.699078 0.953580
0.482714 0.702357 0.954220
0.511352 0.708205 0.955363
0.554447 0.717005 0.957082
0.613564 0.729078 0.959441
0.690065 0.744700 0.962493
0.785168 0.764120 0.966288
0.899980 0.787566 0.970869
0.560367 0.910224 0.982459
0.566676 0.911512 0.982711
0.582734 0.914791 0.983351
0.611372 0.920639 0.984494
0.654467 0.929439 0.986213
0.713584 0.941512 0.988572
0.790085 0.957134 0.991624
0.885188 0.976554 0.995419
1.000000 1.000000 1.000000
