samples/LUTs/3D/tone_shaping/ARRI-LogC4.cube
TITLE "Generated by Resolve"
LUT_3D_SIZE 9
0 0.0130922 0.0154421
0.121935 0.00605783 0.0171359
0.453956 0.0349126 0.000564584
0.799664 0.152422 0.0461433
1 0.306661 0.142779
1 0.426444 0.242359
1 0.486793 0.306233
1 0.508309 0.332021
1 0.514336 0.340002
0.0170443 0.0871443 0.0617533
0.0954452 0.0900893 0.0423743
0.402335 0.0995499 0.0213016
0.766934 0.177203 0.0510109
1 0.306737 0.142611
1 0.42649 0.242222
1 0.486839 0.306096
1 0.508339 0.331884
1 0.514366 0.339895
0.175586 0.282109 0.195727
0.210376 0.276219 0.164904
0.337194 0.28893 0.137621
0.692073 0.296162 0.112886
0.967514 0.363592 0.150591
1 0.448615 0.229328
1 0.486992 0.305562
1 0.508492 0.331365
1 0.514504 0.339467
0.376974 0.533333 0.393729
0.395254 0.521843 0.364294
0.432883 0.519554 0.316945
0.623606 0.538445 0.285374
0.907851 0.549599 0.273487
1 0.584482 0.297444
1 0.605249 0.317632
1 0.612818 0.327199
1 0.614969 0.330419
0.575494 0.754269 0.597162
0.583337 0.743313 0.572808
0.597299 0.732799 0.535851
0.687205 0.736522 0.490272
0.852384 0.759899 0.451774
1 0.767147 0.452628
1 0.774792 0.453727
1 0.777539 0.454627
1 0.778332 0.454978
0.718532 0.892592 0.740536
0.721096 0.884627 0.7234
0.726452 0.874327 0.696437
0.754192 0.880308 0.647334
0.874678 0.884016 0.610742
0.98262 0.900008 0.587121
1 0.900298 0.589364
1 0.900465 0.587747
1 0.900587 0.587289
0.788815 0.953536 0.808362
0.789776 0.947997 0.796414
0.792508 0.939406 0.774884
0.815 0.939437 0.736812
0.89984 0.941451 0.703578
0.980957 0.958785 0.658686
1 0.961578 0.658198
1 0.960235 0.659266
1 0.959945 0.659281
0.813306 0.97377 0.831922
0.814069 0.969207 0.821744
0.816037 0.961318 0.802274
0.836255 0.960067 0.767727
0.909728 0.962127 0.734325
0.986725 0.975891 0.693141
1 0.983185 0.679438
1 0.98117 0.682994
1 0.980697 0.683513
0.820432 0.979492 0.838621
0.82118 0.975143 0.828946
0.822858 0.96759 0.810254
0.842664 0.965957 0.776593
0.912779 0.968109 0.743221
0.988556 0.980804 0.702876
1 0.989456 0.685145
1 0.987259 0.689509
1 0.986648 0.69015
0.0157931 0.0740826 0.0796063
0.0971542 0.0621805 0.0926986
0.446403 0.0611582 0.104417
0.808179 0.129961 0.104204
1 0.289693 0.191394
1 0.414527 0.281529
1 0.477714 0.339406
1 0.499962 0.362234
1 0.506279 0.369467
0.0197147 0.115129 0.106767
0.106081 0.112245 0.0901808
0.407416 0.108446 0.08925
0.767956 0.177783 0.110002
1 0.289769 0.191196
1 0.414572 0.281361
1 0.47776 0.339284
1 0.500008 0.362112
1 0.506325 0.36936
0.154528 0.29189 0.223468
0.220203 0.27837 0.198413
0.335286 0.293507 0.175784
0.68748 0.301717 0.153903
0.963516 0.370184 0.188754
1 0.453315 0.264744
1 0.477897 0.338781
1 0.50013 0.361654
1 0.506447 0.368902
0.375814 0.532906 0.413458
0.39826 0.52018 0.385077
0.437034 0.51809 0.339605
0.619883 0.538415 0.312016
0.904768 0.54934 0.296773
1 0.584863 0.313893
1 0.606622 0.333532
1 0.614679 0.344198
1 0.616876 0.347341
0.574655 0.752636 0.607889
0.583871 0.741344 0.584176
0.600839 0.72961 0.549249
0.684428 0.735149 0.50457
0.848783 0.758099 0.469123
1 0.766049 0.463569
1 0.773983 0.461753
1 0.776944 0.461753
1 0.777707 0.461936
0.718273 0.891707 0.744305
0.721141 0.88365 0.727169
0.727184 0.872999 0.70106
0.75761 0.877348 0.655619
0.872297 0.881621 0.622553
0.980301 0.898405 0.59704
1 0.899199 0.595789
1 0.899535 0.593347
1 0.899687 0.592737
0.78883 0.953582 0.808438
0.789792 0.948028 0.79646
0.792523 0.939422 0.774914
0.815412 0.938949 0.738216
0.89865 0.940551 0.708522
0.978759 0.956527 0.66949
1 0.960342 0.664637
1 0.959228 0.664576
1 0.958999 0.664271
0.813306 0.9738 0.831983
0.814069 0.969238 0.821775
0.816037 0.961334 0.802304
0.836271 0.960082 0.767758
0.908949 0.961685 0.736889
0.984375 0.97348 0.703609
1 0.981857 0.686244
1 0.980209 0.688289
1 0.979751 0.688365
0.820447 0.979522 0.838666
0.821195 0.975174 0.828992
0.822873 0.967605 0.810269
0.842664 0.965972 0.776608
0.912108 0.967773 0.744991
0.986038 0.978424 0.713161
1 0.988174 0.691966
1 0.986236 0.695247
1 0.985626 0.69546
0.0915694 0.231189 0.245106
0.153399 0.225849 0.230671
0.380987 0.208988 0.299046
0.773236 0.235264 0.347982
1 0.313619 0.371786
1 0.39585 0.402411
1 0.452171 0.434318
1 0.476524 0.450904
1 0.483604 0.455787
0.0758373 0.237018 0.246738
0.14081 0.230823 0.229175
0.348562 0.21976 0.269856
0.74229 0.240314 0.31313
1 0.313558 0.371618
1 0.395789 0.402258
1 0.452186 0.434226
1 0.476555 0.450828
1 0.483619 0.455711
0.171511 0.34139 0.314336
0.224002 0.327276 0.291325
0.3552 0.324529 0.263005
0.689815 0.323217 0.269291
0.964965 0.378134 0.294972
1 0.430426 0.355322
1 0.452277 0.43389
1 0.476646 0.450507
1 0.483711 0.455421
0.337469 0.553796 0.467796
0.377417 0.535256 0.442695
0.458595 0.517464 0.402884
0.616236 0.543877 0.371725
0.900847 0.554498 0.353826
1 0.591638 0.371984
1 0.615152 0.392203
1 0.623896 0.402716
1 0.626322 0.405737
0.57116 0.751995 0.64004
0.583032 0.739773 0.61593
0.605615 0.725643 0.581308
0.678187 0.735271 0.530541
0.843473 0.756313 0.499519
1 0.764752 0.490547
1 0.773663 0.489067
1 0.776944 0.48957
1 0.778058 0.490043
0.714611 0.8878 0.763821
0.719188 0.879438 0.747417
0.727794 0.86775 0.722057
0.766018 0.868009 0.681086
0.868101 0.877729 0.643046
0.976257 0.895598 0.614359
1 0.897154 0.61117
1 0.897795 0.608042
1 0.898054 0.607217
0.785519 0.948714 0.824979
0.787884 0.942977 0.813428
0.792142 0.933654 0.793332
0.820279 0.930556 0.760327
0.892485 0.936873 0.724681
0.975128 0.952819 0.685847
1 0.957992 0.677195
1 0.957214 0.676051
1 0.957061 0.675486
0.810391 0.96936 0.846571
0.811872 0.964279 0.8365
0.815167 0.955749 0.818448
0.839994 0.95198 0.787732
0.902205 0.958129 0.752316
0.980652 0.969665 0.718807
1 0.979568 0.698085
1 0.97818 0.699367
1 0.977768 0.699153
0.817517 0.975189 0.852888
0.818891 0.970367 0.843366
0.821942 0.962173 0.825711
0.845716 0.958282 0.795636
0.905089 0.964233 0.760082
0.982498 0.97467 0.728206
1 0.985824 0.704051
1 0.984131 0.705776
1 0.983764 0.705821
0.201404 0.428962 0.466941
0.242435 0.420447 0.449439
0.384024 0.408179 0.474464
0.69723 0.405402 0.576715
0.995911 0.454902 0.649317
1 0.519921 0.674418
1 0.553597 0.684565
1 0.566552 0.68838
1 0.570336 0.68954
0.187518 0.425071 0.459281
0.229496 0.414771 0.440101
0.360464 0.406607 0.441276
0.658473 0.397528 0.536355
0.986831 0.451377 0.634104
1 0.51989 0.674357
1 0.553582 0.684535
1 0.566537 0.688334
1 0.570306 0.689509
0.202533 0.471565 0.493263
0.245518 0.457282 0.470832
0.355032 0.448829 0.440803
0.621118 0.433906 0.494835
0.929107 0.456123 0.538613
1 0.500679 0.588663
1 0.55201 0.678706
1 0.566461 0.688151
1 0.57023 0.689342
0.384878 0.609812 0.580194
0.413703 0.591882 0.555215
0.472679 0.572106 0.521965
0.635416 0.5785 0.4934
0.900206 0.582147 0.499397
1 0.611261 0.512474
1 0.624552 0.524987
1 0.627619 0.531289
1 0.628275 0.53341
0.524071 0.786297 0.715145
0.54519 0.77026 0.693126
0.583124 0.749386 0.662974
0.702739 0.739284 0.621134
0.842771 0.765667 0.587381
1 0.772671 0.573587
1 0.781338 0.570901
1 0.784894 0.571405
1 0.786038 0.571679
0.686931 0.901213 0.816892
0.703395 0.889082 0.800427
0.73022 0.871321 0.775509
0.781247 0.8654 0.737484
0.867735 0.879408 0.694911
0.972747 0.896895 0.66807
1 0.898711 0.662776
1 0.899397 0.659266
1 0.899458 0.658045
0.782834 0.95108 0.865003
0.787396 0.944305 0.852857
0.7935 0.933898 0.831952
0.828397 0.92726 0.800305
0.888075 0.938659 0.7579
0.973449 0.950988 0.72752
1 0.957595 0.717052
1 0.956939 0.715404
1 0.956832 0.714839
0.808881 0.970123 0.88191
0.811399 0.964752 0.871366
0.816251 0.955276 0.852384
0.846265 0.948608 0.822812
0.895872 0.95993 0.779843
0.978821 0.967544 0.754299
1 0.978576 0.733745
1 0.977371 0.73489
1 0.976959 0.734508
0.815991 0.975631 0.88661
0.818326 0.97052 0.876692
0.822843 0.96141 0.858518
0.851469 0.954803 0.829374
0.898238 0.966049 0.78616
0.980117 0.972427 0.762448
1 0.984833 0.738476
1 0.983215 0.740414
1 0.982773 0.740215
0.310979 0.616251 0.675044
0.336721 0.605646 0.658946
0.434287 0.597772 0.632013
0.633204 0.575357 0.712337
0.923018 0.599802 0.811963
1 0.632288 0.891432
1 0.670344 0.895094
1 0.681498 0.896773
1 0.684779 0.897292
0.306264 0.617197 0.673472
0.332128 0.605768 0.656565
0.422965 0.594995 0.628305
0.617655 0.575357 0.691218
0.896361 0.585992 0.780514
1 0.632288 0.891417
1 0.670344 0.895079
1 0.681498 0.896757
1 0.684764 0.897276
0.310536 0.638407 0.687373
0.336996 0.625071 0.668864
0.414282 0.609155 0.63801
0.601129 0.59942 0.657481
0.860212 0.590692 0.737026
1 0.612039 0.802655
1 0.651911 0.846662
1 0.677668 0.8869
1 0.684749 0.897231
0.377111 0.715969 0.743938
0.400793 0.700725 0.723888
0.455833 0.6795 0.692027
0.613397 0.677623 0.660624
0.841428 0.662837 0.709148
1 0.674571 0.73402
1 0.684916 0.743572
1 0.687572 0.747829
1 0.688426 0.749477
0.593118 0.831556 0.809903
0.606973 0.815381 0.788937
0.631617 0.794705 0.760143
0.719783 0.783429 0.730175
0.853941 0.793729 0.709056
1 0.79704 0.708614
1 0.803525 0.706966
1 0.80592 0.706783
1 0.806561 0.706737
0.67129 0.934676 0.888395
0.681712 0.922805 0.872618
0.698711 0.906416 0.850141
0.764294 0.891691 0.822293
0.884382 0.889357 0.789014
0.973526 0.907927 0.763424
1 0.908751 0.754711
1 0.908949 0.750576
1 0.908888 0.749249
0.741344 0.980545 0.925948
0.748821 0.97203 0.914427
0.761593 0.958526 0.895674
0.813367 0.94406 0.87071
0.908858 0.940505 0.83682
0.977813 0.955474 0.806851
1 0.963348 0.79382
1 0.962493 0.791226
1 0.962325 0.790097
0.769039 0.995727 0.93904
0.775326 0.98851 0.928985
0.786816 0.976272 0.912032
0.833356 0.96231 0.888151
0.918837 0.958709 0.854658
0.981918 0.971771 0.826276
1 0.983001 0.805158
1 0.981659 0.805539
1 0.981353 0.804959
0.777356 1 0.942763
0.783398 0.993194 0.933303
0.794217 0.981323 0.916701
0.839277 0.967498 0.893462
0.922057 0.963973 0.860014
0.983078 0.976638 0.831769
1 0.987076 0.810971
1 0.987243 0.809262
1 0.986877 0.808957
0.405554 0.757076 0.823423
0.417533 0.749523 0.813672
0.484092 0.730465 0.783093
0.639689 0.720485 0.787961
0.845518 0.702678 0.872663
1 0.732677 0.943832
1 0.744976 1
1 0.738476 1
1 0.744488 1
0.405219 0.75964 0.824552
0.417304 0.751797 0.814664
0.481529 0.731807 0.783429
0.635355 0.723323 0.781567
0.837278 0.702235 0.865263
1 0.7234 0.927169
1 0.741375 1
1 0.738476 1
1 0.744488 1
0.409995 0.772168 0.832624
0.422034 0.763668 0.821897
0.479591 0.741512 0.789837
0.629084 0.737697 0.76791
0.820737 0.710002 0.850813
0.999084 0.720546 0.896406
1 0.710597 0.950744
1 0.71722 0.965759
1 0.723125 0.969406
0.445258 0.816037 0.863615
0.457465 0.8065 0.852003
0.502541 0.781949 0.819486
0.632074 0.773663 0.790051
0.813062 0.760464 0.822354
0.976852 0.756588 0.865461
1 0.746746 0.90045
1 0.755734 0.900359
1 0.757916 0.900877
0.560082 0.895262 0.915785
0.570596 0.883772 0.902174
0.597238 0.86096 0.873625
0.686275 0.846998 0.845594
0.831434 0.849775 0.819272
0.970703 0.839307 0.850614
1 0.839155 0.860395
1 0.841093 0.858946
1 0.841337 0.858396
0.740063 0.963378 0.94818
0.746883 0.950423 0.93196
0.758648 0.93344 0.910002
0.806882 0.919402 0.885206
0.8972 0.916686 0.863035
0.979431 0.926055 0.85153
1 0.925536 0.847639
1 0.925521 0.844846
1 0.925383 0.843885
0.767208 1 0.978988
0.772488 0.995865 0.966751
0.781323 0.982086 0.948623
0.820645 0.96875 0.926787
0.903273 0.962402 0.904662
0.98822 0.965515 0.884794
1 0.974441 0.871824
1 0.973159 0.867735
1 0.972854 0.866438
0.781537 1 0.989654
0.786252 1 0.97879
0.794675 0.998901 0.962646
0.830915 0.985763 0.941451
0.910552 0.97818 0.918715
0.992706 0.980224 0.897978
1 0.989593 0.882231
1 0.990738 0.878386
1 0.990265 0.877455
0.78613 1 0.99205
0.79057 1 0.981903
0.798795 1 0.966033
0.834394 0.990158 0.94522
0.913191 0.982773 0.923201
0.994247 0.984588 0.902159
1 0.993378 0.886488
1 0.995834 0.880827
1 0.995331 0.8804
0.46157 0.829923 0.896574
0.464652 0.827817 0.894041
0.518791 0.802533 0.860334
0.656367 0.796307 0.837537
0.826932 0.772534 0.903868
0.990005 0.781323 0.952316
1 0.793484 0.996139
1 0.802518 1
1 0.807111 1
0.462394 0.832181 0.898054
0.465202 0.829923 0.895109
0.517952 0.804059 0.861051
0.654688 0.799084 0.834684
0.824002 0.774975 0.898802
0.98497 0.780941 0.94667
1 0.788495 0.986526
1 0.792187 1
1 0.794339 1
0.46717 0.841382 0.903807
0.470085 0.838819 0.900618
0.519326 0.812055 0.866148
0.649561 0.804562 0.838178
0.81709 0.785519 0.885695
0.97229 0.784741 0.932586
1 0.786679 0.965347
1 0.784146 0.981506
1 0.782925 0.986786
0.493263 0.872496 0.925185
0.496757 0.868925 0.920974
0.538064 0.841077 0.886824
0.651545 0.829038 0.857816
0.813855 0.821714 0.865919
0.957107 0.811048 0.914183
1 0.810681 0.937987
1 0.806683 0.950393
1 0.804822 0.954192
0.575967 0.932967 0.965225
0.580468 0.927138 0.958541
0.608423 0.901457 0.928191
0.690944 0.885679 0.90071
0.828779 0.885145 0.875639
0.953399 0.873381 0.907546
1 0.872511 0.920012
1 0.868193 0.928923
1 0.866545 0.932082
0.71017 0.990845 0.996918
0.715419 0.981628 0.986191
0.729259 0.962295 0.96289
0.778286 0.947082 0.939315
0.874479 0.941909 0.917525
0.967117 0.947631 0.901213
1 0.942031 0.915328
1 0.938628 0.918883
1 0.938994 0.917372
0.811826 1 1
0.815946 1 0.993896
0.823545 0.994064 0.975296
0.856016 0.980819 0.954437
0.926772 0.97464 0.933883
0.994461 0.978256 0.921508
1 0.983246 0.916197
1 0.981994 0.91339
1 0.981704 0.912352
0.820096 1 1
0.824537 1 1
0.830777 1 0.987274
0.859525 0.996902 0.967651
0.926635 0.990311 0.94818
0.992874 0.99234 0.935119
1 0.995621 0.926406
1 0.998062 0.921233
1 0.997574 0.920089
0.820951 1 1
0.82562 1 1
0.831922 1 0.990295
0.860304 1 0.971008
0.92665 0.993973 0.951293
0.993225 0.996078 0.938613
1 0.999161 0.929366
1 1 0.923308
1 1 0.922469
0.483375 0.856046 0.922255
0.48336 0.856001 0.92224
0.532921 0.828885 0.8878
0.663096 0.821775 0.860288
0.825437 0.800992 0.912428
0.977966 0.801144 0.962066
1 0.810727 0.994736
1 0.814389 1
1 0.816114 1
0.484199 0.858152 0.923445
0.484184 0.858106 0.92343
0.532906 0.830655 0.888655
0.661326 0.822843 0.861021
0.823301 0.80325 0.908766
0.974151 0.80148 0.958175
1 0.809171 0.988495
1 0.810788 1
1 0.811307 1
0.488853 0.866209 0.92842
0.488823 0.866163 0.928389
0.534905 0.837674 0.893248
0.657542 0.828214 0.86511
0.818326 0.812741 0.898802
0.964446 0.805982 0.948013
1 0.810773 0.973602
1 0.809522 0.986755
1 0.808667 0.990936
0.512123 0.893294 0.946807
0.512489 0.892897 0.94638
0.552148 0.863066 0.91075
0.660044 0.850004 0.882414
0.816083 0.844129 0.882872
0.951385 0.829435 0.933883
1 0.832242 0.951553
1 0.829984 0.961517
1 0.828931 0.964782
0.585611 0.947478 0.982559
0.587594 0.944686 0.979614
0.61561 0.917159 0.947601
0.69514 0.900923 0.920607
0.829221 0.898894 0.895674
0.949279 0.888182 0.923415
1 0.887434 0.9364
1 0.885069 0.942962
1 0.884001 0.945418
0.705867 1 1
0.709499 0.994278 1
0.724834 0.973526 0.980682
0.773159 0.95787 0.957351
0.870298 0.95169 0.935363
0.963745 0.956359 0.9187
1 0.950851 0.9337
1 0.948653 0.936889
1 0.947341 0.938338
0.798123 1 1
0.802152 1 1
0.810422 1 0.9935
0.843244 0.989822 0.973129
0.915816 0.983017 0.952987
0.986099 0.98555 0.940185
1 0.98999 0.93283
1 0.986923 0.936614
1 0.985412 0.937957
0.83476 1 1
0.839399 1 1
0.84651 1 0.996765
0.874006 1 0.977325
0.938354 0.994385 0.957794
1 0.996353 0.945129
1 0.999802 0.939223
1 1 0.937011
1 1 0.936034
0.840513 1 1
0.844572 1 1
0.851133 1 0.998184
0.877012 1 0.979385
0.938674 0.997452 0.960327
1 0.999817 0.948592
1 1 0.942992
1 1 0.940017
1 1 0.938323
0.490013 0.863783 0.929564
0.489998 0.863752 0.929534
0.537392 0.836606 0.895613
0.665202 0.828916 0.868299
0.82533 0.809354 0.915419
0.974685 0.806851 0.965225
1 0.816083 0.994919
1 0.81886 1
1 0.819913 1
0.490822 0.865583 0.930694
0.490806 0.865553 0.930678
0.537484 0.838346 0.896559
0.663462 0.829892 0.869078
0.823468 0.811582 0.912016
0.971069 0.807401 0.961807
1 0.815229 0.98967
1 0.81619 1
1 0.816663 1
0.495293 0.873472 0.935683
0.495277 0.873442 0.935653
0.539528 0.845136 0.901015
0.660075 0.835065 0.872953
0.818799 0.820493 0.902846
0.962249 0.811978 0.952636
1 0.817212 0.975998
1 0.816129 0.988174
1 0.815549 0.992447
0.517708 0.899351 0.953094
0.517678 0.899321 0.953079
0.556664 0.869535 0.917906
0.662669 0.856031 0.889418
0.816709 0.850629 0.887755
0.949966 0.83476 0.939757
1 0.83827 0.955718
1 0.836347 0.964889
1 0.835401 0.968048
0.588556 0.95169 0.98761
0.589914 0.949966 0.985641
0.618265 0.921889 0.953353
0.696574 0.905379 0.926314
0.829587 0.903212 0.901625
0.948577 0.893187 0.927169
1 0.8916 0.941222
1 0.889616 0.947234
1 0.888624 0.949508
0.704936 1 1
0.708125 0.998108 1
0.723781 0.976806 0.985611
0.772168 0.961181 0.962646
0.869139 0.954559 0.940246
0.962829 0.959075 0.923812
1 0.953338 0.939559
1 0.951522 0.941497
1 0.950515 0.942763
0.79472 1 1
0.798672 1 1
0.807263 1 0.998627
0.83975 0.992432 0.978225
0.913222 0.985565 0.958404
0.984283 0.987762 0.945434
1 0.99205 0.937636
1 0.989059 0.941756
1 0.988113 0.942443
0.830274 1 1
0.834745 1 1
0.842481 1 1
0.870039 1 0.982773
0.934813 0.996689 0.963134
0.998276 0.998474 0.95082
1 1 0.944854
1 1 0.941833
1 1 0.942931
0.837064 1 1
0.84181 1 1
0.849256 1 1
0.876158 1 0.983383
0.939605 0.999008 0.964004
1 1 0.951705
1 1 0.945846
1 1 0.943664
1 1 0.94316
