samples/LUTs/3D/tone_shaping/ARRI-LogC4.cube
TITLE "Generated by Resolve"
LUT_3D_SIZE 33
0 0.0130922 0.0154421
0.0040589 0.0131991 0.012726
0.0187533 0.0113222 0.0154421
0.0561532 0.00854505 0.0206149
0.121935 0.00605783 0.0171359
0.198779 0.0018616 0.0074464
0.279881 0.00381476 0.000549325
0.364416 0.0155489 0
0.453956 0.0349126 0.000564584
0.544945 0.0590524 0.00569162
0.634684 0.0868696 0.0149996
0.720256 0.118029 0.0288548
0.799664 0.152422 0.0461433
0.87245 0.189563 0.0671702
0.937438 0.228473 0.0906844
0.994079 0.267979 0.116258
1 0.306661 0.142779
1 0.341772 0.169268
1 0.373861 0.195315
1 0.402228 0.219806
1 0.426444 0.242359
1 0.446921 0.262654
1 0.463432 0.280079
1 0.476463 0.294591
1 0.486793 0.306233
1 0.494606 0.315435
1 0.500633 0.322759
1 0.504936 0.32813
1 0.508309 0.332021
1 0.51043 0.334859
1 0.512123 0.337301
1 0.513405 0.338933
1 0.514336 0.340002
0 0.0202335 0.021149
0.00433356 0.0192874 0.0178073
0.0210117 0.0190433 0.0155947
0.0564431 0.0163424 0.0207218
0.120104 0.0130922 0.0156252
0.192828 0.01149 0.00862135
0.271 0.0165713 0.00477607
0.357519 0.0261234 0.00257877
0.449714 0.0416419 0.0028687
0.543816 0.0607614 0.00628672
0.634699 0.0868849 0.0149691
0.720256 0.118059 0.028809
0.799664 0.152438 0.0461128
0.87245 0.189578 0.067155
0.937438 0.228489 0.0906539
0.994079 0.267979 0.116243
1 0.306661 0.142763
1 0.341787 0.169238
1 0.373877 0.195285
1 0.402228 0.219776
1 0.426444 0.242344
1 0.446921 0.262638
1 0.463432 0.280049
1 0.476463 0.294575
1 0.486809 0.306218
1 0.494621 0.315419
1 0.500633 0.322744
1 0.504952 0.328115
1 0.508309 0.332006
1 0.51043 0.334844
1 0.512123 0.33727
1 0.513405 0.338918
1 0.514336 0.339986
0 0.0324254 0.0282444
0.00973526 0.0311284 0.0244755
0.0273136 0.0308232 0.0210422
0.0567025 0.0310063 0.0236973
0.110918 0.0306096 0.0191958
0.177249 0.0332036 0.0154421
0.255085 0.0393988 0.0124514
0.341619 0.0499428 0.0104372
0.433936 0.0641642 0.0109865
0.529152 0.0811017 0.0140078
0.623743 0.101167 0.0205081
0.715068 0.124529 0.0311894
0.799664 0.152453 0.0460517
0.87245 0.189609 0.0671092
0.937453 0.228504 0.0906233
0.994064 0.267994 0.116213
1 0.306691 0.142718
1 0.341802 0.169192
1 0.373892 0.195254
1 0.402243 0.219745
1 0.426459 0.242313
1 0.446937 0.262592
1 0.463447 0.280018
1 0.476478 0.29453
1 0.486809 0.306188
1 0.494621 0.315389
1 0.500633 0.322713
1 0.504952 0.328084
1 0.508309 0.331975
1 0.510445 0.334813
1 0.512139 0.337255
1 0.513405 0.338872
1 0.514351 0.339971
0.000457771 0.0539864 0.0414588
0.0140993 0.0519875 0.0372778
0.0343023 0.050309 0.0328222
0.0560922 0.0539101 0.0302129
0.102922 0.0539559 0.0282597
0.168643 0.0546578 0.0219577
0.244282 0.0588388 0.0176242
0.328908 0.0670329 0.0150301
0.420264 0.0788891 0.0146944
0.514275 0.0945449 0.0169833
0.608209 0.114397 0.023621
0.699504 0.138582 0.0351263
0.785748 0.167056 0.0507515
0.866438 0.196429 0.0692454
0.937453 0.228534 0.0905623
0.994064 0.268009 0.116167
1 0.306706 0.142672
1 0.341833 0.169146
1 0.373907 0.195193
1 0.402258 0.219715
1 0.426474 0.242283
1 0.446952 0.262547
1 0.463447 0.279973
1 0.476478 0.294499
1 0.486824 0.306157
1 0.494636 0.315343
1 0.500648 0.322667
1 0.504967 0.328038
1 0.508324 0.331945
1 0.510445 0.334783
1 0.512154 0.337209
1 0.51342 0.338842
1 0.514351 0.33994
0.0170443 0.0871443 0.0617533
0.0311437 0.0850538 0.0581674
0.0522621 0.0827192 0.0522774
0.0698253 0.0863508 0.0429084
0.0954452 0.0900893 0.0423743
0.155489 0.0884718 0.0380255
0.230579 0.0880903 0.0298314
0.313237 0.0915084 0.0242161
0.402335 0.0995499 0.0213016
0.495399 0.112169 0.0223087
0.588678 0.129519 0.0274052
0.679927 0.151278 0.0370031
0.766934 0.177203 0.0510109
0.848402 0.206973 0.0696574
0.922713 0.240482 0.0924239
0.991028 0.27097 0.116701
1 0.306737 0.142611
1 0.341863 0.16907
1 0.373938 0.195117
1 0.402289 0.219654
1 0.42649 0.242222
1 0.446967 0.262486
1 0.463478 0.279911
1 0.476509 0.294438
1 0.486839 0.306096
1 0.494652 0.315297
1 0.500664 0.322621
1 0.504982 0.327993
1 0.508339 0.331884
1 0.51046 0.334737
1 0.512154 0.337148
1 0.513436 0.338796
1 0.514366 0.339895
0.0451972 0.126696 0.0880446
0.0634165 0.123964 0.0844587
0.0786297 0.123033 0.0774548
0.0950637 0.1243 0.0687114
0.115816 0.125643 0.0623636
0.145205 0.132204 0.0593423
0.215534 0.12929 0.0546731
0.297642 0.128328 0.0445258
0.385794 0.131472 0.037583
0.477104 0.13901 0.0349126
0.569146 0.151492 0.0367285
0.659327 0.168688 0.042649
0.745739 0.191089 0.0536049
0.826505 0.217823 0.0696422
0.901076 0.248981 0.0903639
0.969329 0.282673 0.115633
1 0.318074 0.144976
1 0.341894 0.168963
1 0.373968 0.195026
1 0.402319 0.219577
1 0.42652 0.242145
1 0.446998 0.262379
1 0.463493 0.27982
1 0.476524 0.294362
1 0.48687 0.30602
1 0.494667 0.315221
1 0.500694 0.32253
1 0.504997 0.327916
1 0.50837 0.331823
1 0.510475 0.334661
1 0.512184 0.337087
1 0.513451 0.33872
1 0.514382 0.339849
0.0893568 0.172045 0.119295
0.098909 0.170901 0.114687
0.111391 0.169665 0.108156
0.125338 0.169528 0.0992752
0.136217 0.172229 0.0879988
0.164828 0.172122 0.087541
0.20351 0.179385 0.0817884
0.281178 0.176211 0.0760052
0.36907 0.175158 0.0657359
0.459998 0.17792 0.0583047
0.551385 0.18529 0.0554055
0.640558 0.197757 0.0573281
0.726238 0.214832 0.0641337
0.806317 0.236469 0.0758068
0.879622 0.26183 0.0917983
0.946365 0.291188 0.112963
1 0.323888 0.139025
1 0.357321 0.168032
1 0.38085 0.194461
1 0.402365 0.219471
1 0.426566 0.242054
1 0.447044 0.262257
1 0.463539 0.279713
1 0.47657 0.29424
1 0.4869 0.305913
1 0.494697 0.315114
1 0.50071 0.322423
1 0.505028 0.327794
1 0.5084 0.331701
1 0.510506 0.334569
1 0.512215 0.33698
1 0.513497 0.338613
1 0.514412 0.339773
0.130938 0.224674 0.155032
0.138674 0.223331 0.150134
0.14876 0.221729 0.143694
0.160998 0.220722 0.134997
0.170993 0.22179 0.124056
0.190417 0.221592 0.115511
0.220829 0.224643 0.115434
0.267796 0.231861 0.107698
0.351476 0.228763 0.102068
0.442573 0.227726 0.0916762
0.534096 0.230732 0.0841535
0.62356 0.23827 0.0817121
0.70869 0.250416 0.083772
0.788342 0.266941 0.0910964
0.861326 0.287358 0.10309
0.926909 0.311025 0.119112
0.985458 0.337057 0.13962
1 0.364828 0.163607
1 0.392493 0.187961
1 0.421118 0.215869
1 0.432105 0.240528
1 0.447089 0.262089
1 0.463584 0.279545
1 0.476616 0.294072
1 0.486931 0.305776
1 0.494743 0.314961
1 0.500755 0.322271
1 0.505074 0.327657
1 0.508431 0.331563
1 0.510552 0.334432
1 0.512245 0.336843
1 0.513527 0.338476
1 0.514458 0.339651
0.175586 0.282109 0.195727
0.181811 0.280552 0.190646
0.190295 0.278553 0.184192
0.200793 0.276783 0.175479
0.210376 0.276219 0.164904
0.216495 0.278508 0.152575
0.25008 0.27631 0.146349
0.282338 0.282017 0.145907
0.337194 0.28893 0.137621
0.424277 0.285954 0.131945
0.516304 0.285389 0.122072
0.606271 0.288579 0.114946
0.692073 0.296162 0.112886
0.771557 0.307851 0.115373
0.84448 0.323857 0.122881
0.910018 0.34255 0.134813
0.967514 0.363592 0.150591
1 0.385946 0.169497
1 0.407782 0.189273
1 0.428107 0.208347
1 0.448615 0.229328
1 0.470115 0.253483
1 0.476188 0.273564
1 0.477256 0.293538
1 0.486992 0.305562
1 0.494804 0.314763
1 0.500801 0.322057
1 0.505135 0.327459
1 0.508492 0.331365
1 0.510597 0.334249
1 0.512306 0.336645
1 0.513588 0.338277
1 0.514504 0.339467
0.223468 0.343221 0.240986
0.228733 0.341375 0.236011
0.235569 0.339162 0.229282
0.244556 0.336812 0.220584
0.253285 0.335149 0.210346
0.259922 0.334951 0.198901
0.274815 0.336034 0.187411
0.312352 0.335454 0.182269
0.348592 0.343008 0.178729
0.409171 0.349447 0.170703
0.497871 0.346807 0.165652
0.588418 0.346761 0.156405
0.674968 0.350378 0.149828
0.755474 0.35787 0.148333
0.828794 0.369268 0.151537
0.894209 0.383566 0.15877
0.95198 0.400549 0.170703
1 0.418631 0.185489
1 0.436896 0.201724
1 0.453162 0.216693
1 0.46772 0.231067
1 0.48069 0.245335
1 0.492912 0.260182
1 0.504112 0.274968
1 0.514931 0.289647
1 0.51809 0.300282
1 0.519173 0.309041
1 0.519356 0.316777
1 0.518807 0.323323
1 0.518273 0.327947
1 0.517983 0.331685
1 0.517708 0.334569
1 0.517494 0.336706
0.273289 0.406363 0.289586
0.277729 0.404288 0.284566
0.28336 0.401846 0.277867
0.291234 0.398978 0.269139
0.298909 0.396536 0.259098
0.305074 0.394995 0.248402
0.311528 0.396658 0.235035
0.339376 0.395529 0.22594
0.377768 0.397162 0.220966
0.417502 0.406516 0.21384
0.481834 0.411948 0.206424
0.570062 0.41001 0.202411
0.657221 0.41059 0.19411
0.738766 0.414466 0.188403
0.813046 0.421729 0.187442
0.879042 0.432303 0.190692
0.937087 0.445304 0.198138
0.987167 0.459892 0.209415
1 0.475074 0.222385
1 0.488563 0.234699
1 0.50042 0.245823
1 0.510399 0.256245
1 0.51899 0.265644
1 0.526024 0.274754
1 0.531853 0.283024
1 0.536461 0.289998
1 0.540352 0.296132
1 0.543267 0.30074
1 0.54551 0.304524
1 0.547295 0.307393
1 0.548653 0.309514
1 0.549477 0.31104
1 0.550072 0.312184
0.324681 0.470207 0.340856
0.328435 0.467948 0.33579
0.333257 0.465248 0.329427
0.339681 0.462135 0.320577
0.346288 0.459159 0.310704
0.352071 0.456779 0.300343
0.358053 0.456046 0.288518
0.366049 0.460197 0.272709
0.406363 0.456886 0.267109
0.444999 0.460472 0.261357
0.487465 0.471 0.250919
0.554055 0.475486 0.244923
0.639292 0.474128 0.24152
0.721355 0.475227 0.234546
0.796613 0.47924 0.229892
0.863813 0.486183 0.229175
0.922438 0.495552 0.23267
0.9729 0.506691 0.240055
1 0.519081 0.249805
1 0.530419 0.259556
1 0.5402 0.268559
1 0.548653 0.276844
1 0.555657 0.284047
1 0.56112 0.290135
1 0.565423 0.295552
1 0.569009 0.30013
1 0.571435 0.303792
1 0.573495 0.306935
1 0.574823 0.309178
1 0.575799 0.311025
1 0.576608 0.31252
1 0.577203 0.31342
1 0.577646 0.314031
0.376974 0.533333 0.393729
0.380026 0.530968 0.388724
0.383993 0.528161 0.382422
0.389334 0.524849 0.373495
0.395254 0.521843 0.364294
0.400565 0.518853 0.354192
0.40528 0.516854 0.343236
0.412818 0.518212 0.329809
0.432883 0.519554 0.316945
0.474022 0.518242 0.309529
0.51281 0.523461 0.302907
0.556863 0.534829 0.289738
0.623606 0.538445 0.285374
0.704189 0.537591 0.282948
0.780056 0.53901 0.277195
0.848112 0.543099 0.273564
0.907851 0.549599 0.273487
0.959167 0.557778 0.277272
1 0.56701 0.28333
1 0.576471 0.29099
1 0.584482 0.297444
1 0.59147 0.303807
1 0.597147 0.30959
1 0.601755 0.313954
1 0.605249 0.317632
1 0.608133 0.320974
1 0.610147 0.323644
1 0.611582 0.32578
1 0.612818 0.327199
1 0.613703 0.32845
1 0.614343 0.329397
1 0.614786 0.330068
1 0.614969 0.330419
0.429099 0.5944 0.446815
0.431556 0.591943 0.44213
0.43508 0.589136 0.435828
0.43946 0.586023 0.427588
0.444327 0.582437 0.418387
0.448646 0.579187 0.408774
0.452613 0.576394 0.398306
0.459083 0.575875 0.386099
0.467384 0.579553 0.370581
0.499657 0.57792 0.361822
0.540963 0.578607 0.352346
0.579446 0.585077 0.345052
0.623941 0.596841 0.329259
0.68925 0.599435 0.327047
0.763592 0.599039 0.325628
0.832181 0.600763 0.321355
0.892729 0.604669 0.318517
0.944854 0.610391 0.319005
0.988327 0.617105 0.322179
1 0.624567 0.32723
1 0.631174 0.331731
1 0.63679 0.336217
1 0.641337 0.340398
1 0.645045 0.343801
1 0.647898 0.346548
1 0.650309 0.348928
1 0.651835 0.350423
1 0.653178 0.351675
1 0.654185 0.352758
1 0.654917 0.353613
1 0.655436 0.354253
1 0.655802 0.354711
1 0.65594 0.354925
0.480415 0.652384 0.49955
0.482353 0.649973 0.495003
0.484977 0.647227 0.488579
0.488472 0.643763 0.480735
0.4925 0.640192 0.472068
0.496345 0.637095 0.462867
0.499565 0.633906 0.453269
0.505013 0.63212 0.442161
0.512886 0.633478 0.428321
0.525032 0.637369 0.412192
0.565316 0.634394 0.406363
0.605798 0.636454 0.394842
0.643687 0.644007 0.386618
0.686976 0.655787 0.368978
0.749584 0.657267 0.369238
0.817075 0.657221 0.368856
0.877775 0.658946 0.365576
0.930755 0.662638 0.364294
0.975128 0.667475 0.364904
1 0.672862 0.366995
1 0.678157 0.369924
1 0.682521 0.372625
1 0.68603 0.375341
1 0.68893 0.377539
1 0.691447 0.379614
1 0.693111 0.381033
1 0.694606 0.382361
1 0.695689 0.383368
1 0.6963 0.383917
1 0.696834 0.384405
1 0.697261 0.384817
1 0.697551 0.385061
1 0.697749 0.385275
0.529366 0.705684 0.549706
0.530602 0.703532 0.545296
0.533196 0.701045 0.539757
0.536217 0.697612 0.532158
0.539071 0.694163 0.523812
0.542107 0.690715 0.51516
0.545342 0.687663 0.50631
0.54902 0.685267 0.496056
0.556268 0.684993 0.483742
0.56466 0.687907 0.468116
0.58909 0.688792 0.456916
0.628016 0.687312 0.449592
0.667033 0.690944 0.436698
0.704112 0.699245 0.427161
0.745296 0.710613 0.407797
0.804257 0.711299 0.411154
0.863706 0.711101 0.411399
0.916762 0.713069 0.409766
0.961822 0.716243 0.409064
0.998749 0.71986 0.409461
1 0.724041 0.410819
1 0.72726 0.412085
1 0.729946 0.413397
1 0.732326 0.414725
1 0.734005 0.415671
1 0.735515 0.416678
1 0.736416 0.417243
1 0.737285 0.417884
1 0.737926 0.418372
1 0.738399 0.418723
1 0.738735 0.418982
1 0.738979 0.419165
1 0.739132 0.419303
0.575494 0.754269 0.597162
0.576699 0.752239 0.592844
0.578439 0.74963 0.587335
0.58088 0.74667 0.580575
0.583337 0.743313 0.572808
0.585672 0.739971 0.564523
0.588266 0.736751 0.55613
0.591226 0.73402 0.547021
0.597299 0.732799 0.535851
0.605432 0.734218 0.522377
0.613519 0.739223 0.504952
0.649927 0.736263 0.499245
0.687205 0.736522 0.490272
0.724086 0.741268 0.477317
0.759716 0.749569 0.465309
0.798489 0.760739 0.445777
0.852384 0.759899 0.451774
0.904479 0.760128 0.453208
0.949447 0.761822 0.452766
0.986938 0.764279 0.452277
1 0.767147 0.452628
1 0.769741 0.452857
1 0.771817 0.453101
1 0.773373 0.453285
1 0.774792 0.453727
1 0.775662 0.45388
1 0.776516 0.454231
1 0.777173 0.45452
1 0.777539 0.454627
1 0.777768 0.454673
1 0.778027 0.45481
1 0.778225 0.454917
1 0.778332 0.454978
0.61799 0.797238 0.640436
0.619257 0.795575 0.636683
0.620615 0.793133 0.631189
0.622171 0.790204 0.624887
0.624109 0.787045 0.617929
0.62591 0.783856 0.610224
0.628168 0.78088 0.602228
0.630243 0.777844 0.593729
0.635065 0.776089 0.583459
0.642451 0.776287 0.571496
0.651026 0.779385 0.55697
0.670237 0.781186 0.544045
0.7066 0.779171 0.538094
0.741848 0.780926 0.527428
0.776074 0.786358 0.514244
0.810101 0.794965 0.500938
0.844907 0.804776 0.482872
0.894087 0.803433 0.490364
0.938415 0.803647 0.492561
0.975814 0.804944 0.492805
1 0.806912 0.492744
1 0.80882 0.492668
1 0.810162 0.492119
1 0.811429 0.491875
1 0.812222 0.491508
1 0.813001 0.491432
1 0.813458 0.491264
1 0.81384 0.491173
1 0.814176 0.491188
1 0.81442 0.491203
1 0.814618 0.491218
1 0.814755 0.491218
1 0.814832 0.491249
0.656168 0.834699 0.678935
0.656992 0.832914 0.675212
0.658183 0.830549 0.670222
0.65977 0.828122 0.664744
0.660899 0.825345 0.658351
0.662486 0.822309 0.651179
0.663935 0.819226 0.643641
0.665827 0.816449 0.635935
0.669642 0.814343 0.62678
0.67628 0.813733 0.615808
0.684215 0.81532 0.602518
0.6925 0.820035 0.586236
0.7243 0.817823 0.579919
0.758358 0.817166 0.572396
0.791547 0.820279 0.560174
0.823301 0.826398 0.547036
0.854643 0.834684 0.532799
0.886778 0.842863 0.519005
0.929473 0.841138 0.526329
0.966125 0.841367 0.528923
0.996612 0.842344 0.529488
1 0.843946 0.529671
1 0.844724 0.528847
1 0.845365 0.528069
1 0.846036 0.527611
1 0.846494 0.527184
1 0.846738 0.526894
1 0.847028 0.526802
1 0.847242 0.526665
1 0.84741 0.526558
1 0.847532 0.526482
1 0.847623 0.526421
1 0.847654 0.52639
0.689754 0.8663 0.7122
0.690242 0.864668 0.708675
0.691112 0.862531 0.704402
0.692409 0.86038 0.699336
0.693385 0.857786 0.693446
0.694606 0.854948 0.687144
0.695857 0.852003 0.680125
0.697215 0.849348 0.67277
0.700221 0.847074 0.664332
0.70602 0.845975 0.654322
0.713512 0.846754 0.642496
0.721508 0.849805 0.628016
0.740398 0.85153 0.616342
0.773312 0.849256 0.610559
0.804868 0.850294 0.601404
0.835706 0.854566 0.587884
0.864805 0.861234 0.575341
0.893202 0.869062 0.560632
0.923003 0.874449 0.552087
0.95874 0.87332 0.558801
0.988678 0.873365 0.561349
1 0.874205 0.562463
1 0.874693 0.562097
1 0.874998 0.561303
1 0.87541 0.560723
1 0.875532 0.560006
1 0.875776 0.559625
1 0.875975 0.559319
1 0.876097 0.559091
1 0.876204 0.558907
1 0.87628 0.558785
1 0.876326 0.558694
1 0.876341 0.558648
0.718532 0.892592 0.740536
0.718944 0.891051 0.73727
0.7196 0.889158 0.733471
0.720226 0.887068 0.728573
0.721096 0.884627 0.7234
0.722286 0.882231 0.717754
0.723095 0.87953 0.71107
0.724056 0.876661 0.704204
0.726452 0.874327 0.696437
0.731517 0.872984 0.687266
0.738338 0.873091 0.676417
0.74638 0.875319 0.663355
0.754192 0.880308 0.647334
0.786282 0.877012 0.642817
0.817014 0.876432 0.635767
0.846403 0.878874 0.62504
0.874678 0.884016 0.610742
0.900954 0.890608 0.598779
0.926101 0.897826 0.58436
0.953323 0.900755 0.581292
0.98262 0.900008 0.587121
1 0.90013 0.589548
1 0.900282 0.590173
1 0.900374 0.58999
1 0.900298 0.589364
1 0.90042 0.588922
1 0.90042 0.588418
1 0.900389 0.588022
1 0.900465 0.587747
1 0.900511 0.587579
1 0.900557 0.587442
1 0.900572 0.587335
1 0.900587 0.587289
0.742321 0.913725 0.763516
0.742733 0.912306 0.76083
0.743221 0.910643 0.757214
0.743648 0.908721 0.753048
0.744213 0.906538 0.748089
0.745113 0.904326 0.743008
0.745861 0.901762 0.736767
0.746563 0.899092 0.730266
0.74873 0.896712 0.723033
0.753231 0.895399 0.714748
0.759503 0.895003 0.70454
0.766995 0.896391 0.692424
0.774823 0.900282 0.678035
0.797406 0.899886 0.669245
0.827375 0.898528 0.663844
0.855848 0.899657 0.655222
0.882872 0.903319 0.642741
0.908186 0.908736 0.629114
0.931838 0.914885 0.617182
0.953597 0.921386 0.603754
0.978134 0.922194 0.60647
1 0.921477 0.610986
1 0.921584 0.613031
1 0.921263 0.61326
1 0.921172 0.61323
1 0.921004 0.612894
1 0.920867 0.612619
1 0.920836 0.612436
1 0.920821 0.612238
1 0.920806 0.61207
1 0.920806 0.611933
1 0.920806 0.611826
1 0.92079 0.611795
0.761547 0.930312 0.782147
0.761807 0.929091 0.779553
0.762203 0.927703 0.77644
0.762753 0.926101 0.772702
0.763195 0.924086 0.768399
0.763714 0.921889 0.763088
0.764401 0.919493 0.757641
0.765209 0.917082 0.751827
0.766888 0.914809 0.744564
0.770626 0.913237 0.736492
0.776638 0.912642 0.726986
0.783841 0.913619 0.716136
0.791653 0.916548 0.702724
0.80676 0.918547 0.690822
0.835935 0.916091 0.686183
0.8636 0.916472 0.678843
0.88986 0.919097 0.668452
0.914473 0.923705 0.654826
0.936873 0.929091 0.642725
0.957458 0.934844 0.631159
0.97583 0.940185 0.621027
0.997803 0.939223 0.627192
1 0.938827 0.630732
1 0.938201 0.631785
1 0.937896 0.632273
1 0.937575 0.632197
1 0.937392 0.632044
1 0.937316 0.631907
1 0.937255 0.631785
1 0.937209 0.631647
1 0.937179 0.631571
1 0.937163 0.631525
1 0.937133 0.631525
0.776928 0.943435 0.79704
0.777096 0.942336 0.79469
0.777325 0.940993 0.791608
0.77792 0.939544 0.788449
0.778347 0.937652 0.784176
0.778744 0.935531 0.779248
0.779065 0.933257 0.773892
0.779751 0.930999 0.768383
0.781323 0.928679 0.761822
0.784787 0.927062 0.753826
0.790143 0.926375 0.744884
0.797009 0.927031 0.734493
0.8047 0.929503 0.722072
0.814115 0.933227 0.707713
0.842863 0.930282 0.703731
0.870146 0.929915 0.697337
0.895323 0.931731 0.688136
0.919219 0.935439 0.676371
0.941482 0.940536 0.663462
0.961288 0.945754 0.652583
0.978698 0.950835 0.64152
0.995483 0.953353 0.639139
1 0.952453 0.643915
1 0.951873 0.646204
1 0.951202 0.647074
1 0.950896 0.647471
1 0.950652 0.647593
1 0.950393 0.647501
1 0.950179 0.647349
1 0.950088 0.647303
1 0.950042 0.647227
1 0.949996 0.647166
1 0.94995 0.647181
0.788815 0.953536 0.808362
0.788983 0.952544 0.806149
0.789166 0.951278 0.803632
0.789487 0.949752 0.80029
0.789776 0.947997 0.796414
0.790387 0.946212 0.791989
0.790829 0.943984 0.78703
0.791241 0.941634 0.781231
0.792508 0.939406 0.774884
0.795773 0.937743 0.767514
0.8009 0.936965 0.758923
0.807492 0.937331 0.748821
0.815 0.939437 0.736812
0.822278 0.943725 0.722515
0.848646 0.941238 0.717296
0.87509 0.940154 0.711711
0.89984 0.941451 0.703578
0.923278 0.944579 0.692592
0.944793 0.949218 0.679377
0.963958 0.954086 0.668437
0.980957 0.958785 0.658686
0.995636 0.963241 0.649088
1 0.963256 0.653452
1 0.962249 0.656596
1 0.961578 0.658198
1 0.96112 0.658961
1 0.960632 0.659113
1 0.960403 0.65922
1 0.960235 0.659266
1 0.960143 0.659266
1 0.960067 0.659251
1 0.959991 0.659251
1 0.959945 0.659281
0.797543 0.960952 0.817029
0.797772 0.960174 0.814984
0.798032 0.959014 0.812634
0.798337 0.957549 0.809415
0.798657 0.955856 0.805539
0.798993 0.953918 0.801282
0.799527 0.952026 0.796521
0.799985 0.949706 0.79115
0.801144 0.947524 0.785061
0.804105 0.945876 0.77789
0.809079 0.944976 0.769482
0.815488 0.94522 0.759731
0.822828 0.947021 0.748318
0.82977 0.950713 0.734279
0.852659 0.949645 0.727565
0.879011 0.94818 0.722515
0.903456 0.949004 0.714916
0.926345 0.951812 0.704936
0.947417 0.955795 0.692271
0.966476 0.960571 0.680644
0.983047 0.965011 0.671443
0.997269 0.969284 0.662409
1 0.971435 0.660212
1 0.970214 0.664271
1 0.969451 0.666331
1 0.968963 0.667369
1 0.968414 0.667781
1 0.968139 0.668101
1 0.967971 0.668208
1 0.967834 0.668284
1 0.967742 0.668299
1 0.967681 0.668315
1 0.967636 0.668345
0.804593 0.966583 0.823529
0.804822 0.96585 0.821805
0.804959 0.964706 0.819364
0.805142 0.963317 0.816297
0.805325 0.9617 0.812711
0.805524 0.959854 0.808316
0.806058 0.957961 0.803815
0.80647 0.955703 0.798428
0.807538 0.953536 0.792493
0.810483 0.951843 0.785473
0.815152 0.950912 0.77734
0.821363 0.951064 0.767819
0.828519 0.952712 0.756664
0.835767 0.956191 0.743343
0.85594 0.955901 0.735271
0.88191 0.954223 0.730526
0.90634 0.954864 0.723659
0.928817 0.957153 0.714229
0.949676 0.960937 0.702296
0.968505 0.96553 0.690349
0.984787 0.969833 0.681071
0.99852 0.9738 0.672312
1 0.97705 0.665949
1 0.976364 0.669657
1 0.975418 0.672145
1 0.974838 0.673503
1 0.974441 0.674205
1 0.973953 0.674479
1 0.973754 0.674678
1 0.973587 0.674861
1 0.973495 0.674907
1 0.973419 0.674952
1 0.973358 0.675013
0.809659 0.970855 0.82858
0.809796 0.96997 0.826658
0.809995 0.968872 0.824247
0.810208 0.967498 0.821485
0.81033 0.965957 0.817746
0.810849 0.964324 0.813718
0.811139 0.962264 0.809125
0.811383 0.960067 0.803937
0.812299 0.958007 0.797909
