samples/LUTs/3D/tone_shaping/ARRI-LogC4.cube
TITLE "Generated by Resolve"
LUT_3D_SIZE 5
0 0.0130922 0.0154421
0.453956 0.0349126 0.000564584
1 0.306661 0.142779
1 0.486793 0.306233
1 0.514336 0.340002
0.175586 0.282109 0.195727
0.337194 0.28893 0.137621
0.967514 0.363592 0.150591
1 0.486992 0.305562
1 0.514504 0.339467
0.575494 0.754269 0.597162
0.597299 0.732799 0.535851
0.852384 0.759899 0.451774
1 0.774792 0.453727
1 0.778332 0.454978
0.788815 0.953536 0.808362
0.792508 0.939406 0.774884
0.89984 0.941451 0.703578
1 0.961578 0.658198
1 0.959945 0.659281
0.820432 0.979492 0.838621
0.822858 0.96759 0.810254
0.912779 0.968109 0.743221
1 0.989456 0.685145
1 0.986648 0.69015
0.0915694 0.231189 0.245106
0.380987 0.208988 0.299046
1 0.313619 0.371786
1 0.452171 0.434318
1 0.483604 0.455787
0.171511 0.34139 0.314336
0.3552 0.324529 0.263005
0.964965 0.378134 0.294972
1 0.452277 0.43389
1 0.483711 0.455421
0.57116 0.751995 0.64004
0.605615 0.725643 0.581308
0.843473 0.756313 0.499519
1 0.773663 0.489067
1 0.778058 0.490043
0.785519 0.948714 0.824979
0.792142 0.933654 0.793332
0.892485 0.936873 0.724681
1 0.957992 0.677195
1 0.957061 0.675486
0.817517 0.975189 0.852888
0.821942 0.962173 0.825711
0.905089 0.964233 0.760082
1 0.985824 0.704051
1 0.983764 0.705821
0.310979 0.616251 0.675044
0.434287 0.597772 0.632013
0.923018 0.599802 0.811963
1 0.670344 0.895094
1 0.684779 0.897292
0.310536 0.638407 0.687373
0.414282 0.609155 0.63801
0.860212 0.590692 0.737026
1 0.651911 0.846662
1 0.684749 0.897231
0.593118 0.831556 0.809903
0.631617 0.794705 0.760143
0.853941 0.793729 0.709056
1 0.803525 0.706966
1 0.806561 0.706737
0.741344 0.980545 0.925948
0.761593 0.958526 0.895674
0.908858 0.940505 0.83682
1 0.963348 0.79382
1 0.962325 0.790097
0.777356 1 0.942763
0.794217 0.981323 0.916701
0.922057 0.963973 0.860014
1 0.987076 0.810971
1 0.986877 0.808957
0.46157 0.829923 0.896574
0.518791 0.802533 0.860334
0.826932 0.772534 0.903868
1 0.793484 0.996139
1 0.807111 1
0.46717 0.841382 0.903807
0.519326 0.812055 0.866148
0.81709 0.785519 0.885695
1 0.786679 0.965347
1 0.782925 0.986786
0.575967 0.932967 0.965225
0.608423 0.901457 0.928191
0.828779 0.885145 0.875639
1 0.872511 0.920012
1 0.866545 0.932082
0.811826 1 1
0.823545 0.994064 0.975296
0.926772 0.97464 0.933883
1 0.983246 0.916197
1 0.981704 0.912352
0.820951 1 1
0.831922 1 0.990295
0.92665 0.993973 0.951293
1 0.999161 0.929366
1 1 0.922469
0.490013 0.863783 0.929564
0.537392 0.836606 0.895613
0.82533 0.809354 0.915419
1 0.816083 0.994919
1 0.819913 1
0.495293 0.873472 0.935683
0.539528 0.845136 0.901015
0.818799 0.820493 0.902846
1 0.817212 0.975998
1 0.815549 0.992447
0.588556 0.95169 0.98761
0.618265 0.921889 0.953353
0.829587 0.903212 0.901625
1 0.8916 0.941222
1 0.888624 0.949508
0.79472 1 1
0.807263 1 0.998627
0.913222 0.985565 0.958404
1 0.99205 0.937636
1 0.988113 0.942443
0.837064 1 1
0.849256 1 1
0.939605 0.999008 0.964004
1 1 0.945846
1 1 0.94316
