samples/LUTs/3D/tone_shaping/RED-Log3G10.cube
TITLE "Generated by Resolve"
LUT_3D_SIZE 33
0.0185855 0.0357671 0.0323796
0.025864 0.035996 0.030869
0.0371405 0.0358892 0.0297093
0.0574502 0.0330358 0.0325933
0.0900282 0.0310979 0.0366522
0.136446 0.0290227 0.0320745
0.192432 0.0266423 0.0233158
0.250477 0.0330205 0.0190433
0.31725 0.0440833 0.0150301
0.392493 0.0578622 0.0109102
0.474861 0.0716411 0.0077821
0.558816 0.0901198 0.0108186
0.642084 0.112367 0.0169528
0.722728 0.138323 0.0265202
0.798489 0.167895 0.0395666
0.868528 0.200458 0.0551003
0.931868 0.235416 0.0728313
0.988342 0.272068 0.092607
1 0.308888 0.112596
1 0.343496 0.131212
1 0.376074 0.148882
1 0.405905 0.164874
1 0.432395 0.178546
1 0.455436 0.190478
1 0.474754 0.200397
1 0.490532 0.208164
1 0.503319 0.214817
1 0.513085 0.219562
1 0.520958 0.22385
1 0.526741 0.226642
1 0.530694 0.228733
1 0.530694 0.228733
1 0.530694 0.228733
0.0201114 0.039765 0.034638
0.027451 0.0397803 0.0329595
0.0387274 0.0403296 0.0308995
0.0594034 0.0380255 0.0317082
0.0910506 0.0362707 0.035584
0.136324 0.0339971 0.0295262
0.183764 0.0373693 0.0252232
0.241764 0.0443732 0.0211948
0.310628 0.0526741 0.0161593
0.388128 0.06215 0.0100099
0.470359 0.0759442 0.00888075
0.554055 0.0939956 0.01178
0.637537 0.115679 0.0174716
0.718166 0.141161 0.0268559
0.7944 0.170169 0.0395972
0.864561 0.202319 0.0549172
0.928298 0.236805 0.0723735
0.985138 0.273075 0.0919509
1 0.309667 0.111864
1 0.34403 0.130495
1 0.376471 0.148028
1 0.406134 0.164034
1 0.43241 0.178363
1 0.455436 0.190478
1 0.474754 0.200397
1 0.490532 0.208164
1 0.503319 0.214817
1 0.513085 0.219562
1 0.520958 0.22385
1 0.526726 0.226627
1 0.530694 0.228733
1 0.530694 0.228733
1 0.530694 0.228733
0.0259098 0.0458991 0.0364843
0.0338293 0.045716 0.0347448
0.0451057 0.0460822 0.0326543
0.0553902 0.0476997 0.0411231
0.0876173 0.0464637 0.0358129
0.127489 0.0464485 0.0312657
0.176562 0.0482948 0.0261845
0.236286 0.0527657 0.021149
0.305592 0.0593423 0.0155184
0.382376 0.0685283 0.010071
0.463798 0.0819867 0.0102235
0.547631 0.0994278 0.0131228
0.631296 0.120302 0.0185397
0.7122 0.145037 0.0275273
0.788769 0.173342 0.0399481
0.859251 0.204837 0.0547341
0.923339 0.238743 0.0717479
0.980606 0.274464 0.0910353
1 0.31075 0.110857
1 0.344762 0.129488
1 0.377005 0.146838
1 0.40647 0.162799
1 0.432609 0.177081
1 0.455497 0.189731
1 0.474754 0.200366
1 0.490517 0.208164
1 0.503319 0.214817
1 0.513085 0.219562
1 0.520958 0.22385
1 0.526726 0.226627
1 0.530694 0.228733
1 0.530694 0.228733
1 0.530694 0.228733
0.0257572 0.0584421 0.0429999
0.0339361 0.0581216 0.0411994
0.0459602 0.0577707 0.0387884
0.0615396 0.0597696 0.0338598
0.0801404 0.0615244 0.0404669
0.121401 0.0602731 0.0338598
0.170825 0.0607919 0.0276341
0.229587 0.0637522 0.0217136
0.298161 0.0692607 0.01561
0.373785 0.0783246 0.0131685
0.455009 0.090837 0.0129397
0.538506 0.106828 0.0150149
0.622431 0.126772 0.0200504
0.703578 0.150637 0.0283665
0.780667 0.17792 0.0403449
0.851789 0.208438 0.0547189
0.916503 0.241505 0.0713054
0.974182 0.276509 0.090013
1 0.312261 0.109499
1 0.345846 0.127962
1 0.377737 0.145281
1 0.406836 0.161288
1 0.432761 0.175494
1 0.455573 0.187915
1 0.474708 0.19855
1 0.49044 0.207019
1 0.503258 0.214282
1 0.513085 0.219562
1 0.520958 0.22385
1 0.526726 0.226627
1 0.530694 0.228733
1 0.530694 0.228733
1 0.530694 0.228733
0.0339208 0.0759899 0.0527047
0.0429541 0.0749676 0.0504616
0.0559854 0.074464 0.0469215
0.0669108 0.0771954 0.0411231
0.0816205 0.0796368 0.0423438
0.112047 0.0810407 0.040528
0.161563 0.0797436 0.0327916
0.220584 0.0806134 0.0257725
0.288289 0.0843366 0.0211643
0.363302 0.0915084 0.0180972
0.443915 0.102129 0.0169375
0.527352 0.116732 0.0181888
0.611139 0.135042 0.0221866
0.692592 0.157549 0.0298619
0.770413 0.183902 0.0413672
0.841947 0.213336 0.054902
0.907164 0.24538 0.0707256
0.965591 0.279316 0.0888838
1 0.314168 0.107912
1 0.347601 0.126146
1 0.378851 0.143389
1 0.407553 0.158984
1 0.433158 0.173098
1 0.455589 0.185565
1 0.474601 0.195987
1 0.490211 0.204654
1 0.502937 0.211704
1 0.512947 0.217441
1 0.520607 0.221775
1 0.526421 0.224933
1 0.530404 0.227481
1 0.530449 0.227695
1 0.530495 0.227863
0.0531167 0.0982071 0.0653697
0.0596475 0.0979629 0.062089
0.0684215 0.0984207 0.0584573
0.0782635 0.10045 0.0530709
0.0931411 0.10161 0.0495308
0.109865 0.105959 0.0496376
0.151049 0.106676 0.0468147
0.209903 0.105715 0.0395361
0.277134 0.106996 0.0326085
0.351446 0.111086 0.0272984
0.431891 0.119265 0.0247501
0.515221 0.131197 0.0243687
0.598779 0.147204 0.0272679
0.68069 0.167468 0.0336461
0.758312 0.191562 0.043122
0.831006 0.219486 0.0555886
0.89691 0.249958 0.070634
0.955612 0.282689 0.0876478
1 0.31667 0.106111
1 0.349844 0.124437
1 0.380301 0.141131
1 0.40856 0.156329
1 0.434058 0.170382
1 0.455879 0.182437
1 0.474571 0.192767
1 0.490242 0.201526
1 0.50248 0.208148
1 0.512337 0.213901
1 0.519936 0.218158
1 0.526009 0.221637
1 0.529641 0.223911
1 0.529702 0.224155
1 0.529732 0.224323
0.0733349 0.129488 0.0854505
0.079881 0.129259 0.0825971
0.0876631 0.129107 0.0787823
0.0969253 0.130022 0.0734875
0.10486 0.13315 0.0662089
0.124437 0.132708 0.06598
0.14638 0.13875 0.0629587
0.197406 0.138567 0.0607309
0.264347 0.137484 0.0521401
0.33904 0.138933 0.0442817
0.419089 0.143755 0.038819
0.501823 0.152682 0.0362707
0.585702 0.165805 0.037171
0.667659 0.183352 0.041474
0.746029 0.205066 0.049012
0.818662 0.230213 0.0594644
0.885496 0.258671 0.0732586
0.944778 0.289174 0.0885481
0.997314 0.321248 0.105684
1 0.353124 0.123278
1 0.382605 0.139178
1 0.410101 0.154086
1 0.434852 0.16762
1 0.456641 0.179721
1 0.474998 0.189609
1 0.490043 0.197971
1 0.502388 0.2047
1 0.511879 0.209735
1 0.519585 0.214359
1 0.525277 0.217197
1 0.529137 0.219699
1 0.529122 0.219837
1 0.529107 0.219944
0.0988632 0.166598 0.11043
0.104417 0.166155 0.107774
0.111604 0.16582 0.103929
0.12018 0.165942 0.098909
0.128359 0.167529 0.0919356
0.140322 0.168429 0.0853132
0.162127 0.169757 0.0858625
0.189273 0.177371 0.0790265
0.250034 0.176104 0.0776074
0.324544 0.175128 0.0686351
0.40473 0.176959 0.0603342
0.488106 0.182498 0.0548409
0.571664 0.192203 0.0525826
0.6542 0.206546 0.0544442
0.732815 0.224872 0.0595712
0.806088 0.247333 0.0680858
0.87332 0.273075 0.07953
0.933608 0.301335 0.0933089
0.986481 0.330755 0.10869
1 0.360891 0.125078
1 0.388968 0.13991
1 0.414923 0.153735
1 0.438453 0.166629
1 0.459068 0.177752
1 0.476432 0.187259
1 0.490898 0.194903
1 0.502693 0.20148
1 0.512001 0.20647
1 0.519265 0.210346
1 0.524666 0.213489
1 0.528557 0.215427
1 0.528542 0.215534
1 0.528542 0.215625
0.128878 0.209949 0.140856
0.133669 0.209247 0.138109
0.13994 0.208545 0.134188
0.147509 0.207828 0.128985
0.155962 0.208118 0.12224
0.162417 0.210117 0.11368
0.181689 0.209628 0.108141
0.206073 0.212436 0.108629
0.238987 0.221393 0.0993668
0.308659 0.219287 0.098436
0.389075 0.218647 0.0893416
0.47303 0.220844 0.0808728
0.557443 0.227176 0.0758221
0.640009 0.237598 0.0740368
0.719341 0.252781 0.0764782
0.793194 0.271885 0.0821241
0.861036 0.294423 0.0910048
0.921874 0.319707 0.102708
0.975158 0.346502 0.115969
1 0.374411 0.130694
1 0.401038 0.144793
1 0.425284 0.157519
1 0.447379 0.16936
1 0.466575 0.179324
1 0.483085 0.188098
1 0.496544 0.195453
1 0.507637 0.201144
1 0.516335 0.205814
1 0.522988 0.209552
1 0.528069 0.212116
1 0.53167 0.213901
1 0.531548 0.213886
1 0.531456 0.21387
0.162814 0.258625 0.176394
0.166934 0.25771 0.173327
0.172519 0.256672 0.169589
0.179599 0.255665 0.164431
0.187884 0.255009 0.157519
0.19501 0.255161 0.149187
0.199893 0.257755 0.138964
0.228687 0.255909 0.134295
0.256184 0.260441 0.134844
0.295842 0.269825 0.124163
0.372 0.267826 0.123095
0.456336 0.267491 0.114046
0.541634 0.27042 0.105791
0.625513 0.277302 0.100786
0.705043 0.28835 0.0996262
0.779919 0.303883 0.102358
0.848264 0.322881 0.108461
0.909789 0.344808 0.117494
0.963973 0.368902 0.128618
1 0.39411 0.140963
1 0.418845 0.153826
1 0.441245 0.16556
1 0.461799 0.176013
1 0.479713 0.185367
1 0.494957 0.193286
1 0.507805 0.199924
1 0.517784 0.205158
1 0.525963 0.20911
1 0.532448 0.212833
1 0.537179 0.215198
1 0.54049 0.217014
1 0.540322 0.216892
1 0.540185 0.216815
0.20032 0.312078 0.216938
0.203876 0.311131 0.21413
0.208667 0.309834 0.209979
0.215106 0.308339 0.204868
0.222858 0.306859 0.197925
0.230533 0.305882 0.189319
0.236423 0.306035 0.180011
0.246983 0.308141 0.169451
0.280613 0.306691 0.164019
0.311376 0.312779 0.163546
0.357809 0.322683 0.152667
0.438193 0.3205 0.15111
0.52398 0.320882 0.142138
0.609003 0.324315 0.134417
0.690089 0.331807 0.129793
0.765927 0.34342 0.129076
0.834943 0.358557 0.131975
0.897276 0.377279 0.138201
0.952056 0.398016 0.146548
0.999939 0.420432 0.157092
1 0.442634 0.168032
1 0.46331 0.178195
1 0.482109 0.18732
1 0.498497 0.19585
1 0.512535 0.202747
1 0.524346 0.208927
1 0.533639 0.213169
1 0.541238 0.217243
1 0.547158 0.220356
1 0.551461 0.222568
1 0.554574 0.22417
1 0.554376 0.224048
1 0.554223 0.223972
0.241886 0.369177 0.261433
0.244022 0.368444 0.259495
0.248157 0.366857 0.255375
0.253605 0.364889 0.250111
0.260838 0.362737 0.243061
0.268605 0.360845 0.234119
0.275349 0.359762 0.22446
0.281315 0.360479 0.21355
0.300404 0.361395 0.204028
0.33666 0.361273 0.198108
0.371298 0.369162 0.195483
0.422705 0.378668 0.183963
0.50573 0.377127 0.182696
0.591455 0.377951 0.17438
0.67393 0.382116 0.166918
0.751156 0.38996 0.162722
0.821454 0.401587 0.162463
0.884337 0.41619 0.165042
0.940215 0.433677 0.170733
0.988281 0.452644 0.178042
1 0.472526 0.187503
1 0.490974 0.196017
1 0.50779 0.203723
1 0.522683 0.21088
1 0.535393 0.21677
1 0.54609 0.22208
1 0.554742 0.226444
1 0.561639 0.229435
1 0.567102 0.232395
1 0.571069 0.234195
1 0.573953 0.23563
1 0.57377 0.235508
1 0.573632 0.235416
0.288685 0.428092 0.307774
0.28867 0.428092 0.307759
0.290532 0.427283 0.305776
0.295216 0.424872 0.300313
0.301381 0.422217 0.292683
0.309239 0.419272 0.283299
0.316472 0.416938 0.273213
0.322286 0.415595 0.262592
0.329274 0.417853 0.249363
0.357702 0.41706 0.241032
0.396109 0.418875 0.234958
0.433997 0.427741 0.229282
0.489586 0.437186 0.217884
0.57258 0.435828 0.216648
0.655924 0.437278 0.208942
0.734615 0.441825 0.202304
0.806409 0.449912 0.198169
0.870817 0.461097 0.19791
0.927642 0.475044 0.200443
0.976562 0.490959 0.205447
1 0.507912 0.212131
1 0.524086 0.218875
1 0.538903 0.22501
1 0.551949 0.230732
1 0.563348 0.23595
1 0.572808 0.240345
1 0.580591 0.243595
1 0.586786 0.246555
1 0.591775 0.248859
1 0.595254 0.250614
1 0.597894 0.251865
1 0.597742 0.251743
1 0.597604 0.251652
0.336889 0.4878 0.356603
0.336889 0.4878 0.356603
0.336873 0.487785 0.356588
0.338567 0.486854 0.354467
0.343709 0.483513 0.346685
0.351385 0.479973 0.337209
0.35906 0.476387 0.326024
0.365133 0.473793 0.31458
0.371389 0.472892 0.302419
0.379294 0.477073 0.286671
0.418067 0.474296 0.280644
0.457755 0.477531 0.273793
0.498482 0.487678 0.265248
0.556283 0.496498 0.254261
0.637598 0.495476 0.253132
0.717037 0.497398 0.246174
0.790433 0.502617 0.240162
0.856443 0.510582 0.236683
0.914397 0.521141 0.236133
0.964202 0.533791 0.23798
1 0.547707 0.241993
1 0.561639 0.24686
1 0.574197 0.251347
1 0.585779 0.25594
1 0.595483 0.259648
1 0.603937 0.263081
1 0.610742 0.266056
1 0.616159 0.268147
1 0.620539 0.269917
1 0.623636 0.271183
1 0.626032 0.272236
1 0.625879 0.272114
1 0.625788 0.272038
0.386175 0.54757 0.407355
0.386175 0.54757 0.407355
0.386175 0.54757 0.407355
0.386175 0.547555 0.40734
0.387747 0.546441 0.404791
0.394034 0.54168 0.394522
0.401755 0.536736 0.381949
0.408576 0.532692 0.369482
0.414328 0.530083 0.357641
0.422217 0.530465 0.343282
0.437293 0.533883 0.328115
0.479667 0.531624 0.321218
0.520241 0.536309 0.313954
0.562768 0.547402 0.30251
0.62153 0.555367 0.292287
0.699245 0.554788 0.291402
0.773617 0.557504 0.285679
0.840787 0.562554 0.279973
0.899886 0.570123 0.276493
0.951049 0.579705 0.275654
0.994614 0.590951 0.277165
1 0.602792 0.279896
1 0.613123 0.282628
1 0.622858 0.285664
1 0.631434 0.288197
1 0.638361 0.290379
1 0.644419 0.292393
1 0.648997 0.294133
1 0.652613 0.295308
1 0.655589 0.296407
1 0.657679 0.29723
1 0.657572 0.297108
1 0.657496 0.297032
0.435615 0.605356 0.458549
0.435615 0.605356 0.458549
0.435615 0.605356 0.458549
0.435615 0.605356 0.458534
0.435615 0.605356 0.458534
0.437156 0.603845 0.455619
0.44445 0.597848 0.441962
0.452125 0.591943 0.426978
0.457862 0.587594 0.413611
0.464088 0.585168 0.400168
0.473411 0.587503 0.383993
0.498878 0.589014 0.371771
0.541909 0.588312 0.363241
0.58233 0.594446 0.354726
0.625147 0.605737 0.340505
0.683238 0.612818 0.331319
0.756497 0.612985 0.331121
0.824338 0.615595 0.32578
0.884947 0.620462 0.320836
0.937499 0.627771 0.317754
0.981796 0.636103 0.316518
1 0.645609 0.317037
1 0.654383 0.318303
1 0.662379 0.319539
1 0.669322 0.320974
1 0.67541 0.322255
1 0.680278 0.323262
1 0.684047 0.3243
1 0.687343 0.325231
1 0.689601 0.325689
1 0.691463 0.326238
1 0.691371 0.326146
1 0.69131 0.326085
0.484398 0.660838 0.509758
0.484398 0.660838 0.509758
0.484398 0.660838 0.509758
0.484398 0.660838 0.509758
0.484398 0.660822 0.509743
0.484382 0.660822 0.509743
0.486442 0.658442 0.504997
0.494331 0.650568 0.487602
0.500954 0.644358 0.471275
0.506172 0.639796 0.45716
0.514275 0.638804 0.442405
0.524254 0.643244 0.423972
0.559716 0.641901 0.414618
0.602457 0.642847 0.404608
0.642588 0.649958 0.395239
0.684688 0.661479 0.378744
0.741634 0.667842 0.371313
0.808545 0.668025 0.371176
0.869749 0.671016 0.366751
0.92311 0.675731 0.362219
0.968521 0.682094 0.359167
1 0.689204 0.357733
1 0.696651 0.357244
1 0.702754 0.357107
1 0.70837 0.356954
1 0.713283 0.357107
1 0.717449 0.357763
1 0.720607 0.357916
1 0.723293 0.358282
1 0.725109 0.358328
1 0.72665 0.358663
1 0.726589 0.358587
1 0.726543 0.358526
0.531258 0.71284 0.559548
0.531243 0.71284 0.559548
0.531243 0.71284 0.559548
0.531258 0.71284 0.559548
0.531243 0.71284 0.559548
0.531243 0.71284 0.559533
0.531243 0.71284 0.559533
0.534066 0.708766 0.551385
0.542123 0.699535 0.530495
0.547845 0.693049 0.513787
0.553491 0.689204 0.498894
0.563409 0.689982 0.482506
0.576028 0.695521 0.463355
0.619333 0.692287 0.456977
0.66128 0.694682 0.445457
0.700069 0.702541 0.434821
0.740917 0.714046 0.416587
0.79443 0.719051 0.410834
0.854917 0.719738 0.411063
0.908827 0.722454 0.406989
0.955367 0.726818 0.403372
0.993942 0.732143 0.400504
1 0.738155 0.398688
1 0.74316 0.396826
1 0.747509 0.396017
1 0.751385 0.395148
1 0.754589 0.394537
1 0.757351 0.394324
1 0.75935 0.394293
1 0.760876 0.394064
1 0.762158 0.394018
1 0.762158 0.393957
1 0.762112 0.393912
0.575967 0.760403 0.60647
0.575952 0.760403 0.60647
0.575952 0.760403 0.60647
0.575952 0.760403 0.60647
0.575952 0.760403 0.60647
0.575952 0.760403 0.60647
0.575952 0.760403 0.606455
0.575952 0.760388 0.606455
0.579889 0.753735 0.593362
0.587274 0.743832 0.570535
0.591577 0.737606 0.55375
0.599908 0.735348 0.538018
0.610574 0.73814 0.5196
0.634424 0.740566 0.504891
0.67631 0.739132 0.497154
0.716365 0.742824 0.48426
0.753231 0.750927 0.47245
0.792126 0.762432 0.453223
0.842222 0.76614 0.449393
0.895811 0.767056 0.449821
0.94226 0.769512 0.446769
0.98172 0.773342 0.443198
1 0.777966 0.440772
1 0.782055 0.438239
1 0.785473 0.435981
1 0.788342 0.434653
1 0.790799 0.433326
1 0.793011 0.432547
1 0.794507 0.431739
1 0.79585 0.431327
1 0.796872 0.431022
1 0.796933 0.430961
1 0.796902 0.430915
0.617395 0.803052 0.650217
0.617395 0.803052 0.650217
0.617395 0.803052 0.650217
0.617395 0.803052 0.650217
0.617395 0.803052 0.650202
0.617395 0.803052 0.650202
0.61738 0.803052 0.650202
0.617395 0.803037 0.650202
0.61738 0.803037 0.650202
0.622812 0.792859 0.62916
0.628656 0.783291 0.606577
0.633997 0.778256 0.590219
0.644266 0.777951 0.573098
0.655146 0.78262 0.553033
0.68986 0.781735 0.543557
0.729641 0.781811 0.534508
0.767437 0.786709 0.520058
0.802197 0.795087 0.507393
0.838087 0.805737 0.487007
0.884047 0.80856 0.486244
0.930541 0.809491 0.486809
0.969955 0.811734 0.484169
1 0.814847 0.481453
1 0.818219 0.478721
1 0.820798 0.475883
1 0.823209 0.474006
1 0.825025 0.472084
1 0.82652 0.470619
1 0.827848 0.469657
1 0.828885 0.469032
1 0.829496 0.468452
1 0.829526 0.468315
1 0.829511 0.468284
0.655039 0.840574 0.689754
0.655039 0.840574 0.689754
0.655039 0.840574 0.689754
0.655039 0.840574 0.689754
0.655039 0.840574 0.689754
0.655039 0.840558 0.689738
0.655039 0.840558 0.689738
0.655039 0.840558 0.689738
0.655039 0.840558 0.689738
0.655024 0.840558 0.689738
0.661891 0.82623 0.659205
0.666056 0.817838 0.638758
0.674266 0.814862 0.621729
0.685481 0.816464 0.603296
0.700954 0.821424 0.584665
0.741558 0.818402 0.578576
0.778729 0.820096 0.567987
0.813794 0.825879 0.553643
0.84625 0.834211 0.539101
0.878813 0.844511 0.518914
0.919921 0.845945 0.520119
0.959365 0.846815 0.520699
0.992309 0.848783 0.519112
1 0.851377 0.516777
1 0.8533 0.513893
1 0.855024 0.51165
1 0.856367 0.509606
1 0.857374 0.507836
1 0.858381 0.5066
1 0.859159 0.505928
1 0.859571 0.505089
1 0.859678 0.504875
1 0.859663 0.50486
0.688807 0.873091 0.72491
0.688807 0.873091 0.72491
0.688807 0.873091 0.72491
0.688807 0.873091 0.72491
0.688807 0.873091 0.72491
0.688807 0.873091 0.72491
0.688807 0.873091 0.72491
0.688807 0.873091 0.72491
0.688792 0.873091 0.72491
0.688792 0.873075 0.724895
0.690288 0.868681 0.71635
0.696345 0.854353 0.684321
0.701167 0.848234 0.665904
0.711849 0.847425 0.648219
0.723384 0.851286 0.628687
0.751583 0.852033 0.616556
0.789059 0.850996 0.608972
0.823331 0.854109 0.596918
0.854978 0.860319 0.582513
0.884825 0.868666 0.567285
0.913756 0.877821 0.54757
0.95053 0.878264 0.551324
0.983291 0.879057 0.551949
1 0.880644 0.550927
1 0.882109 0.548638
1 0.883284 0.546273
1 0.884321 0.544335
1 0.885145 0.542687
1 0.88574 0.541161
1 0.886305 0.540108
1 0.886748 0.5393
1 0.886839 0.538994
1 0.886839 0.538964
0.718364 0.90071 0.755428
0.718364 0.90071 0.755428
0.718364 0.90071 0.755428
0.718364 0.90071 0.755428
0.718379 0.90071 0.755428
0.718364 0.90071 0.755428
0.718364 0.90071 0.755428
0.718364 0.90071 0.755428
0.718364 0.90071 0.755428
0.718364 0.90071 0.755428
0.718364 0.90071 0.755428
0.722026 0.88806 0.729168
0.72578 0.877958 0.705196
0.734234 0.87451 0.687144
0.746075 0.87628 0.668788
0.758938 0.881559 0.64892
0.797604 0.878553 0.64329
0.831815 0.879332 0.634226
0.86276 0.883467 0.620539
0.891524 0.89012 0.606989
0.918578 0.898024 0.590845
0.943481 0.905806 0.574746
0.975753 0.90547 0.579187
1 0.906142 0.579828
1 0.907332 0.578912
1 0.907988 0.576822
1 0.908553 0.574777
1 0.909194 0.573419
1 0.909529 0.571893
1 0.909941 0.570825
1 0.910262 0.570001
1 0.910399 0.569635
1 0.910384 0.569604
0.74316 0.923369 0.781155
0.74316 0.923369 0.781155
0.74316 0.923369 0.781155
0.74316 0.923369 0.781155
0.74316 0.923369 0.781155
0.74316 0.923369 0.781155
0.74316 0.923369 0.781155
0.74316 0.923369 0.781155
0.74316 0.923354 0.781155
0.74316 0.923354 0.781155
0.74316 0.923354 0.78114
0.743252 0.923049 0.780346
0.748241 0.904479 0.740459
0.753445 0.898131 0.720714
0.764843 0.89781 0.702586
0.776486 0.902022 0.683116
0.804166 0.902266 0.67187
0.838834 0.901244 0.66479
0.869612 0.903716 0.65391
0.89807 0.908797 0.639506
0.923384 0.915236 0.626413
0.947127 0.922621 0.610391
0.969833 0.928237 0.599985
0.996506 0.928023 0.603082
1 0.928634 0.603723
1 0.928954 0.602838
1 0.929213 0.601343
1 0.929473 0.599832
1 0.929702 0.598505
1 0.929961 0.597498
1 0.93019 0.596689
1 0.930251 0.596231
1 0.930236 0.596216
0.76376 0.941909 0.802518
0.76376 0.941909 0.802518
0.76376 0.941909 0.802518
0.76376 0.941909 0.802518
0.76376 0.941909 0.802518
0.76376 0.941894 0.802518
0.76376 0.941894 0.802518
0.76376 0.941894 0.802518
0.76376 0.941894 0.802518
0.76376 0.941894 0.802518
0.76376 0.941894 0.802502
0.76376 0.941894 0.802502
0.766461 0.927916 0.773373
0.77023 0.918318 0.749523
0.780468 0.916136 0.731106
0.792248 0.918486 0.712306
0.809064 0.922133 0.695232
0.84448 0.919783 0.689448
0.875349 0.920806 0.680735
0.902968 0.924636 0.668406
0.92781 0.929931 0.654551
0.950484 0.936339 0.641047
0.971038 0.943053 0.626078
0.991547 0.946334 0.620905
1 0.946273 0.623194
1 0.946227 0.623209
1 0.946395 0.622461
1 0.946395 0.621424
1 0.946548 0.620539
1 0.946685 0.619699
1 0.946777 0.619013
1 0.946853 0.61854
1 0.946853 0.618524
0.780453 0.956344 0.819638
0.780453 0.956344 0.819638
0.780453 0.956344 0.819638
0.780453 0.956344 0.819638
0.780453 0.956344 0.819638
0.780453 0.956344 0.819623
0.780453 0.956344 0.819623
0.780453 0.956344 0.819623
0.780453 0.956344 0.819638
0.780438 0.956344 0.819623
0.780453 0.956344 0.819623
0.780438 0.956344 0.819623
0.780972 0.951141 0.80911
0.784573 0.935286 0.773251
0.79263 0.930907 0.753887
0.804532 0.932158 0.735607
0.815274 0.937377 0.715892
0.848905 0.935027 0.70927
0.879683 0.934859 0.701839
0.906981 0.937514 0.691218
0.93196 0.942138 0.678004
0.953689 0.947692 0.665415
0.973251 0.953552 0.651621
0.990539 0.959442 0.637888
1 0.960693 0.638209
1 0.960571 0.63975
1 0.960235 0.639551
1 0.960174 0.639002
1 0.960037 0.638117
1 0.960037 0.63743
1 0.960067 0.63682
1 0.960098 0.636378
1 0.960098 0.636362
0.793973 0.967926 0.83328
0.793973 0.967941 0.83328
0.793973 0.967941 0.83328
0.793973 0.967941 0.83328
0.793973 0.967941 0.83328
0.793973 0.967941 0.83328
0.793973 0.967941 0.83328
0.793973 0.967941 0.83328
0.793973 0.967926 0.83328
0.793973 0.967926 0.83328
0.793973 0.967926 0.833265
0.793973 0.967926 0.83328
0.793957 0.967926 0.833265
0.79675 0.949477 0.793637
0.802823 0.943206 0.772824
0.814557 0.943175 0.754543
0.825742 0.94725 0.735317
0.851774 0.947158 0.724788
0.883223 0.946014 0.718166
0.910399 0.94789 0.708888
0.934707 0.951736 0.696895
0.956344 0.95671 0.683986
0.975311 0.962234 0.671855
0.99202 0.967666 0.659159
1 0.972198 0.649302
1 0.97174 0.651514
1 0.971374 0.652323
1 0.971008 0.652125
1 0.970916 0.651743
1 0.970871 0.651301
1 0.97084 0.650889
1 0.970657 0.650416
1 0.970657 0.65037
0.804166 0.976623 0.843717
0.804166 0.976623 0.843717
0.804166 0.976623 0.843717
0.804166 0.976623 0.843717
0.804166 0.976623 0.843717
0.804166 0.976623 0.843717
0.804166 0.976623 0.843717
0.804166 0.976623 0.843717
0.804166 0.976623 0.843717
