samples/LUTs/3D/tone_shaping/RED-Log3G10.cube
TITLE "Generated by Resolve"
LUT_3D_SIZE 5
0.0185855 0.0357671 0.0323796
0.31725 0.0440833 0.0150301
0.931868 0.235416 0.0728313
1 0.474754 0.200397
1 0.530694 0.228733
0.128878 0.209949 0.140856
0.238987 0.221393 0.0993668
0.861036 0.294423 0.0910048
1 0.483085 0.188098
1 0.531456 0.21387
0.484398 0.660838 0.509758
0.500954 0.644358 0.471275
0.741634 0.667842 0.371313
1 0.70837 0.356954
1 0.726543 0.358526
0.76376 0.941909 0.802518
0.76376 0.941894 0.802518
0.809064 0.922133 0.695232
1 0.946273 0.623194
1 0.946853 0.618524
0.82092 0.990417 0.860609
0.82092 0.990417 0.860609
0.844755 0.967361 0.776165
1 0.98854 0.690776
1 0.992401 0.678599
0.0945754 0.202457 0.210605
0.271061 0.17763 0.244297
0.946532 0.206195 0.167102
1 0.474739 0.200397
1 0.530694 0.228733
0.110613 0.251682 0.231708
0.257633 0.240375 0.192432
0.858289 0.2981 0.13698
1 0.481575 0.187747
1 0.530541 0.21387
0.483635 0.659983 0.508949
0.500114 0.643626 0.470771
0.741665 0.666972 0.370825
1 0.707744 0.356344
1 0.725994 0.357931
0.763684 0.941802 0.802411
0.763668 0.941802 0.802396
0.808957 0.922072 0.69514
1 0.946181 0.623072
1 0.946761 0.618387
0.82092 0.990417 0.860609
0.82092 0.990417 0.860609
0.844739 0.967346 0.776196
1 0.98854 0.690776
1 0.992401 0.678599
0.313527 0.592706 0.652018
0.406638 0.577905 0.620325
0.828901 0.55169 0.749905
1 0.59559 0.781994
1 0.589105 0.727504
0.285939 0.571191 0.626398
0.369146 0.554574 0.592142
0.793332 0.533455 0.708934
1 0.58436 0.751583
1 0.5823 0.708888
0.475883 0.727596 0.707546
0.501961 0.70634 0.678737
0.749599 0.688945 0.601495
1 0.715236 0.553307
1 0.725246 0.506371
0.762509 0.940673 0.801083
0.762509 0.940658 0.801068
0.80763 0.921157 0.693996
1 0.945129 0.621881
1 0.945785 0.617014
0.82092 0.990417 0.860609
0.82092 0.990417 0.860609
0.84448 0.967269 0.776638
1 0.98851 0.690867
1 0.992401 0.678599
0.520989 0.866865 0.94136
0.550042 0.853239 0.923476
0.823026 0.818891 0.954986
1 0.826185 1
1 0.817655 1
0.520623 0.866468 0.940963
0.54725 0.853376 0.923903
0.822553 0.818616 0.954635
1 0.825788 1
1 0.817166 1
0.492958 0.872557 0.927245
0.493874 0.871443 0.925795
0.726955 0.831632 0.848447
1 0.814298 0.924544
1 0.806058 0.947509
0.767926 0.996323 0.987106
0.767987 0.996292 0.98703
0.841627 0.95198 0.92314
1 0.95729 0.886641
1 0.955856 0.875486
0.789197 1 1
0.789136 1 1
0.838148 0.99266 0.95111
1 0.99086 0.896971
1 0.996475 0.879271
0.540032 0.887831 0.961898
0.55024 0.880934 0.953414
0.825788 0.842557 0.967742
1 0.850156 1
1 0.849515 1
0.540032 0.887831 0.961898
0.548226 0.88217 0.95494
0.825376 0.842603 0.967559
1 0.850156 1
1 0.849515 1
0.498146 0.877379 0.938476
0.498131 0.877363 0.93846
0.730694 0.838712 0.869429
1 0.824369 0.955291
1 0.825345 0.975723
0.735683 1 1
0.735683 1 1
0.811231 0.970703 0.964538
0.995315 0.973175 0.928573
1 0.966323 0.942397
0.836118 1 1
0.836118 1 1
0.874952 1 0.984421
1 1 0.949401
1 1 0.94316
