samples/LUTs/3D/tone_shaping/RED-Log3G10.cube
TITLE "Generated by Resolve"
LUT_3D_SIZE 9
0.0185855 0.0357671 0.0323796
0.0900282 0.0310979 0.0366522
0.31725 0.0440833 0.0150301
0.642084 0.112367 0.0169528
0.931868 0.235416 0.0728313
1 0.376074 0.148882
1 0.474754 0.200397
1 0.520958 0.22385
1 0.530694 0.228733
0.0339208 0.0759899 0.0527047
0.0816205 0.0796368 0.0423438
0.288289 0.0843366 0.0211643
0.611139 0.135042 0.0221866
0.907164 0.24538 0.0707256
1 0.378851 0.143389
1 0.474601 0.195987
1 0.520607 0.221775
1 0.530495 0.227863
0.128878 0.209949 0.140856
0.155962 0.208118 0.12224
0.238987 0.221393 0.0993668
0.557443 0.227176 0.0758221
0.861036 0.294423 0.0910048
1 0.401038 0.144793
1 0.483085 0.188098
1 0.522988 0.209552
1 0.531456 0.21387
0.288685 0.428092 0.307774
0.301381 0.422217 0.292683
0.329274 0.417853 0.249363
0.489586 0.437186 0.217884
0.806409 0.449912 0.198169
1 0.507912 0.212131
1 0.563348 0.23595
1 0.591775 0.248859
1 0.597604 0.251652
0.484398 0.660838 0.509758
0.484398 0.660822 0.509743
0.500954 0.644358 0.471275
0.559716 0.641901 0.414618
0.741634 0.667842 0.371313
0.968521 0.682094 0.359167
1 0.70837 0.356954
1 0.723293 0.358282
1 0.726543 0.358526
0.655039 0.840574 0.689754
0.655039 0.840574 0.689754
0.655039 0.840558 0.689738
0.674266 0.814862 0.621729
0.778729 0.820096 0.567987
0.919921 0.845945 0.520119
1 0.8533 0.513893
1 0.858381 0.5066
1 0.859663 0.50486
0.76376 0.941909 0.802518
0.76376 0.941909 0.802518
0.76376 0.941894 0.802518
0.766461 0.927916 0.773373
0.809064 0.922133 0.695232
0.92781 0.929931 0.654551
1 0.946273 0.623194
1 0.946548 0.620539
1 0.946853 0.618524
0.8121 0.983276 0.851743
0.8121 0.983276 0.851743
0.8121 0.983276 0.851743
0.812085 0.983261 0.851728
0.839429 0.961105 0.76199
0.938842 0.96524 0.722728
1 0.983429 0.67657
1 0.985901 0.669963
1 0.985351 0.669383
0.82092 0.990417 0.860609
0.82092 0.990417 0.860609
0.82092 0.990417 0.860609
0.82092 0.990417 0.860609
0.844755 0.967361 0.776165
0.940139 0.971664 0.734798
1 0.98854 0.690776
1 0.993088 0.678676
1 0.992401 0.678599
0.0334936 0.081239 0.0813153
0.0816052 0.0745098 0.0849928
0.312169 0.0612039 0.0923018
0.646586 0.106966 0.0442054
0.933227 0.234852 0.0730144
1 0.375921 0.149233
1 0.474754 0.200397
1 0.520958 0.22385
1 0.530694 0.228733
0.0333257 0.0973678 0.088716
0.0869154 0.096025 0.0778515
0.290547 0.0914626 0.0696422
0.610986 0.138994 0.0424506
0.908461 0.2448 0.0707713
1 0.378683 0.143618
1 0.474617 0.196384
1 0.520684 0.222156
1 0.530571 0.228229
0.127199 0.209339 0.147784
0.157855 0.206592 0.128298
0.239033 0.220157 0.101778
0.557839 0.225696 0.0749218
0.861463 0.293477 0.0904555
1 0.400488 0.144533
1 0.482765 0.187961
1 0.522744 0.209522
1 0.531228 0.213855
0.288167 0.427451 0.307256
0.300862 0.421607 0.292256
0.328771 0.417243 0.24889
0.489677 0.436591 0.217655
0.806531 0.449348 0.197742
1 0.5075 0.211841
1 0.563073 0.235767
1 0.59147 0.248646
1 0.59733 0.251453
0.48423 0.660655 0.509575
0.48423 0.660639 0.509575
0.500771 0.644205 0.471168
0.559579 0.641703 0.41445
0.74165 0.667643 0.371191
0.968582 0.681956 0.359091
1 0.708232 0.356817
1 0.723171 0.35816
1 0.726436 0.358389
0.654994 0.840513 0.689708
0.654994 0.840513 0.689708
0.654978 0.840513 0.689708
0.674205 0.814817 0.621698
0.778683 0.82005 0.567941
0.919921 0.845899 0.520073
1 0.853254 0.513848
1 0.858335 0.506554
1 0.859617 0.504799
0.763745 0.941878 0.802502
0.763745 0.941878 0.802487
0.763745 0.941878 0.802487
0.76643 0.927916 0.773404
0.809049 0.922118 0.695216
0.927794 0.9299 0.654521
1 0.946258 0.623163
1 0.946532 0.620523
1 0.946822 0.618494
0.812085 0.983261 0.851728
0.812085 0.983261 0.851728
0.81207 0.983261 0.851728
0.81207 0.983246 0.851713
0.839429 0.961089 0.761975
0.938842 0.965225 0.722713
1 0.983413 0.676555
1 0.985885 0.669947
1 0.985351 0.669367
0.82092 0.990417 0.860609
0.82092 0.990417 0.860609
0.82092 0.990417 0.860609
0.82092 0.990417 0.860609
0.844755 0.967361 0.776165
0.940139 0.971664 0.734798
1 0.98854 0.690776
1 0.993088 0.678676
1 0.992401 0.678599
0.0945754 0.202457 0.210605
0.131548 0.198718 0.200198
0.271061 0.17763 0.244297
0.62591 0.172534 0.262119
0.946532 0.206195 0.167102
1 0.37583 0.149401
1 0.474739 0.200397
1 0.520958 0.22385
1 0.530694 0.228733
0.0793469 0.198795 0.204593
0.11899 0.195819 0.194003
0.252979 0.180789 0.223041
0.60351 0.177569 0.229618
0.915007 0.241962 0.156573
1 0.378027 0.144656
1 0.474662 0.197757
1 0.520897 0.223529
1 0.530694 0.228733
0.110613 0.251682 0.231708
0.152422 0.244419 0.217716
0.257633 0.240375 0.192432
0.550469 0.243763 0.180545
0.858289 0.2981 0.13698
1 0.39852 0.143664
1 0.481575 0.187747
1 0.521935 0.209323
1 0.530541 0.21387
0.284962 0.425483 0.323934
0.299443 0.419471 0.309285
0.337423 0.411826 0.265599
0.489281 0.434318 0.220844
0.806973 0.447349 0.196475
1 0.50602 0.210773
1 0.562005 0.23505
1 0.590433 0.247913
1 0.596307 0.250736
0.483635 0.659983 0.508949
0.483635 0.659968 0.508949
0.500114 0.643626 0.470771
0.559075 0.641062 0.41387
0.741665 0.666972 0.370825
0.968734 0.681407 0.358618
1 0.707744 0.356344
1 0.722713 0.357733
1 0.725994 0.357931
0.654795 0.84033 0.689555
0.654795 0.840314 0.689555
0.65478 0.840314 0.68954
0.673976 0.814618 0.621561
0.778546 0.819867 0.567727
0.919936 0.845701 0.519905
1 0.853086 0.513695
1 0.858183 0.506386
1 0.859464 0.504601
0.763684 0.941802 0.802411
0.763684 0.941802 0.802396
0.763668 0.941802 0.802396
0.766323 0.927916 0.77348
0.808957 0.922072 0.69514
0.927764 0.929839 0.654429
1 0.946181 0.623072
1 0.946471 0.620417
1 0.946761 0.618387
0.812024 0.983215 0.851667
0.812024 0.983215 0.851667
0.812024 0.983215 0.851667
0.812009 0.9832 0.851667
0.839353 0.961044 0.761944
0.938811 0.965194 0.722637
1 0.983383 0.676478
1 0.985855 0.669886
1 0.985306 0.669322
0.82092 0.990417 0.860609
0.82092 0.990417 0.860609
0.82092 0.990417 0.860609
0.82092 0.990417 0.860609
0.844739 0.967346 0.776196
0.940124 0.971664 0.734798
1 0.98854 0.690776
1 0.993088 0.678676
1 0.992401 0.678599
0.196185 0.387732 0.419501
0.222492 0.382101 0.407492
0.316258 0.368353 0.419425
0.561517 0.351354 0.492729
0.895521 0.363577 0.534539
1 0.386328 0.456153
1 0.474769 0.245823
1 0.520928 0.223835
1 0.530694 0.228733
0.186694 0.381277 0.411704
0.213657 0.37554 0.399939
0.306203 0.364736 0.405325
0.549599 0.347662 0.479011
0.888243 0.360647 0.5205
1 0.383307 0.446891
1 0.477134 0.23859
1 0.520928 0.223819
1 0.530694 0.228733
0.160327 0.382849 0.404761
0.190921 0.375235 0.391165
0.271992 0.368429 0.367407
0.496178 0.350469 0.419196
0.838544 0.358801 0.435843
1 0.384588 0.347509
1 0.479133 0.195331
1 0.519799 0.209583
1 0.528817 0.214694
0.271717 0.487861 0.463355
0.2878 0.480201 0.45211
0.34667 0.459236 0.418128
0.506905 0.459663 0.382086
0.797208 0.466865 0.367147
1 0.510323 0.314199
1 0.557839 0.231983
1 0.586679 0.245472
1 0.592767 0.24799
0.477012 0.656001 0.546502
0.477028 0.655955 0.546044
0.500237 0.638071 0.507652
0.554818 0.637308 0.443458
0.737606 0.663218 0.391241
0.969177 0.679393 0.35671
1 0.706279 0.354971
1 0.721126 0.356237
1 0.724453 0.356451
0.654215 0.83975 0.68896
0.654215 0.83975 0.68896
0.6542 0.839734 0.68896
0.673198 0.813977 0.621057
0.778088 0.819226 0.566979
0.919982 0.845045 0.519326
1 0.852491 0.513176
1 0.857618 0.505867
1 0.858991 0.504005
0.763439 0.941527 0.80209
0.763439 0.941527 0.80209
0.763439 0.941527 0.802075
0.765972 0.927916 0.773785
0.808698 0.921889 0.694926
0.927611 0.92961 0.654063
1 0.945953 0.622766
1 0.946227 0.620111
1 0.946548 0.618036
0.811841 0.983063 0.851484
0.811841 0.983063 0.851484
0.811826 0.983047 0.851469
0.811826 0.983047 0.851469
0.839139 0.960861 0.761837
0.938704 0.965026 0.722408
1 0.983261 0.676188
1 0.985702 0.669703
1 0.985183 0.669154
0.82092 0.990417 0.860609
0.82092 0.990417 0.860609
0.82092 0.990417 0.860609
0.82092 0.990417 0.860609
0.844678 0.96733 0.776303
0.940078 0.971664 0.734829
1 0.98854 0.690806
1 0.993088 0.678676
1 0.992401 0.678599
0.313527 0.592706 0.652018
0.33254 0.585214 0.640223
0.406638 0.577905 0.620325
0.567452 0.55317 0.679179
0.828901 0.55169 0.749905
1 0.562615 0.808179
1 0.59559 0.781994
1 0.595071 0.747402
1 0.589105 0.727504
0.312215 0.59234 0.65182
0.331441 0.584955 0.64007
0.405722 0.577295 0.619532
0.566857 0.552499 0.678447
0.829007 0.551125 0.749416
1 0.562249 0.807279
1 0.59501 0.78085
1 0.594339 0.746044
1 0.588312 0.725963
0.285939 0.571191 0.626398
0.304112 0.564309 0.615564
0.369146 0.554574 0.592142
0.528664 0.537987 0.632898
0.793332 0.533455 0.708934
1 0.550896 0.766735
1 0.58436 0.751583
1 0.586892 0.724971
1 0.5823 0.708888
0.288945 0.608667 0.645502
0.296483 0.604547 0.640177
0.349172 0.582544 0.607233
0.491218 0.578866 0.57557
0.734569 0.560372 0.634546
0.97969 0.571817 0.652735
1 0.586542 0.617761
1 0.585626 0.571313
1 0.581018 0.545983
0.475883 0.727596 0.707546
0.475959 0.72752 0.707393
0.501961 0.70634 0.678737
0.583413 0.682261 0.635538
0.749599 0.688945 0.601495
0.957992 0.696254 0.584955
1 0.715236 0.553307
1 0.724208 0.522606
1 0.725246 0.506371
0.60885 0.851835 0.768872
0.608927 0.851774 0.76875
0.609201 0.85156 0.768277
0.67837 0.807996 0.706752
0.764553 0.818875 0.635325
0.909072 0.8374 0.583932
1 0.846387 0.54139
1 0.855848 0.503563
1 0.857404 0.501732
0.762509 0.940673 0.801083
0.762509 0.940658 0.801068
0.762509 0.940658 0.801068
0.764797 0.927993 0.774853
0.80763 0.921157 0.693996
0.927321 0.92903 0.653056
1 0.945129 0.621881
1 0.945449 0.619104
1 0.945785 0.617014
0.8112 0.982544 0.850843
0.8112 0.982544 0.850843
0.8112 0.982528 0.850843
0.8112 0.982528 0.850843
0.838407 0.960266 0.761486
0.938399 0.964508 0.721645
1 0.982849 0.675273
1 0.985183 0.669139
1 0.98471 0.66865
0.82092 0.990417 0.860609
0.82092 0.990417 0.860609
0.82092 0.990417 0.860609
0.82092 0.990417 0.860609
0.84448 0.967269 0.776638
0.939895 0.971633 0.734905
1 0.98851 0.690867
1 0.993088 0.678676
1 0.992401 0.678599
0.434195 0.763058 0.835889
0.438117 0.760723 0.832975
0.492332 0.746242 0.808423
0.623056 0.730816 0.819287
0.806775 0.703838 0.896361
1 0.723384 0.93463
1 0.704356 0.987305
1 0.724743 0.982147
1 0.729381 0.978378
0.434058 0.762844 0.83566
0.437354 0.760891 0.833265
0.491508 0.746075 0.808362
0.622629 0.730632 0.819074
0.806622 0.703624 0.896193
1 0.723186 0.934447
1 0.704051 0.987228
1 0.724651 0.981933
1 0.72929 0.978134
0.433478 0.762066 0.834882
0.434638 0.761318 0.834089
0.488502 0.745525 0.808164
0.621149 0.729992 0.818128
0.806088 0.702815 0.895537
1 0.72256 0.934051
1 0.702983 0.986969
1 0.724269 0.981292
1 0.728969 0.977386
0.386465 0.734188 0.798291
0.386435 0.734142 0.798245
0.424536 0.713695 0.770214
0.544305 0.705898 0.741222
0.726833 0.683101 0.801694
0.935668 0.685771 0.854063
1 0.672129 0.908125
1 0.699062 0.89926
1 0.702342 0.896483
0.451545 0.813199 0.850568
0.45153 0.813169 0.850538
0.469322 0.798932 0.832822
0.550561 0.771084 0.79086
0.719158 0.771527 0.758831
0.905699 0.756085 0.80528
1 0.758267 0.82063
1 0.765026 0.809903
1 0.765332 0.805539
0.655024 0.902632 0.889509
0.655055 0.902602 0.889479
0.655146 0.902525 0.889326
0.687678 0.866423 0.841733
0.796368 0.852842 0.804959
0.919493 0.861723 0.781384
1 0.864851 0.768826
1 0.867414 0.756603
1 0.867811 0.751904
0.706767 0.973098 0.927871
0.706767 0.973083 0.92784
0.706737 0.973037 0.927733
0.715679 0.960449 0.911009
0.813993 0.923125 0.849989
0.923308 0.929747 0.802121
1 0.942275 0.772732
1 0.941634 0.758938
1 0.941222 0.752071
0.764492 0.996002 0.933257
0.764508 0.995987 0.933211
0.764584 0.995926 0.933074
0.764843 0.995682 0.93254
0.852293 0.949264 0.856336
0.92694 0.961273 0.801129
0.99884 0.972793 0.761379
1 0.977218 0.740185
1 0.976501 0.733135
0.787411 0.996933 0.925551
0.787442 0.996902 0.925505
0.787579 0.996826 0.925322
0.788266 0.99649 0.924636
0.8551 0.956542 0.846983
0.929091 0.967041 0.791363
0.999878 0.979507 0.745312
1 0.986572 0.71693
1 0.986328 0.710719
0.520989 0.866865 0.94136
0.520974 0.86685 0.941344
0.550042 0.853239 0.923476
0.669886 0.839643 0.910307
0.823026 0.818891 0.954986
0.982864 0.816205 1
1 0.826185 1
1 0.820661 1
1 0.817655 1
0.520897 0.866773 0.941268
0.520882 0.866758 0.941253
0.549523 0.853239 0.923552
0.669551 0.839597 0.91017
0.822934 0.81883 0.95491
0.982818 0.816114 1
1 0.826093 1
1 0.820554 1
1 0.817548 1
0.520623 0.866468 0.940963
0.520592 0.866438 0.940932
0.54725 0.853376 0.923903
0.668391 0.839429 0.909697
0.822553 0.818616 0.954635
0.982727 0.815824 1
1 0.825788 1
1 0.820218 1
1 0.817166 1
0.519707 0.865446 0.939941
0.519707 0.865431 0.939941
0.539681 0.854093 0.92546
0.66421 0.838834 0.907988
0.820905 0.817761 0.953353
0.982361 0.814771 1
1 0.824689 1
1 0.818998 1
1 0.815839 1
0.492958 0.872557 0.927245
0.492943 0.872541 0.92723
0.493874 0.871443 0.925795
0.573083 0.834562 0.877333
0.726955 0.831632 0.848447
0.883787 0.810513 0.903243
1 0.814298 0.924544
1 0.809415 0.942992
1 0.806058 0.947509
0.611994 0.950134 0.97409
0.611978 0.950134 0.974075
0.611963 0.950088 0.974029
0.64271 0.917342 0.935546
0.758221 0.900175 0.900694
0.895018 0.903853 0.875349
0.998306 0.893965 0.901488
1 0.886732 0.912993
1 0.888945 0.9084
0.767926 0.996323 0.987106
0.767941 0.996323 0.987091
0.767987 0.996292 0.98703
0.768887 0.994339 0.984482
0.841627 0.95198 0.92314
0.939574 0.949935 0.899229
1 0.95729 0.886641
1 0.956161 0.878767
1 0.955856 0.875486
0.78819 1 1
0.788174 1 1
0.788113 1 1
0.7879 1 1
0.840772 0.983825 0.944976
0.937926 0.977417 0.918257
1 0.983291 0.896315
1 0.988403 0.883406
1 0.987442 0.880278
0.789197 1 1
0.789181 1 1
0.789136 1 1
0.788968 1 1
0.838148 0.99266 0.95111
0.939635 0.984207 0.92253
1 0.99086 0.896971
1 0.996353 0.882399
1 0.996475 0.879271
0.540032 0.887831 0.961898
0.540032 0.887831 0.961898
0.554772 0.878248 0.95024
0.676417 0.862654 0.928222
0.826795 0.842466 0.9682
0.979309 0.835615 1
1 0.850156 1
1 0.850248 1
1 0.849515 1
0.540032 0.887831 0.961898
0.540032 0.887831 0.961898
0.55433 0.878462 0.950515
0.676143 0.862699 0.928176
0.826688 0.842466 0.96817
0.979263 0.835599 1
1 0.850156 1
1 0.850248 1
1 0.849515 1
0.540032 0.887831 0.961898
0.540032 0.887831 0.961898
0.552834 0.87924 0.951507
0.675181 0.862867 0.928008
0.826352 0.842512 0.968032
0.979126 0.835584 1
1 0.850156 1
1 0.850248 1
1 0.849515 1
0.540032 0.887831 0.961898
0.540032 0.887831 0.961898
0.547768 0.882445 0.955276
0.671946 0.863416 0.927352
0.825269 0.842618 0.967514
0.978653 0.835492 1
1 0.850156 1
1 0.850263 1
1 0.849515 1
0.501961 0.882094 0.941604
0.501961 0.882094 0.941604
0.501961 0.882078 0.941604
0.57644 0.846998 0.895796
0.731716 0.844022 0.867613
0.883894 0.823285 0.926055
0.999527 0.828351 0.952651
1 0.830014 0.96788
1 0.829267 0.972381
0.609842 0.963653 0.995331
0.609842 0.963653 0.995331
0.609842 0.963653 0.995331
0.63827 0.933837 0.961059
0.753796 0.914839 0.92575
0.890089 0.917922 0.902449
0.987762 0.907118 0.936843
1 0.907378 0.94342
1 0.906172 0.946578
0.738003 1 1
0.738003 1 1
0.738003 1 1
0.737987 1 1
0.813428 0.971481 0.964813
0.918761 0.967773 0.942641
0.996109 0.973205 0.927657
1 0.967514 0.93724
1 0.965148 0.938918
0.816831 1 1
0.816846 1 1
0.816876 1 1
0.816983 1 1
0.86363 0.9944 0.972885
0.952605 0.988098 0.948302
1 0.992065 0.935821
1 0.994705 0.929274
1 0.993729 0.926207
0.835233 1 1
0.835218 1 1
0.835172 1 1
0.834989 1 1
0.871946 1 0.97705
0.954955 0.996155 0.952789
1 0.999756 0.941482
1 1 0.932082
1 1 0.927977
0.540032 0.887831 0.961898
0.540032 0.887831 0.961898
0.55024 0.880934 0.953414
0.673335 0.863188 0.927657
0.825788 0.842557 0.967742
0.978866 0.835523 1
1 0.850156 1
1 0.850263 1
1 0.849515 1
0.540032 0.887831 0.961898
0.540032 0.887831 0.961898
0.549798 0.881193 0.953735
0.673121 0.863218 0.927596
0.825711 0.842557 0.967697
0.978821 0.835523 1
1 0.850156 1
1 0.850263 1
1 0.849515 1
0.540032 0.887831 0.961898
0.540032 0.887831 0.961898
0.548226 0.88217 0.95494
0.672236 0.863371 0.927398
0.825376 0.842603 0.967559
0.978683 0.835492 1
1 0.850156 1
1 0.850263 1
1 0.849515 1
0.540032 0.887831 0.961898
0.540032 0.887831 0.961898
0.543114 0.885695 0.959319
0.668696 0.863996 0.926818
0.824109 0.842756 0.967102
0.97821 0.835401 1
1 0.850156 1
1 0.850263 1
1 0.849515 1
0.498146 0.877379 0.938476
0.498146 0.877363 0.93846
0.498131 0.877363 0.93846
0.572183 0.843107 0.893812
0.730694 0.838712 0.869429
0.884611 0.817441 0.930083
1 0.824369 0.955291
1 0.826154 0.971176
1 0.825345 0.975723
0.606439 0.961791 0.994018
0.606439 0.961791 0.994018
0.606439 0.961791 0.994018
0.634012 0.93283 0.960937
0.751171 0.91313 0.924681
0.889006 0.916365 0.900938
0.987442 0.905089 0.936812
1 0.905455 0.943481
1 0.904311 0.946777
0.735683 1 1
0.735683 1 1
0.735683 1 1
0.735653 1 1
0.811231 0.970703 0.964538
0.917708 0.966949 0.942138
0.995315 0.973175 0.928573
1 0.96788 0.940642
1 0.966323 0.942397
0.810086 1 1
0.810086 1 1
0.810086 1 1
0.810071 1 1
0.856764 0.997314 0.979767
0.946822 0.991073 0.95639
1 0.995422 0.946151
1 0.998276 0.939712
1 0.996155 0.942565
0.836118 1 1
0.836118 1 1
0.836118 1 1
0.836118 1 1
0.874952 1 0.984421
0.959808 0.999008 0.960113
1 1 0.949401
1 1 0.944762
1 1 0.94316
