samples/LUTs/3D/channel_separation/cdl_offset_power_split_33.cube
LUT_3D_SIZE 9
0.020000 -0.010000 0.039715
0.145000 -0.010000 0.039715
0.270000 -0.010000 0.039715
0.395000 -0.010000 0.039715
0.520000 -0.010000 0.039715
0.645000 -0.010000 0.039715
0.770000 -0.010000 0.039715
0.895000 -0.010000 0.039715
1.020000 -0.010000 0.039715
0.020000 0.096728 0.039715
0.145000 0.096728 0.039715
0.270000 0.096728 0.039715
0.395000 0.096728 0.039715
0.520000 0.096728 0.039715
0.645000 0.096728 0.039715
0.770000 0.096728 0.039715
0.895000 0.096728 0.039715
1.020000 0.096728 0.039715
0.020000 0.214106 0.039715
0.145000 0.214106 0.039715
0.270000 0.214106 0.039715
0.395000 0.214106 0.039715
0.520000 0.214106 0.039715
0.645000 0.214106 0.039715
0.770000 0.214106 0.039715
0.895000 0.214106 0.039715
1.020000 0.214106 0.039715
0.020000 0.336726 0.039715
0.145000 0.336726 0.039715
0.270000 0.336726 0.039715
0.395000 0.336726 0.039715
0.520000 0.336726 0.039715
0.645000 0.336726 0.039715
0.770000 0.336726 0.039715
0.895000 0.336726 0.039715
1.020000 0.336726 0.039715
0.020000 0.462820 0.039715
0.145000 0.462820 0.039715
0.270000 0.462820 0.039715
0.395000 0.462820 0.039715
0.520000 0.462820 0.039715
0.645000 0.462820 0.039715
0.770000 0.462820 0.039715
0.895000 0.462820 0.039715
1.020000 0.462820 0.039715
0.020000 0.591541 0.039715
0.145000 0.591541 0.039715
0.270000 0.591541 0.039715
0.395000 0.591541 0.039715
0.520000 0.591541 0.039715
0.645000 0.591541 0.039715
0.770000 0.591541 0.039715
0.895000 0.591541 0.039715
1.020000 0.591541 0.039715
0.020000 0.722388 0.039715
0.145000 0.722388 0.039715
0.270000 0.722388 0.039715
0.395000 0.722388 0.039715
0.520000 0.722388 0.039715
0.645000 0.722388 0.039715
0.770000 0.722388 0.039715
0.895000 0.722388 0.039715
1.020000 0.722388 0.039715
0.020000 0.855022 0.039715
0.145000 0.855022 0.039715
0.270000 0.855022 0.039715
0.395000 0.855022 0.039715
0.520000 0.855022 0.039715
0.645000 0.855022 0.039715
0.770000 0.855022 0.039715
0.895000 0.855022 0.039715
1.020000 0.855022 0.039715
0.020000 0.989204 0.039715
0.145000 0.989204 0.039715
0.270000 0.989204 0.039715
0.395000 0.989204 0.039715
0.520000 0.989204 0.039715
0.645000 0.989204 0.039715
0.770000 0.989204 0.039715
0.895000 0.989204 0.039715
1.020000 0.989204 0.039715
0.020000 -0.010000 0.179931
0.145000 -0.010000 0.179931
0.270000 -0.010000 0.179931
0.395000 -0.010000 0.179931
0.520000 -0.010000 0.179931
0.645000 -0.010000 0.179931
0.770000 -0.010000 0.179931
0.895000 -0.010000 0.179931
1.020000 -0.010000 0.179931
0.020000 0.096728 0.179931
0.145000 0.096728 0.179931
0.270000 0.096728 0.179931
0.395000 0.096728 0.179931
0.520000 0.096728 0.179931
0.645000 0.096728 0.179931
0.770000 0.096728 0.179931
0.895000 0.096728 0.179931
1.020000 0.096728 0.179931
0.020000 0.214106 0.179931
0.145000 0.214106 0.179931
0.270000 0.214106 0.179931
0.395000 0.214106 0.179931
0.520000 0.214106 0.179931
0.645000 0.214106 0.179931
0.770000 0.214106 0.179931
0.895000 0.214106 0.179931
1.020000 0.214106 0.179931
0.020000 0.336726 0.179931
0.145000 0.336726 0.179931
0.270000 0.336726 0.179931
0.395000 0.336726 0.179931
0.520000 0.336726 0.179931
0.645000 0.336726 0.179931
0.770000 0.336726 0.179931
0.895000 0.336726 0.179931
1.020000 0.336726 0.179931
0.020000 0.462820 0.179931
0.145000 0.462820 0.179931
0.270000 0.462820 0.179931
0.395000 0.462820 0.179931
0.520000 0.462820 0.179931
0.645000 0.462820 0.179931
0.770000 0.462820 0.179931
0.895000 0.462820 0.179931
1.020000 0.462820 0.179931
0.020000 0.591541 0.179931
0.145000 0.591541 0.179931
0.270000 0.591541 0.179931
0.395000 0.591541 0.179931
0.520000 0.591541 0.179931
0.645000 0.591541 0.179931
0.770000 0.591541 0.179931
0.895000 0.591541 0.179931
1.020000 0.591541 0.179931
0.020000 0.722388 0.179931
0.145000 0.722388 0.179931
0.270000 0.722388 0.179931
0.395000 0.722388 0.179931
0.520000 0.722388 0.179931
0.645000 0.722388 0.179931
0.770000 0.722388 0.179931
0.895000 0.722388 0.179931
1.020000 0.722388 0.179931
0.020000 0.855022 0.179931
0.145000 0.855022 0.179931
0.270000 0.855022 0.179931
0.395000 0.855022 0.179931
0.520000 0.855022 0.179931
0.645000 0.855022 0.179931
0.770000 0.855022 0.179931
0.895000 0.855022 0.179931
1.020000 0.855022 0.179931
0.020000 0.989204 0.179931
0.145000 0.989204 0.179931
0.270000 0.989204 0.179931
0.395000 0.989204 0.179931
0.520000 0.989204 0.179931
0.645000 0.989204 0.179931
0.770000 0.989204 0.179931
0.895000 0.989204 0.179931
1.020000 0.989204 0.179931
0.020000 -0.010000 0.310017
0.145000 -0.010000 0.310017
0.270000 -0.010000 0.310017
0.395000 -0.010000 0.310017
0.520000 -0.010000 0.310017
0.645000 -0.010000 0.310017
0.770000 -0.010000 0.310017
0.895000 -0.010000 0.310017
1.020000 -0.010000 0.310017
0.020000 0.096728 0.310017
0.145000 0.096728 0.310017
0.270000 0.096728 0.310017
0.395000 0.096728 0.310017
0.520000 0.096728 0.310017
0.645000 0.096728 0.310017
0.770000 0.096728 0.310017
0.895000 0.096728 0.310017
1.020000 0.096728 0.310017
0.020000 0.214106 0.310017
0.145000 0.214106 0.310017
0.270000 0.214106 0.310017
0.395000 0.214106 0.310017
0.520000 0.214106 0.310017
0.645000 0.214106 0.310017
0.770000 0.214106 0.310017
0.895000 0.214106 0.310017
1.020000 0.214106 0.310017
0.020000 0.336726 0.310017
0.145000 0.336726 0.310017
0.270000 0.336726 0.310017
0.395000 0.336726 0.310017
0.520000 0.336726 0.310017
0.645000 0.336726 0.310017
0.770000 0.336726 0.310017
0.895000 0.336726 0.310017
1.020000 0.336726 0.310017
0.020000 0.462820 0.310017
0.145000 0.462820 0.310017
0.270000 0.462820 0.310017
0.395000 0.462820 0.310017
0.520000 0.462820 0.310017
0.645000 0.462820 0.310017
0.770000 0.462820 0.310017
0.895000 0.462820 0.310017
1.020000 0.462820 0.310017
0.020000 0.591541 0.310017
0.145000 0.591541 0.310017
0.270000 0.591541 0.310017
0.395000 0.591541 0.310017
0.520000 0.591541 0.310017
0.645000 0.591541 0.310017
0.770000 0.591541 0.310017
0.895000 0.591541 0.310017
1.020000 0.591541 0.310017
0.020000 0.722388 0.310017
0.145000 0.722388 0.310017
0.270000 0.722388 0.310017
0.395000 0.722388 0.310017
0.520000 0.722388 0.310017
0.645000 0.722388 0.310017
0.770000 0.722388 0.310017
0.895000 0.722388 0.310017
1.020000 0.722388 0.310017
0.020000 0.855022 0.310017
0.145000 0.855022 0.310017
0.270000 0.855022 0.310017
0.395000 0.855022 0.310017
0.520000 0.855022 0.310017
0.645000 0.855022 0.310017
0.770000 0.855022 0.310017
0.895000 0.855022 0.310017
1.020000 0.855022 0.310017
0.020000 0.989204 0.310017
0.145000 0.989204 0.310017
0.270000 0.989204 0.310017
0.395000 0.989204 0.310017
0.520000 0.989204 0.310017
0.645000 0.989204 0.310017
0.770000 0.989204 0.310017
0.895000 0.989204 0.310017
1.020000 0.989204 0.310017
0.020000 -0.010000 0.435370
0.145000 -0.010000 0.435370
0.270000 -0.010000 0.435370
0.395000 -0.010000 0.435370
0.520000 -0.010000 0.435370
0.645000 -0.010000 0.435370
0.770000 -0.010000 0.435370
0.895000 -0.010000 0.435370
1.020000 -0.010000 0.435370
0.020000 0.096728 0.435370
0.145000 0.096728 0.435370
0.270000 0.096728 0.435370
0.395000 0.096728 0.435370
0.520000 0.096728 0.435370
0.645000 0.096728 0.435370
0.770000 0.096728 0.435370
0.895000 0.096728 0.435370
1.020000 0.096728 0.435370
0.020000 0.214106 0.435370
0.145000 0.214106 0.435370
0.270000 0.214106 0.435370
0.395000 0.214106 0.435370
0.520000 0.214106 0.435370
0.645000 0.214106 0.435370
0.770000 0.214106 0.435370
0.895000 0.214106 0.435370
1.020000 0.214106 0.435370
0.020000 0.336726 0.435370
0.145000 0.336726 0.435370
0.270000 0.336726 0.435370
0.395000 0.336726 0.435370
0.520000 0.336726 0.435370
0.645000 0.336726 0.435370
0.770000 0.336726 0.435370
0.895000 0.336726 0.435370
1.020000 0.336726 0.435370
0.020000 0.462820 0.435370
0.145000 0.462820 0.435370
0.270000 0.462820 0.435370
0.395000 0.462820 0.435370
0.520000 0.462820 0.435370
0.645000 0.462820 0.435370
0.770000 0.462820 0.435370
0.895000 0.462820 0.435370
1.020000 0.462820 0.435370
0.020000 0.591541 0.435370
0.145000 0.591541 0.435370
0.270000 0.591541 0.435370
0.395000 0.591541 0.435370
0.520000 0.591541 0.435370
0.645000 0.591541 0.435370
0.770000 0.591541 0.435370
0.895000 0.591541 0.435370
1.020000 0.591541 0.435370
0.020000 0.722388 0.435370
0.145000 0.722388 0.435370
0.270000 0.722388 0.435370
0.395000 0.722388 0.435370
0.520000 0.722388 0.435370
0.645000 0.722388 0.435370
0.770000 0.722388 0.435370
0.895000 0.722388 0.435370
1.020000 0.722388 0.435370
0.020000 0.855022 0.435370
0.145000 0.855022 0.435370
0.270000 0.855022 0.435370
0.395000 0.855022 0.435370
0.520000 0.855022 0.435370
0.645000 0.855022 0.435370
0.770000 0.855022 0.435370
0.895000 0.855022 0.435370
1.020000 0.855022 0.435370
0.020000 0.989204 0.435370
0.145000 0.989204 0.435370
0.270000 0.989204 0.435370
0.395000 0.989204 0.435370
0.520000 0.989204 0.435370
0.645000 0.989204 0.435370
0.770000 0.989204 0.435370
0.895000 0.989204 0.435370
1.020000 0.989204 0.435370
0.020000 -0.010000 0.557614
0.145000 -0.010000 0.557614
0.270000 -0.010000 0.557614
0.395000 -0.010000 0.557614
0.520000 -0.010000 0.557614
0.645000 -0.010000 0.557614
0.770000 -0.010000 0.557614
0.895000 -0.010000 0.557614
1.020000 -0.010000 0.557614
0.020000 0.096728 0.557614
0.145000 0.096728 0.557614
0.270000 0.096728 0.557614
0.395000 0.096728 0.557614
0.520000 0.096728 0.557614
0.645000 0.096728 0.557614
0.770000 0.096728 0.557614
0.895000 0.096728 0.557614
1.020000 0.096728 0.557614
0.020000 0.214106 0.557614
0.145000 0.214106 0.557614
0.270000 0.214106 0.557614
0.395000 0.214106 0.557614
0.520000 0.214106 0.557614
0.645000 0.214106 0.557614
0.770000 0.214106 0.557614
0.895000 0.214106 0.557614
1.020000 0.214106 0.557614
0.020000 0.336726 0.557614
0.145000 0.336726 0.557614
0.270000 0.336726 0.557614
0.395000 0.336726 0.557614
0.520000 0.336726 0.557614
0.645000 0.336726 0.557614
0.770000 0.336726 0.557614
0.895000 0.336726 0.557614
1.020000 0.336726 0.557614
0.020000 0.462820 0.557614
0.145000 0.462820 0.557614
0.270000 0.462820 0.557614
0.395000 0.462820 0.557614
0.520000 0.462820 0.557614
0.645000 0.462820 0.557614
0.770000 0.462820 0.557614
0.895000 0.462820 0.557614
1.020000 0.462820 0.557614
0.020000 0.591541 0.557614
0.145000 0.591541 0.557614
0.270000 0.591541 0.557614
0.395000 0.591541 0.557614
0.520000 0.591541 0.557614
0.645000 0.591541 0.557614
0.770000 0.591541 0.557614
0.895000 0.591541 0.557614
1.020000 0.591541 0.557614
0.020000 0.722388 0.557614
0.145000 0.722388 0.557614
0.270000 0.722388 0.557614
0.395000 0.722388 0.557614
0.520000 0.722388 0.557614
0.645000 0.722388 0.557614
0.770000 0.722388 0.557614
0.895000 0.722388 0.557614
1.020000 0.722388 0.557614
0.020000 0.855022 0.557614
0.145000 0.855022 0.557614
0.270000 0.855022 0.557614
0.395000 0.855022 0.557614
0.520000 0.855022 0.557614
0.645000 0.855022 0.557614
0.770000 0.855022 0.557614
0.895000 0.855022 0.557614
1.020000 0.855022 0.557614
0.020000 0.989204 0.557614
0.145000 0.989204 0.557614
0.270000 0.989204 0.557614
0.395000 0.989204 0.557614
0.520000 0.989204 0.557614
0.645000 0.989204 0.557614
0.770000 0.989204 0.557614
0.895000 0.989204 0.557614
1.020000 0.989204 0.557614
0.020000 -0.010000 0.677551
0.145000 -0.010000 0.677551
0.270000 -0.010000 0.677551
0.395000 -0.010000 0.677551
0.520000 -0.010000 0.677551
0.645000 -0.010000 0.677551
0.770000 -0.010000 0.677551
0.895000 -0.010000 0.677551
1.020000 -0.010000 0.677551
0.020000 0.096728 0.677551
0.145000 0.096728 0.677551
0.270000 0.096728 0.677551
0.395000 0.096728 0.677551
0.520000 0.096728 0.677551
0.645000 0.096728 0.677551
0.770000 0.096728 0.677551
0.895000 0.096728 0.677551
1.020000 0.096728 0.677551
0.020000 0.214106 0.677551
0.145000 0.214106 0.677551
0.270000 0.214106 0.677551
0.395000 0.214106 0.677551
0.520000 0.214106 0.677551
0.645000 0.214106 0.677551
0.770000 0.214106 0.677551
0.895000 0.214106 0.677551
1.020000 0.214106 0.677551
0.020000 0.336726 0.677551
0.145000 0.336726 0.677551
0.270000 0.336726 0.677551
0.395000 0.336726 0.677551
0.520000 0.336726 0.677551
0.645000 0.336726 0.677551
0.770000 0.336726 0.677551
0.895000 0.336726 0.677551
1.020000 0.336726 0.677551
0.020000 0.462820 0.677551
0.145000 0.462820 0.677551
0.270000 0.462820 0.677551
0.395000 0.462820 0.677551
0.520000 0.462820 0.677551
0.645000 0.462820 0.677551
0.770000 0.462820 0.677551
0.895000 0.462820 0.677551
1.020000 0.462820 0.677551
0.020000 0.591541 0.677551
0.145000 0.591541 0.677551
0.270000 0.591541 0.677551
0.395000 0.591541 0.677551
0.520000 0.591541 0.677551
0.645000 0.591541 0.677551
0.770000 0.591541 0.677551
0.895000 0.591541 0.677551
1.020000 0.591541 0.677551
0.020000 0.722388 0.677551
0.145000 0.722388 0.677551
0.270000 0.722388 0.677551
0.395000 0.722388 0.677551
0.520000 0.722388 0.677551
0.645000 0.722388 0.677551
0.770000 0.722388 0.677551
0.895000 0.722388 0.677551
1.020000 0.722388 0.677551
0.020000 0.855022 0.677551
0.145000 0.855022 0.677551
0.270000 0.855022 0.677551
0.395000 0.855022 0.677551
0.520000 0.855022 0.677551
0.645000 0.855022 0.677551
0.770000 0.855022 0.677551
0.895000 0.855022 0.677551
1.020000 0.855022 0.677551
0.020000 0.989204 0.677551
0.145000 0.989204 0.677551
0.270000 0.989204 0.677551
0.395000 0.989204 0.677551
0.520000 0.989204 0.677551
0.645000 0.989204 0.677551
0.770000 0.989204 0.677551
0.895000 0.989204 0.677551
1.020000 0.989204 0.677551
0.020000 -0.010000 0.795659
0.145000 -0.010000 0.795659
0.270000 -0.010000 0.795659
0.395000 -0.010000 0.795659
0.520000 -0.010000 0.795659
0.645000 -0.010000 0.795659
0.770000 -0.010000 0.795659
0.895000 -0.010000 0.795659
1.020000 -0.010000 0.795659
0.020000 0.096728 0.795659
0.145000 0.096728 0.795659
0.270000 0.096728 0.795659
0.395000 0.096728 0.795659
0.520000 0.096728 0.795659
0.645000 0.096728 0.795659
0.770000 0.096728 0.795659
0.895000 0.096728 0.795659
1.020000 0.096728 0.795659
0.020000 0.214106 0.795659
0.145000 0.214106 0.795659
0.270000 0.214106 0.795659
0.395000 0.214106 0.795659
0.520000 0.214106 0.795659
0.645000 0.214106 0.795659
0.770000 0.214106 0.795659
0.895000 0.214106 0.795659
1.020000 0.214106 0.795659
0.020000 0.336726 0.795659
0.145000 0.336726 0.795659
0.270000 0.336726 0.795659
0.395000 0.336726 0.795659
0.520000 0.336726 0.795659
0.645000 0.336726 0.795659
0.770000 0.336726 0.795659
0.895000 0.336726 0.795659
1.020000 0.336726 0.795659
0.020000 0.462820 0.795659
0.145000 0.462820 0.795659
0.270000 0.462820 0.795659
0.395000 0.462820 0.795659
0.520000 0.462820 0.795659
0.645000 0.462820 0.795659
0.770000 0.462820 0.795659
0.895000 0.462820 0.795659
1.020000 0.462820 0.795659
0.020000 0.591541 0.795659
0.145000 0.591541 0.795659
0.270000 0.591541 0.795659
0.395000 0.591541 0.795659
0.520000 0.591541 0.795659
0.645000 0.591541 0.795659
0.770000 0.591541 0.795659
0.895000 0.591541 0.795659
1.020000 0.591541 0.795659
0.020000 0.722388 0.795659
0.145000 0.722388 0.795659
0.270000 0.722388 0.795659
0.395000 0.722388 0.795659
0.520000 0.722388 0.795659
0.645000 0.722388 0.795659
0.770000 0.722388 0.795659
0.895000 0.722388 0.795659
1.020000 0.722388 0.795659
0.020000 0.855022 0.795659
0.145000 0.855022 0.795659
0.270000 0.855022 0.795659
0.395000 0.855022 0.795659
0.520000 0.855022 0.795659
0.645000 0.855022 0.795659
0.770000 0.855022 0.795659
0.895000 0.855022 0.795659
1.020000 0.855022 0.795659
0.020000 0.989204 0.795659
0.145000 0.989204 0.795659
0.270000 0.989204 0.795659
0.395000 0.989204 0.795659
0.520000 0.989204 0.795659
0.645000 0.989204 0.795659
0.770000 0.989204 0.795659
0.895000 0.989204 0.795659
1.020000 0.989204 0.795659
0.020000 -0.010000 0.912256
0.145000 -0.010000 0.912256
0.270000 -0.010000 0.912256
0.395000 -0.010000 0.912256
0.520000 -0.010000 0.912256
0.645000 -0.010000 0.912256
0.770000 -0.010000 0.912256
0.895000 -0.010000 0.912256
1.020000 -0.010000 0.912256
0.020000 0.096728 0.912256
0.145000 0.096728 0.912256
0.270000 0.096728 0.912256
0.395000 0.096728 0.912256
0.520000 0.096728 0.912256
0.645000 0.096728 0.912256
0.770000 0.096728 0.912256
0.895000 0.096728 0.912256
1.020000 0.096728 0.912256
0.020000 0.214106 0.912256
0.145000 0.214106 0.912256
0.270000 0.214106 0.912256
0.395000 0.214106 0.912256
0.520000 0.214106 0.912256
0.645000 0.214106 0.912256
0.770000 0.214106 0.912256
0.895000 0.214106 0.912256
1.020000 0.214106 0.912256
0.020000 0.336726 0.912256
0.145000 0.336726 0.912256
0.270000 0.336726 0.912256
0.395000 0.336726 0.912256
0.520000 0.336726 0.912256
0.645000 0.336726 0.912256
0.770000 0.336726 0.912256
0.895000 0.336726 0.912256
1.020000 0.336726 0.912256
0.020000 0.462820 0.912256
0.145000 0.462820 0.912256
0.270000 0.462820 0.912256
0.395000 0.462820 0.912256
0.520000 0.462820 0.912256
0.645000 0.462820 0.912256
0.770000 0.462820 0.912256
0.895000 0.462820 0.912256
1.020000 0.462820 0.912256
0.020000 0.591541 0.912256
0.145000 0.591541 0.912256
0.270000 0.591541 0.912256
0.395000 0.591541 0.912256
0.520000 0.591541 0.912256
0.645000 0.591541 0.912256
0.770000 0.591541 0.912256
0.895000 0.591541 0.912256
1.020000 0.591541 0.912256
0.020000 0.722388 0.912256
0.145000 0.722388 0.912256
0.270000 0.722388 0.912256
0.395000 0.722388 0.912256
0.520000 0.722388 0.912256
0.645000 0.722388 0.912256
0.770000 0.722388 0.912256
0.895000 0.722388 0.912256
1.020000 0.722388 0.912256
0.020000 0.855022 0.912256
0.145000 0.855022 0.912256
0.270000 0.855022 0.912256
0.395000 0.855022 0.912256
0.520000 0.855022 0.912256
0.645000 0.855022 0.912256
0.770000 0.855022 0.912256
0.895000 0.855022 0.912256
1.020000 0.855022 0.912256
0.020000 0.989204 0.912256
0.145000 0.989204 0.912256
0.270000 0.989204 0.912256
0.395000 0.989204 0.912256
0.520000 0.989204 0.912256
0.645000 0.989204 0.912256
0.770000 0.989204 0.912256
0.895000 0.989204 0.912256
1.020000 0.989204 0.912256
0.020000 -0.010000 1.027567
0.145000 -0.010000 1.027567
0.270000 -0.010000 1.027567
0.395000 -0.010000 1.027567
0.520000 -0.010000 1.027567
0.645000 -0.010000 1.027567
0.770000 -0.010000 1.027567
0.895000 -0.010000 1.027567
1.020000 -0.010000 1.027567
0.020000 0.096728 1.027567
0.145000 0.096728 1.027567
0.270000 0.096728 1.027567
0.395000 0.096728 1.027567
0.520000 0.096728 1.027567
0.645000 0.096728 1.027567
0.770000 0.096728 1.027567
0.895000 0.096728 1.027567
1.020000 0.096728 1.027567
0.020000 0.214106 1.027567
0.145000 0.214106 1.027567
0.270000 0.214106 1.027567
0.395000 0.214106 1.027567
0.520000 0.214106 1.027567
0.645000 0.214106 1.027567
0.770000 0.214106 1.027567
0.895000 0.214106 1.027567
1.020000 0.214106 1.027567
0.020000 0.336726 1.027567
0.145000 0.336726 1.027567
0.270000 0.336726 1.027567
0.395000 0.336726 1.027567
0.520000 0.336726 1.027567
0.645000 0.336726 1.027567
0.770000 0.336726 1.027567
0.895000 0.336726 1.027567
1.020000 0.336726 1.027567
0.020000 0.462820 1.027567
0.145000 0.462820 1.027567
0.270000 0.462820 1.027567
0.395000 0.462820 1.027567
0.520000 0.462820 1.027567
0.645000 0.462820 1.027567
0.770000 0.462820 1.027567
0.895000 0.462820 1.027567
1.020000 0.462820 1.027567
0.020000 0.591541 1.027567
0.145000 0.591541 1.027567
0.270000 0.591541 1.027567
0.395000 0.591541 1.027567
0.520000 0.591541 1.027567
0.645000 0.591541 1.027567
0.770000 0.591541 1.027567
0.895000 0.591541 1.027567
1.020000 0.591541 1.027567
0.020000 0.722388 1.027567
0.145000 0.722388 1.027567
0.270000 0.722388 1.027567
0.395000 0.722388 1.027567
0.520000 0.722388 1.027567
0.645000 0.722388 1.027567
0.770000 0.722388 1.027567
0.895000 0.722388 1.027567
1.020000 0.722388 1.027567
0.020000 0.855022 1.027567
0.145000 0.855022 1.027567
0.270000 0.855022 1.027567
0.395000 0.855022 1.027567
0.520000 0.855022 1.027567
0.645000 0.855022 1.027567
0.770000 0.855022 1.027567
0.895000 0.855022 1.027567
1.020000 0.855022 1.027567
0.020000 0.989204 1.027567
0.145000 0.989204 1.027567
0.270000 0.989204 1.027567
0.395000 0.989204 1.027567
0.520000 0.989204 1.027567
0.645000 0.989204 1.027567
0.770000 0.989204 1.027567
0.895000 0.989204 1.027567
1.020000 0.989204 1.027567
