samples/LUTs/3D/channel_separation/cdl_offset_power_split_33.cube
LUT_3D_SIZE 33
0.020000 -0.010000 0.039715
0.051250 -0.010000 0.039715
0.082500 -0.010000 0.039715
0.113750 -0.010000 0.039715
0.145000 -0.010000 0.039715
0.176250 -0.010000 0.039715
0.207500 -0.010000 0.039715
0.238750 -0.010000 0.039715
0.270000 -0.010000 0.039715
0.301250 -0.010000 0.039715
0.332500 -0.010000 0.039715
0.363750 -0.010000 0.039715
0.395000 -0.010000 0.039715
0.426250 -0.010000 0.039715
0.457500 -0.010000 0.039715
0.488750 -0.010000 0.039715
0.520000 -0.010000 0.039715
0.551250 -0.010000 0.039715
0.582500 -0.010000 0.039715
0.613750 -0.010000 0.039715
0.645000 -0.010000 0.039715
0.676250 -0.010000 0.039715
0.707500 -0.010000 0.039715
0.738750 -0.010000 0.039715
0.770000 -0.010000 0.039715
0.801250 -0.010000 0.039715
0.832500 -0.010000 0.039715
0.863750 -0.010000 0.039715
0.895000 -0.010000 0.039715
0.926250 -0.010000 0.039715
0.957500 -0.010000 0.039715
0.988750 -0.010000 0.039715
1.020000 -0.010000 0.039715
0.020000 0.015615 0.039715
0.051250 0.015615 0.039715
0.082500 0.015615 0.039715
0.113750 0.015615 0.039715
0.145000 0.015615 0.039715
0.176250 0.015615 0.039715
0.207500 0.015615 0.039715
0.238750 0.015615 0.039715
0.270000 0.015615 0.039715
0.301250 0.015615 0.039715
0.332500 0.015615 0.039715
0.363750 0.015615 0.039715
0.395000 0.015615 0.039715
0.426250 0.015615 0.039715
0.457500 0.015615 0.039715
0.488750 0.015615 0.039715
0.520000 0.015615 0.039715
0.551250 0.015615 0.039715
0.582500 0.015615 0.039715
0.613750 0.015615 0.039715
0.645000 0.015615 0.039715
0.676250 0.015615 0.039715
0.707500 0.015615 0.039715
0.738750 0.015615 0.039715
0.770000 0.015615 0.039715
0.801250 0.015615 0.039715
0.832500 0.015615 0.039715
0.863750 0.015615 0.039715
0.895000 0.015615 0.039715
0.926250 0.015615 0.039715
0.957500 0.015615 0.039715
0.988750 0.015615 0.039715
1.020000 0.015615 0.039715
0.020000 0.041474 0.039715
0.051250 0.041474 0.039715
0.082500 0.041474 0.039715
0.113750 0.041474 0.039715
0.145000 0.041474 0.039715
0.176250 0.041474 0.039715
0.207500 0.041474 0.039715
0.238750 0.041474 0.039715
0.270000 0.041474 0.039715
0.301250 0.041474 0.039715
0.332500 0.041474 0.039715
0.363750 0.041474 0.039715
0.395000 0.041474 0.039715
0.426250 0.041474 0.039715
0.457500 0.041474 0.039715
0.488750 0.041474 0.039715
0.520000 0.041474 0.039715
0.551250 0.041474 0.039715
0.582500 0.041474 0.039715
0.613750 0.041474 0.039715
0.645000 0.041474 0.039715
0.676250 0.041474 0.039715
0.707500 0.041474 0.039715
0.738750 0.041474 0.039715
0.770000 0.041474 0.039715
0.801250 0.041474 0.039715
0.832500 0.041474 0.039715
0.863750 0.041474 0.039715
0.895000 0.041474 0.039715
0.926250 0.041474 0.039715
0.957500 0.041474 0.039715
0.988750 0.041474 0.039715
1.020000 0.041474 0.039715
0.020000 0.068679 0.039715
0.051250 0.068679 0.039715
0.082500 0.068679 0.039715
0.113750 0.068679 0.039715
0.145000 0.068679 0.039715
0.176250 0.068679 0.039715
0.207500 0.068679 0.039715
0.238750 0.068679 0.039715
0.270000 0.068679 0.039715
0.301250 0.068679 0.039715
0.332500 0.068679 0.039715
0.363750 0.068679 0.039715
0.395000 0.068679 0.039715
0.426250 0.068679 0.039715
0.457500 0.068679 0.039715
0.488750 0.068679 0.039715
0.520000 0.068679 0.039715
0.551250 0.068679 0.039715
0.582500 0.068679 0.039715
0.613750 0.068679 0.039715
0.645000 0.068679 0.039715
0.676250 0.068679 0.039715
0.707500 0.068679 0.039715
0.738750 0.068679 0.039715
0.770000 0.068679 0.039715
0.801250 0.068679 0.039715
0.832500 0.068679 0.039715
0.863750 0.068679 0.039715
0.895000 0.068679 0.039715
0.926250 0.068679 0.039715
0.957500 0.068679 0.039715
0.988750 0.068679 0.039715
1.020000 0.068679 0.039715
0.020000 0.096728 0.039715
0.051250 0.096728 0.039715
0.082500 0.096728 0.039715
0.113750 0.096728 0.039715
0.145000 0.096728 0.039715
0.176250 0.096728 0.039715
0.207500 0.096728 0.039715
0.238750 0.096728 0.039715
0.270000 0.096728 0.039715
0.301250 0.096728 0.039715
0.332500 0.096728 0.039715
0.363750 0.096728 0.039715
0.395000 0.096728 0.039715
0.426250 0.096728 0.039715
0.457500 0.096728 0.039715
0.488750 0.096728 0.039715
0.520000 0.096728 0.039715
0.551250 0.096728 0.039715
0.582500 0.096728 0.039715
0.613750 0.096728 0.039715
0.645000 0.096728 0.039715
0.676250 0.096728 0.039715
0.707500 0.096728 0.039715
0.738750 0.096728 0.039715
0.770000 0.096728 0.039715
0.801250 0.096728 0.039715
0.832500 0.096728 0.039715
0.863750 0.096728 0.039715
0.895000 0.096728 0.039715
0.926250 0.096728 0.039715
0.957500 0.096728 0.039715
0.988750 0.096728 0.039715
1.020000 0.096728 0.039715
0.020000 0.125402 0.039715
0.051250 0.125402 0.039715
0.082500 0.125402 0.039715
0.113750 0.125402 0.039715
0.145000 0.125402 0.039715
0.176250 0.125402 0.039715
0.207500 0.125402 0.039715
0.238750 0.125402 0.039715
0.270000 0.125402 0.039715
0.301250 0.125402 0.039715
0.332500 0.125402 0.039715
0.363750 0.125402 0.039715
0.395000 0.125402 0.039715
0.426250 0.125402 0.039715
0.457500 0.125402 0.039715
0.488750 0.125402 0.039715
0.520000 0.125402 0.039715
0.551250 0.125402 0.039715
0.582500 0.125402 0.039715
0.613750 0.125402 0.039715
0.645000 0.125402 0.039715
0.676250 0.125402 0.039715
0.707500 0.125402 0.039715
0.738750 0.125402 0.039715
0.770000 0.125402 0.039715
0.801250 0.125402 0.039715
0.832500 0.125402 0.039715
0.863750 0.125402 0.039715
0.895000 0.125402 0.039715
0.926250 0.125402 0.039715
0.957500 0.125402 0.039715
0.988750 0.125402 0.039715
1.020000 0.125402 0.039715
0.020000 0.154573 0.039715
0.051250 0.154573 0.039715
0.082500 0.154573 0.039715
0.113750 0.154573 0.039715
0.145000 0.154573 0.039715
0.176250 0.154573 0.039715
0.207500 0.154573 0.039715
0.238750 0.154573 0.039715
0.270000 0.154573 0.039715
0.301250 0.154573 0.039715
0.332500 0.154573 0.039715
0.363750 0.154573 0.039715
0.395000 0.154573 0.039715
0.426250 0.154573 0.039715
0.457500 0.154573 0.039715
0.488750 0.154573 0.039715
0.520000 0.154573 0.039715
0.551250 0.154573 0.039715
0.582500 0.154573 0.039715
0.613750 0.154573 0.039715
0.645000 0.154573 0.039715
0.676250 0.154573 0.039715
0.707500 0.154573 0.039715
0.738750 0.154573 0.039715
0.770000 0.154573 0.039715
0.801250 0.154573 0.039715
0.832500 0.154573 0.039715
0.863750 0.154573 0.039715
0.895000 0.154573 0.039715
0.926250 0.154573 0.039715
0.957500 0.154573 0.039715
0.988750 0.154573 0.039715
1.020000 0.154573 0.039715
0.020000 0.184161 0.039715
0.051250 0.184161 0.039715
0.082500 0.184161 0.039715
0.113750 0.184161 0.039715
0.145000 0.184161 0.039715
0.176250 0.184161 0.039715
0.207500 0.184161 0.039715
0.238750 0.184161 0.039715
0.270000 0.184161 0.039715
0.301250 0.184161 0.039715
0.332500 0.184161 0.039715
0.363750 0.184161 0.039715
0.395000 0.184161 0.039715
0.426250 0.184161 0.039715
0.457500 0.184161 0.039715
0.488750 0.184161 0.039715
0.520000 0.184161 0.039715
0.551250 0.184161 0.039715
0.582500 0.184161 0.039715
0.613750 0.184161 0.039715
0.645000 0.184161 0.039715
0.676250 0.184161 0.039715
0.707500 0.184161 0.039715
0.738750 0.184161 0.039715
0.770000 0.184161 0.039715
0.801250 0.184161 0.039715
0.832500 0.184161 0.039715
0.863750 0.184161 0.039715
0.895000 0.184161 0.039715
0.926250 0.184161 0.039715
0.957500 0.184161 0.039715
0.988750 0.184161 0.039715
1.020000 0.184161 0.039715
0.020000 0.214106 0.039715
0.051250 0.214106 0.039715
0.082500 0.214106 0.039715
0.113750 0.214106 0.039715
0.145000 0.214106 0.039715
0.176250 0.214106 0.039715
0.207500 0.214106 0.039715
0.238750 0.214106 0.039715
0.270000 0.214106 0.039715
0.301250 0.214106 0.039715
0.332500 0.214106 0.039715
0.363750 0.214106 0.039715
0.395000 0.214106 0.039715
0.426250 0.214106 0.039715
0.457500 0.214106 0.039715
0.488750 0.214106 0.039715
0.520000 0.214106 0.039715
0.551250 0.214106 0.039715
0.582500 0.214106 0.039715
0.613750 0.214106 0.039715
0.645000 0.214106 0.039715
0.676250 0.214106 0.039715
0.707500 0.214106 0.039715
0.738750 0.214106 0.039715
0.770000 0.214106 0.039715
0.801250 0.214106 0.039715
0.832500 0.214106 0.039715
0.863750 0.214106 0.039715
0.895000 0.214106 0.039715
0.926250 0.214106 0.039715
0.957500 0.214106 0.039715
0.988750 0.214106 0.039715
1.020000 0.214106 0.039715
0.020000 0.244365 0.039715
0.051250 0.244365 0.039715
0.082500 0.244365 0.039715
0.113750 0.244365 0.039715
0.145000 0.244365 0.039715
0.176250 0.244365 0.039715
0.207500 0.244365 0.039715
0.238750 0.244365 0.039715
0.270000 0.244365 0.039715
0.301250 0.244365 0.039715
0.332500 0.244365 0.039715
0.363750 0.244365 0.039715
0.395000 0.244365 0.039715
0.426250 0.244365 0.039715
0.457500 0.244365 0.039715
0.488750 0.244365 0.039715
0.520000 0.244365 0.039715
0.551250 0.244365 0.039715
0.582500 0.244365 0.039715
0.613750 0.244365 0.039715
0.645000 0.244365 0.039715
0.676250 0.244365 0.039715
0.707500 0.244365 0.039715
0.738750 0.244365 0.039715
0.770000 0.244365 0.039715
0.801250 0.244365 0.039715
0.832500 0.244365 0.039715
0.863750 0.244365 0.039715
0.895000 0.244365 0.039715
0.926250 0.244365 0.039715
0.957500 0.244365 0.039715
0.988750 0.244365 0.039715
1.020000 0.244365 0.039715
0.020000 0.274905 0.039715
0.051250 0.274905 0.039715
0.082500 0.274905 0.039715
0.113750 0.274905 0.039715
0.145000 0.274905 0.039715
0.176250 0.274905 0.039715
0.207500 0.274905 0.039715
0.238750 0.274905 0.039715
0.270000 0.274905 0.039715
0.301250 0.274905 0.039715
0.332500 0.274905 0.039715
0.363750 0.274905 0.039715
0.395000 0.274905 0.039715
0.426250 0.274905 0.039715
0.457500 0.274905 0.039715
0.488750 0.274905 0.039715
0.520000 0.274905 0.039715
0.551250 0.274905 0.039715
0.582500 0.274905 0.039715
0.613750 0.274905 0.039715
0.645000 0.274905 0.039715
0.676250 0.274905 0.039715
0.707500 0.274905 0.039715
0.738750 0.274905 0.039715
0.770000 0.274905 0.039715
0.801250 0.274905 0.039715
0.832500 0.274905 0.039715
0.863750 0.274905 0.039715
0.895000 0.274905 0.039715
0.926250 0.274905 0.039715
0.957500 0.274905 0.039715
0.988750 0.274905 0.039715
1.020000 0.274905 0.039715
0.020000 0.305700 0.039715
0.051250 0.305700 0.039715
0.082500 0.305700 0.039715
0.113750 0.305700 0.039715
0.145000 0.305700 0.039715
0.176250 0.305700 0.039715
0.207500 0.305700 0.039715
0.238750 0.305700 0.039715
0.270000 0.305700 0.039715
0.301250 0.305700 0.039715
0.332500 0.305700 0.039715
0.363750 0.305700 0.039715
0.395000 0.305700 0.039715
0.426250 0.305700 0.039715
0.457500 0.305700 0.039715
0.488750 0.305700 0.039715
0.520000 0.305700 0.039715
0.551250 0.305700 0.039715
0.582500 0.305700 0.039715
0.613750 0.305700 0.039715
0.645000 0.305700 0.039715
0.676250 0.305700 0.039715
0.707500 0.305700 0.039715
0.738750 0.305700 0.039715
0.770000 0.305700 0.039715
0.801250 0.305700 0.039715
0.832500 0.305700 0.039715
0.863750 0.305700 0.039715
0.895000 0.305700 0.039715
0.926250 0.305700 0.039715
0.957500 0.305700 0.039715
0.988750 0.305700 0.039715
1.020000 0.305700 0.039715
0.020000 0.336726 0.039715
0.051250 0.336726 0.039715
0.082500 0.336726 0.039715
0.113750 0.336726 0.039715
0.145000 0.336726 0.039715
0.176250 0.336726 0.039715
0.207500 0.336726 0.039715
0.238750 0.336726 0.039715
0.270000 0.336726 0.039715
0.301250 0.336726 0.039715
0.332500 0.336726 0.039715
0.363750 0.336726 0.039715
0.395000 0.336726 0.039715
0.426250 0.336726 0.039715
0.457500 0.336726 0.039715
0.488750 0.336726 0.039715
0.520000 0.336726 0.039715
0.551250 0.336726 0.039715
0.582500 0.336726 0.039715
0.613750 0.336726 0.039715
0.645000 0.336726 0.039715
0.676250 0.336726 0.039715
0.707500 0.336726 0.039715
0.738750 0.336726 0.039715
0.770000 0.336726 0.039715
0.801250 0.336726 0.039715
0.832500 0.336726 0.039715
0.863750 0.336726 0.039715
0.895000 0.336726 0.039715
0.926250 0.336726 0.039715
0.957500 0.336726 0.039715
0.988750 0.336726 0.039715
1.020000 0.336726 0.039715
0.020000 0.367965 0.039715
0.051250 0.367965 0.039715
0.082500 0.367965 0.039715
0.113750 0.367965 0.039715
0.145000 0.367965 0.039715
0.176250 0.367965 0.039715
0.207500 0.367965 0.039715
0.238750 0.367965 0.039715
0.270000 0.367965 0.039715
0.301250 0.367965 0.039715
0.332500 0.367965 0.039715
0.363750 0.367965 0.039715
0.395000 0.367965 0.039715
0.426250 0.367965 0.039715
0.457500 0.367965 0.039715
0.488750 0.367965 0.039715
0.520000 0.367965 0.039715
0.551250 0.367965 0.039715
0.582500 0.367965 0.039715
0.613750 0.367965 0.039715
0.645000 0.367965 0.039715
0.676250 0.367965 0.039715
0.707500 0.367965 0.039715
0.738750 0.367965 0.039715
0.770000 0.367965 0.039715
0.801250 0.367965 0.039715
0.832500 0.367965 0.039715
0.863750 0.367965 0.039715
0.895000 0.367965 0.039715
0.926250 0.367965 0.039715
0.957500 0.367965 0.039715
0.988750 0.367965 0.039715
1.020000 0.367965 0.039715
0.020000 0.399403 0.039715
0.051250 0.399403 0.039715
0.082500 0.399403 0.039715
0.113750 0.399403 0.039715
0.145000 0.399403 0.039715
0.176250 0.399403 0.039715
0.207500 0.399403 0.039715
0.238750 0.399403 0.039715
0.270000 0.399403 0.039715
0.301250 0.399403 0.039715
0.332500 0.399403 0.039715
0.363750 0.399403 0.039715
0.395000 0.399403 0.039715
0.426250 0.399403 0.039715
0.457500 0.399403 0.039715
0.488750 0.399403 0.039715
0.520000 0.399403 0.039715
0.551250 0.399403 0.039715
0.582500 0.399403 0.039715
0.613750 0.399403 0.039715
0.645000 0.399403 0.039715
0.676250 0.399403 0.039715
0.707500 0.399403 0.039715
0.738750 0.399403 0.039715
0.770000 0.399403 0.039715
0.801250 0.399403 0.039715
0.832500 0.399403 0.039715
0.863750 0.399403 0.039715
0.895000 0.399403 0.039715
0.926250 0.399403 0.039715
0.957500 0.399403 0.039715
0.988750 0.399403 0.039715
1.020000 0.399403 0.039715
0.020000 0.431025 0.039715
0.051250 0.431025 0.039715
0.082500 0.431025 0.039715
0.113750 0.431025 0.039715
0.145000 0.431025 0.039715
0.176250 0.431025 0.039715
0.207500 0.431025 0.039715
0.238750 0.431025 0.039715
0.270000 0.431025 0.039715
0.301250 0.431025 0.039715
0.332500 0.431025 0.039715
0.363750 0.431025 0.039715
0.395000 0.431025 0.039715
0.426250 0.431025 0.039715
0.457500 0.431025 0.039715
0.488750 0.431025 0.039715
0.520000 0.431025 0.039715
0.551250 0.431025 0.039715
0.582500 0.431025 0.039715
0.613750 0.431025 0.039715
0.645000 0.431025 0.039715
0.676250 0.431025 0.039715
0.707500 0.431025 0.039715
0.738750 0.431025 0.039715
0.770000 0.431025 0.039715
0.801250 0.431025 0.039715
0.832500 0.431025 0.039715
0.863750 0.431025 0.039715
0.895000 0.431025 0.039715
0.926250 0.431025 0.039715
0.957500 0.431025 0.039715
0.988750 0.431025 0.039715
1.020000 0.431025 0.039715
0.020000 0.462820 0.039715
0.051250 0.462820 0.039715
0.082500 0.462820 0.039715
0.113750 0.462820 0.039715
0.145000 0.462820 0.039715
0.176250 0.462820 0.039715
0.207500 0.462820 0.039715
0.238750 0.462820 0.039715
0.270000 0.462820 0.039715
0.301250 0.462820 0.039715
0.332500 0.462820 0.039715
0.363750 0.462820 0.039715
0.395000 0.462820 0.039715
0.426250 0.462820 0.039715
0.457500 0.462820 0.039715
0.488750 0.462820 0.039715
0.520000 0.462820 0.039715
0.551250 0.462820 0.039715
0.582500 0.462820 0.039715
0.613750 0.462820 0.039715
0.645000 0.462820 0.039715
0.676250 0.462820 0.039715
0.707500 0.462820 0.039715
0.738750 0.462820 0.039715
0.770000 0.462820 0.039715
0.801250 0.462820 0.039715
0.832500 0.462820 0.039715
0.863750 0.462820 0.039715
0.895000 0.462820 0.039715
0.926250 0.462820 0.039715
0.957500 0.462820 0.039715
0.988750 0.462820 0.039715
1.020000 0.462820 0.039715
0.020000 0.494777 0.039715
0.051250 0.494777 0.039715
0.082500 0.494777 0.039715
0.113750 0.494777 0.039715
0.145000 0.494777 0.039715
0.176250 0.494777 0.039715
0.207500 0.494777 0.039715
0.238750 0.494777 0.039715
0.270000 0.494777 0.039715
0.301250 0.494777 0.039715
0.332500 0.494777 0.039715
0.363750 0.494777 0.039715
0.395000 0.494777 0.039715
0.426250 0.494777 0.039715
0.457500 0.494777 0.039715
0.488750 0.494777 0.039715
0.520000 0.494777 0.039715
0.551250 0.494777 0.039715
0.582500 0.494777 0.039715
0.613750 0.494777 0.039715
0.645000 0.494777 0.039715
0.676250 0.494777 0.039715
0.707500 0.494777 0.039715
0.738750 0.494777 0.039715
0.770000 0.494777 0.039715
0.801250 0.494777 0.039715
0.832500 0.494777 0.039715
0.863750 0.494777 0.039715
0.895000 0.494777 0.039715
0.926250 0.494777 0.039715
0.957500 0.494777 0.039715
0.988750 0.494777 0.039715
1.020000 0.494777 0.039715
0.020000 0.526889 0.039715
0.051250 0.526889 0.039715
0.082500 0.526889 0.039715
0.113750 0.526889 0.039715
0.145000 0.526889 0.039715
0.176250 0.526889 0.039715
0.207500 0.526889 0.039715
0.238750 0.526889 0.039715
0.270000 0.526889 0.039715
0.301250 0.526889 0.039715
0.332500 0.526889 0.039715
0.363750 0.526889 0.039715
0.395000 0.526889 0.039715
0.426250 0.526889 0.039715
0.457500 0.526889 0.039715
0.488750 0.526889 0.039715
0.520000 0.526889 0.039715
0.551250 0.526889 0.039715
0.582500 0.526889 0.039715
0.613750 0.526889 0.039715
0.645000 0.526889 0.039715
0.676250 0.526889 0.039715
0.707500 0.526889 0.039715
0.738750 0.526889 0.039715
0.770000 0.526889 0.039715
0.801250 0.526889 0.039715
0.832500 0.526889 0.039715
0.863750 0.526889 0.039715
0.895000 0.526889 0.039715
0.926250 0.526889 0.039715
0.957500 0.526889 0.039715
0.988750 0.526889 0.039715
1.020000 0.526889 0.039715
0.020000 0.559146 0.039715
0.051250 0.559146 0.039715
0.082500 0.559146 0.039715
0.113750 0.559146 0.039715
0.145000 0.559146 0.039715
0.176250 0.559146 0.039715
0.207500 0.559146 0.039715
0.238750 0.559146 0.039715
0.270000 0.559146 0.039715
0.301250 0.559146 0.039715
0.332500 0.559146 0.039715
0.363750 0.559146 0.039715
0.395000 0.559146 0.039715
0.426250 0.559146 0.039715
0.457500 0.559146 0.039715
0.488750 0.559146 0.039715
0.520000 0.559146 0.039715
0.551250 0.559146 0.039715
0.582500 0.559146 0.039715
0.613750 0.559146 0.039715
0.645000 0.559146 0.039715
0.676250 0.559146 0.039715
0.707500 0.559146 0.039715
0.738750 0.559146 0.039715
0.770000 0.559146 0.039715
0.801250 0.559146 0.039715
0.832500 0.559146 0.039715
0.863750 0.559146 0.039715
0.895000 0.559146 0.039715
0.926250 0.559146 0.039715
0.957500 0.559146 0.039715
0.988750 0.559146 0.039715
1.020000 0.559146 0.039715
0.020000 0.591541 0.039715
0.051250 0.591541 0.039715
0.082500 0.591541 0.039715
0.113750 0.591541 0.039715
0.145000 0.591541 0.039715
0.176250 0.591541 0.039715
0.207500 0.591541 0.039715
0.238750 0.591541 0.039715
0.270000 0.591541 0.039715
0.301250 0.591541 0.039715
0.332500 0.591541 0.039715
0.363750 0.591541 0.039715
0.395000 0.591541 0.039715
0.426250 0.591541 0.039715
0.457500 0.591541 0.039715
0.488750 0.591541 0.039715
0.520000 0.591541 0.039715
0.551250 0.591541 0.039715
0.582500 0.591541 0.039715
0.613750 0.591541 0.039715
0.645000 0.591541 0.039715
0.676250 0.591541 0.039715
0.707500 0.591541 0.039715
0.738750 0.591541 0.039715
0.770000 0.591541 0.039715
0.801250 0.591541 0.039715
0.832500 0.591541 0.039715
0.863750 0.591541 0.039715
0.895000 0.591541 0.039715
0.926250 0.591541 0.039715
0.957500 0.591541 0.039715
0.988750 0.591541 0.039715
1.020000 0.591541 0.039715
0.020000 0.624069 0.039715
0.051250 0.624069 0.039715
0.082500 0.624069 0.039715
0.113750 0.624069 0.039715
0.145000 0.624069 0.039715
0.176250 0.624069 0.039715
0.207500 0.624069 0.039715
0.238750 0.624069 0.039715
0.270000 0.624069 0.039715
0.301250 0.624069 0.039715
0.332500 0.624069 0.039715
0.363750 0.624069 0.039715
0.395000 0.624069 0.039715
0.426250 0.624069 0.039715
0.457500 0.624069 0.039715
0.488750 0.624069 0.039715
0.520000 0.624069 0.039715
0.551250 0.624069 0.039715
0.582500 0.624069 0.039715
0.613750 0.624069 0.039715
0.645000 0.624069 0.039715
0.676250 0.624069 0.039715
0.707500 0.624069 0.039715
0.738750 0.624069 0.039715
0.770000 0.624069 0.039715
0.801250 0.624069 0.039715
0.832500 0.624069 0.039715
0.863750 0.624069 0.039715
0.895000 0.624069 0.039715
0.926250 0.624069 0.039715
0.957500 0.624069 0.039715
0.988750 0.624069 0.039715
1.020000 0.624069 0.039715
0.020000 0.656723 0.039715
0.051250 0.656723 0.039715
0.082500 0.656723 0.039715
0.113750 0.656723 0.039715
0.145000 0.656723 0.039715
0.176250 0.656723 0.039715
0.207500 0.656723 0.039715
0.238750 0.656723 0.039715
0.270000 0.656723 0.039715
0.301250 0.656723 0.039715
0.332500 0.656723 0.039715
0.363750 0.656723 0.039715
0.395000 0.656723 0.039715
0.426250 0.656723 0.039715
0.457500 0.656723 0.039715
0.488750 0.656723 0.039715
0.520000 0.656723 0.039715
0.551250 0.656723 0.039715
0.582500 0.656723 0.039715
0.613750 0.656723 0.039715
0.645000 0.656723 0.039715
0.676250 0.656723 0.039715
0.707500 0.656723 0.039715
0.738750 0.656723 0.039715
0.770000 0.656723 0.039715
0.801250 0.656723 0.039715
0.832500 0.656723 0.039715
0.863750 0.656723 0.039715
0.895000 0.656723 0.039715
0.926250 0.656723 0.039715
0.957500 0.656723 0.039715
0.988750 0.656723 0.039715
1.020000 0.656723 0.039715
0.020000 0.689497 0.039715
0.051250 0.689497 0.039715
0.082500 0.689497 0.039715
0.113750 0.689497 0.039715
0.145000 0.689497 0.039715
0.176250 0.689497 0.039715
0.207500 0.689497 0.039715
0.238750 0.689497 0.039715
0.270000 0.689497 0.039715
0.301250 0.689497 0.039715
0.332500 0.689497 0.039715
0.363750 0.689497 0.039715
0.395000 0.689497 0.039715
0.426250 0.689497 0.039715
0.457500 0.689497 0.039715
0.488750 0.689497 0.039715
0.520000 0.689497 0.039715
0.551250 0.689497 0.039715
0.582500 0.689497 0.039715
0.613750 0.689497 0.039715
0.645000 0.689497 0.039715
0.676250 0.689497 0.039715
0.707500 0.689497 0.039715
0.738750 0.689497 0.039715
0.770000 0.689497 0.039715
0.801250 0.689497 0.039715
0.832500 0.689497 0.039715
0.863750 0.689497 0.039715
0.895000 0.689497 0.039715
0.926250 0.689497 0.039715
0.957500 0.689497 0.039715
0.988750 0.689497 0.039715
1.020000 0.689497 0.039715
0.020000 0.722388 0.039715
0.051250 0.722388 0.039715
0.082500 0.722388 0.039715
0.113750 0.722388 0.039715
0.145000 0.722388 0.039715
0.176250 0.722388 0.039715
0.207500 0.722388 0.039715
0.238750 0.722388 0.039715
0.270000 0.722388 0.039715
0.301250 0.722388 0.039715
0.332500 0.722388 0.039715
0.363750 0.722388 0.039715
0.395000 0.722388 0.039715
0.426250 0.722388 0.039715
0.457500 0.722388 0.039715
0.488750 0.722388 0.039715
0.520000 0.722388 0.039715
0.551250 0.722388 0.039715
0.582500 0.722388 0.039715
0.613750 0.722388 0.039715
0.645000 0.722388 0.039715
0.676250 0.722388 0.039715
0.707500 0.722388 0.039715
0.738750 0.722388 0.039715
0.770000 0.722388 0.039715
0.801250 0.722388 0.039715
0.832500 0.722388 0.039715
0.863750 0.722388 0.039715
0.895000 0.722388 0.039715
0.926250 0.722388 0.039715
0.957500 0.722388 0.039715
0.988750 0.722388 0.039715
1.020000 0.722388 0.039715
0.020000 0.755389 0.039715
0.051250 0.755389 0.039715
0.082500 0.755389 0.039715
0.113750 0.755389 0.039715
0.145000 0.755389 0.039715
0.176250 0.755389 0.039715
0.207500 0.755389 0.039715
0.238750 0.755389 0.039715
0.270000 0.755389 0.039715
0.301250 0.755389 0.039715
0.332500 0.755389 0.039715
0.363750 0.755389 0.039715
0.395000 0.755389 0.039715
0.426250 0.755389 0.039715
0.457500 0.755389 0.039715
0.488750 0.755389 0.039715
0.520000 0.755389 0.039715
0.551250 0.755389 0.039715
0.582500 0.755389 0.039715
0.613750 0.755389 0.039715
0.645000 0.755389 0.039715
0.676250 0.755389 0.039715
0.707500 0.755389 0.039715
0.738750 0.755389 0.039715
0.770000 0.755389 0.039715
0.801250 0.755389 0.039715
0.832500 0.755389 0.039715
0.863750 0.755389 0.039715
0.895000 0.755389 0.039715
0.926250 0.755389 0.039715
0.957500 0.755389 0.039715
0.988750 0.755389 0.039715
1.020000 0.755389 0.039715
0.020000 0.788498 0.039715
0.051250 0.788498 0.039715
0.082500 0.788498 0.039715
0.113750 0.788498 0.039715
0.145000 0.788498 0.039715
0.176250 0.788498 0.039715
0.207500 0.788498 0.039715
0.238750 0.788498 0.039715
0.270000 0.788498 0.039715
0.301250 0.788498 0.039715
0.332500 0.788498 0.039715
0.363750 0.788498 0.039715
0.395000 0.788498 0.039715
0.426250 0.788498 0.039715
0.457500 0.788498 0.039715
0.488750 0.788498 0.039715
0.520000 0.788498 0.039715
0.551250 0.788498 0.039715
0.582500 0.788498 0.039715
0.613750 0.788498 0.039715
0.645000 0.788498 0.039715
0.676250 0.788498 0.039715
0.707500 0.788498 0.039715
0.738750 0.788498 0.039715
0.770000 0.788498 0.039715
0.801250 0.788498 0.039715
0.832500 0.788498 0.039715
0.863750 0.788498 0.039715
0.895000 0.788498 0.039715
