samples/LUTs/3D/channel_separation/cdl_slope_power_skew_33.cube
LUT_3D_SIZE 5
0.000000 0.000000 0.000000
0.288267 0.000000 0.000000
0.556896 0.000000 0.000000
0.818579 0.000000 0.000000
1.075852 0.000000 0.000000
0.000000 0.223471 0.000000
0.288267 0.223471 0.000000
0.556896 0.223471 0.000000
0.818579 0.223471 0.000000
1.075852 0.223471 0.000000
0.000000 0.462704 0.000000
0.288267 0.462704 0.000000
0.556896 0.462704 0.000000
0.818579 0.462704 0.000000
1.075852 0.462704 0.000000
0.000000 0.708270 0.000000
0.288267 0.708270 0.000000
0.556896 0.708270 0.000000
0.818579 0.708270 0.000000
1.075852 0.708270 0.000000
0.000000 0.958043 0.000000
0.288267 0.958043 0.000000
0.556896 0.958043 0.000000
0.818579 0.958043 0.000000
1.075852 0.958043 0.000000
0.000000 0.000000 0.318011
0.288267 0.000000 0.318011
0.556896 0.000000 0.318011
0.818579 0.000000 0.318011
1.075852 0.000000 0.318011
0.000000 0.223471 0.318011
0.288267 0.223471 0.318011
0.556896 0.223471 0.318011
0.818579 0.223471 0.318011
1.075852 0.223471 0.318011
0.000000 0.462704 0.318011
0.288267 0.462704 0.318011
0.556896 0.462704 0.318011
0.818579 0.462704 0.318011
1.075852 0.462704 0.318011
0.000000 0.708270 0.318011
0.288267 0.708270 0.318011
0.556896 0.708270 0.318011
0.818579 0.708270 0.318011
1.075852 0.708270 0.318011
0.000000 0.958043 0.318011
0.288267 0.958043 0.318011
0.556896 0.958043 0.318011
0.818579 0.958043 0.318011
1.075852 0.958043 0.318011
0.000000 0.000000 0.593430
0.288267 0.000000 0.593430
0.556896 0.000000 0.593430
0.818579 0.000000 0.593430
1.075852 0.000000 0.593430
0.000000 0.223471 0.593430
0.288267 0.223471 0.593430
0.556896 0.223471 0.593430
0.818579 0.223471 0.593430
1.075852 0.223471 0.593430
0.000000 0.462704 0.593430
0.288267 0.462704 0.593430
0.556896 0.462704 0.593430
0.818579 0.462704 0.593430
1.075852 0.462704 0.593430
0.000000 0.708270 0.593430
0.288267 0.708270 0.593430
0.556896 0.708270 0.593430
0.818579 0.708270 0.593430
1.075852 0.708270 0.593430
0.000000 0.958043 0.593430
0.288267 0.958043 0.593430
0.556896 0.958043 0.593430
0.818579 0.958043 0.593430
1.075852 0.958043 0.593430
0.000000 0.000000 0.854774
0.288267 0.000000 0.854774
0.556896 0.000000 0.854774
0.818579 0.000000 0.854774
1.075852 0.000000 0.854774
0.000000 0.223471 0.854774
0.288267 0.223471 0.854774
0.556896 0.223471 0.854774
0.818579 0.223471 0.854774
1.075852 0.223471 0.854774
0.000000 0.462704 0.854774
0.288267 0.462704 0.854774
0.556896 0.462704 0.854774
0.818579 0.462704 0.854774
1.075852 0.462704 0.854774
0.000000 0.708270 0.854774
0.288267 0.708270 0.854774
0.556896 0.708270 0.854774
0.818579 0.708270 0.854774
1.075852 0.708270 0.854774
0.000000 0.958043 0.854774
0.288267 0.958043 0.854774
0.556896 0.958043 0.854774
0.818579 0.958043 0.854774
1.075852 0.958043 0.854774
0.000000 0.000000 1.107379
0.288267 0.000000 1.107379
0.556896 0.000000 1.107379
0.818579 0.000000 1.107379
1.075852 0.000000 1.107379
0.000000 0.223471 1.107379
0.288267 0.223471 1.107379
0.556896 0.223471 1.107379
0.818579 0.223471 1.107379
1.075852 0.223471 1.107379
0.000000 0.462704 1.107379
0.288267 0.462704 1.107379
0.556896 0.462704 1.107379
0.818579 0.462704 1.107379
1.075852 0.462704 1.107379
0.000000 0.708270 1.107379
0.288267 0.708270 1.107379
0.556896 0.708270 1.107379
0.818579 0.708270 1.107379
1.075852 0.708270 1.107379
0.000000 0.958043 1.107379
0.288267 0.958043 1.107379
0.556896 0.958043 1.107379
0.818579 0.958043 1.107379
1.075852 0.958043 1.107379
