samples/LUTs/3D/channel_separation/cdl_slope_power_skew_33.cube
LUT_3D_SIZE 33
0.000000 0.000000 0.000000
0.039982 0.000000 0.000000
0.077239 0.000000 0.000000
0.113534 0.000000 0.000000
0.149217 0.000000 0.000000
0.184451 0.000000 0.000000
0.219333 0.000000 0.000000
0.253924 0.000000 0.000000
0.288267 0.000000 0.000000
0.322397 0.000000 0.000000
0.356336 0.000000 0.000000
0.390106 0.000000 0.000000
0.423723 0.000000 0.000000
0.457200 0.000000 0.000000
0.490548 0.000000 0.000000
0.523777 0.000000 0.000000
0.556896 0.000000 0.000000
0.589911 0.000000 0.000000
0.622829 0.000000 0.000000
0.655656 0.000000 0.000000
0.688396 0.000000 0.000000
0.721055 0.000000 0.000000
0.753636 0.000000 0.000000
0.786143 0.000000 0.000000
0.818579 0.000000 0.000000
0.850948 0.000000 0.000000
0.883252 0.000000 0.000000
0.915494 0.000000 0.000000
0.947677 0.000000 0.000000
0.979802 0.000000 0.000000
1.011871 0.000000 0.000000
1.043887 0.000000 0.000000
1.075852 0.000000 0.000000
0.000000 0.025175 0.000000
0.039982 0.025175 0.000000
0.077239 0.025175 0.000000
0.113534 0.025175 0.000000
0.149217 0.025175 0.000000
0.184451 0.025175 0.000000
0.219333 0.025175 0.000000
0.253924 0.025175 0.000000
0.288267 0.025175 0.000000
0.322397 0.025175 0.000000
0.356336 0.025175 0.000000
0.390106 0.025175 0.000000
0.423723 0.025175 0.000000
0.457200 0.025175 0.000000
0.490548 0.025175 0.000000
0.523777 0.025175 0.000000
0.556896 0.025175 0.000000
0.589911 0.025175 0.000000
0.622829 0.025175 0.000000
0.655656 0.025175 0.000000
0.688396 0.025175 0.000000
0.721055 0.025175 0.000000
0.753636 0.025175 0.000000
0.786143 0.025175 0.000000
0.818579 0.025175 0.000000
0.850948 0.025175 0.000000
0.883252 0.025175 0.000000
0.915494 0.025175 0.000000
0.947677 0.025175 0.000000
0.979802 0.025175 0.000000
1.011871 0.025175 0.000000
1.043887 0.025175 0.000000
1.075852 0.025175 0.000000
0.000000 0.052127 0.000000
0.039982 0.052127 0.000000
0.077239 0.052127 0.000000
0.113534 0.052127 0.000000
0.149217 0.052127 0.000000
0.184451 0.052127 0.000000
0.219333 0.052127 0.000000
0.253924 0.052127 0.000000
0.288267 0.052127 0.000000
0.322397 0.052127 0.000000
0.356336 0.052127 0.000000
0.390106 0.052127 0.000000
0.423723 0.052127 0.000000
0.457200 0.052127 0.000000
0.490548 0.052127 0.000000
0.523777 0.052127 0.000000
0.556896 0.052127 0.000000
0.589911 0.052127 0.000000
0.622829 0.052127 0.000000
0.655656 0.052127 0.000000
0.688396 0.052127 0.000000
0.721055 0.052127 0.000000
0.753636 0.052127 0.000000
0.786143 0.052127 0.000000
0.818579 0.052127 0.000000
0.850948 0.052127 0.000000
0.883252 0.052127 0.000000
0.915494 0.052127 0.000000
0.947677 0.052127 0.000000
0.979802 0.052127 0.000000
1.011871 0.052127 0.000000
1.043887 0.052127 0.000000
1.075852 0.052127 0.000000
0.000000 0.079791 0.000000
0.039982 0.079791 0.000000
0.077239 0.079791 0.000000
0.113534 0.079791 0.000000
0.149217 0.079791 0.000000
0.184451 0.079791 0.000000
0.219333 0.079791 0.000000
0.253924 0.079791 0.000000
0.288267 0.079791 0.000000
0.322397 0.079791 0.000000
0.356336 0.079791 0.000000
0.390106 0.079791 0.000000
0.423723 0.079791 0.000000
0.457200 0.079791 0.000000
0.490548 0.079791 0.000000
0.523777 0.079791 0.000000
0.556896 0.079791 0.000000
0.589911 0.079791 0.000000
0.622829 0.079791 0.000000
0.655656 0.079791 0.000000
0.688396 0.079791 0.000000
0.721055 0.079791 0.000000
0.753636 0.079791 0.000000
0.786143 0.079791 0.000000
0.818579 0.079791 0.000000
0.850948 0.079791 0.000000
0.883252 0.079791 0.000000
0.915494 0.079791 0.000000
0.947677 0.079791 0.000000
0.979802 0.079791 0.000000
1.011871 0.079791 0.000000
1.043887 0.079791 0.000000
1.075852 0.079791 0.000000
0.000000 0.107930 0.000000
0.039982 0.107930 0.000000
0.077239 0.107930 0.000000
0.113534 0.107930 0.000000
0.149217 0.107930 0.000000
0.184451 0.107930 0.000000
0.219333 0.107930 0.000000
0.253924 0.107930 0.000000
0.288267 0.107930 0.000000
0.322397 0.107930 0.000000
0.356336 0.107930 0.000000
0.390106 0.107930 0.000000
0.423723 0.107930 0.000000
0.457200 0.107930 0.000000
0.490548 0.107930 0.000000
0.523777 0.107930 0.000000
0.556896 0.107930 0.000000
0.589911 0.107930 0.000000
0.622829 0.107930 0.000000
0.655656 0.107930 0.000000
0.688396 0.107930 0.000000
0.721055 0.107930 0.000000
0.753636 0.107930 0.000000
0.786143 0.107930 0.000000
0.818579 0.107930 0.000000
0.850948 0.107930 0.000000
0.883252 0.107930 0.000000
0.915494 0.107930 0.000000
0.947677 0.107930 0.000000
0.979802 0.107930 0.000000
1.011871 0.107930 0.000000
1.043887 0.107930 0.000000
1.075852 0.107930 0.000000
0.000000 0.136426 0.000000
0.039982 0.136426 0.000000
0.077239 0.136426 0.000000
0.113534 0.136426 0.000000
0.149217 0.136426 0.000000
0.184451 0.136426 0.000000
0.219333 0.136426 0.000000
0.253924 0.136426 0.000000
0.288267 0.136426 0.000000
0.322397 0.136426 0.000000
0.356336 0.136426 0.000000
0.390106 0.136426 0.000000
0.423723 0.136426 0.000000
0.457200 0.136426 0.000000
0.490548 0.136426 0.000000
0.523777 0.136426 0.000000
0.556896 0.136426 0.000000
0.589911 0.136426 0.000000
0.622829 0.136426 0.000000
0.655656 0.136426 0.000000
0.688396 0.136426 0.000000
0.721055 0.136426 0.000000
0.753636 0.136426 0.000000
0.786143 0.136426 0.000000
0.818579 0.136426 0.000000
0.850948 0.136426 0.000000
0.883252 0.136426 0.000000
0.915494 0.136426 0.000000
0.947677 0.136426 0.000000
0.979802 0.136426 0.000000
1.011871 0.136426 0.000000
1.043887 0.136426 0.000000
1.075852 0.136426 0.000000
0.000000 0.165210 0.000000
0.039982 0.165210 0.000000
0.077239 0.165210 0.000000
0.113534 0.165210 0.000000
0.149217 0.165210 0.000000
0.184451 0.165210 0.000000
0.219333 0.165210 0.000000
0.253924 0.165210 0.000000
0.288267 0.165210 0.000000
0.322397 0.165210 0.000000
0.356336 0.165210 0.000000
0.390106 0.165210 0.000000
0.423723 0.165210 0.000000
0.457200 0.165210 0.000000
0.490548 0.165210 0.000000
0.523777 0.165210 0.000000
0.556896 0.165210 0.000000
0.589911 0.165210 0.000000
0.622829 0.165210 0.000000
0.655656 0.165210 0.000000
0.688396 0.165210 0.000000
0.721055 0.165210 0.000000
0.753636 0.165210 0.000000
0.786143 0.165210 0.000000
0.818579 0.165210 0.000000
0.850948 0.165210 0.000000
0.883252 0.165210 0.000000
0.915494 0.165210 0.000000
0.947677 0.165210 0.000000
0.979802 0.165210 0.000000
1.011871 0.165210 0.000000
1.043887 0.165210 0.000000
1.075852 0.165210 0.000000
0.000000 0.194236 0.000000
0.039982 0.194236 0.000000
0.077239 0.194236 0.000000
0.113534 0.194236 0.000000
0.149217 0.194236 0.000000
0.184451 0.194236 0.000000
0.219333 0.194236 0.000000
0.253924 0.194236 0.000000
0.288267 0.194236 0.000000
0.322397 0.194236 0.000000
0.356336 0.194236 0.000000
0.390106 0.194236 0.000000
0.423723 0.194236 0.000000
0.457200 0.194236 0.000000
0.490548 0.194236 0.000000
0.523777 0.194236 0.000000
0.556896 0.194236 0.000000
0.589911 0.194236 0.000000
0.622829 0.194236 0.000000
0.655656 0.194236 0.000000
0.688396 0.194236 0.000000
0.721055 0.194236 0.000000
0.753636 0.194236 0.000000
0.786143 0.194236 0.000000
0.818579 0.194236 0.000000
0.850948 0.194236 0.000000
0.883252 0.194236 0.000000
0.915494 0.194236 0.000000
0.947677 0.194236 0.000000
0.979802 0.194236 0.000000
1.011871 0.194236 0.000000
1.043887 0.194236 0.000000
1.075852 0.194236 0.000000
0.000000 0.223471 0.000000
0.039982 0.223471 0.000000
0.077239 0.223471 0.000000
0.113534 0.223471 0.000000
0.149217 0.223471 0.000000
0.184451 0.223471 0.000000
0.219333 0.223471 0.000000
0.253924 0.223471 0.000000
0.288267 0.223471 0.000000
0.322397 0.223471 0.000000
0.356336 0.223471 0.000000
0.390106 0.223471 0.000000
0.423723 0.223471 0.000000
0.457200 0.223471 0.000000
0.490548 0.223471 0.000000
0.523777 0.223471 0.000000
0.556896 0.223471 0.000000
0.589911 0.223471 0.000000
0.622829 0.223471 0.000000
0.655656 0.223471 0.000000
0.688396 0.223471 0.000000
0.721055 0.223471 0.000000
0.753636 0.223471 0.000000
0.786143 0.223471 0.000000
0.818579 0.223471 0.000000
0.850948 0.223471 0.000000
0.883252 0.223471 0.000000
0.915494 0.223471 0.000000
0.947677 0.223471 0.000000
0.979802 0.223471 0.000000
1.011871 0.223471 0.000000
1.043887 0.223471 0.000000
1.075852 0.223471 0.000000
0.000000 0.252890 0.000000
0.039982 0.252890 0.000000
0.077239 0.252890 0.000000
0.113534 0.252890 0.000000
0.149217 0.252890 0.000000
0.184451 0.252890 0.000000
0.219333 0.252890 0.000000
0.253924 0.252890 0.000000
0.288267 0.252890 0.000000
0.322397 0.252890 0.000000
0.356336 0.252890 0.000000
0.390106 0.252890 0.000000
0.423723 0.252890 0.000000
0.457200 0.252890 0.000000
0.490548 0.252890 0.000000
0.523777 0.252890 0.000000
0.556896 0.252890 0.000000
0.589911 0.252890 0.000000
0.622829 0.252890 0.000000
0.655656 0.252890 0.000000
0.688396 0.252890 0.000000
0.721055 0.252890 0.000000
0.753636 0.252890 0.000000
0.786143 0.252890 0.000000
0.818579 0.252890 0.000000
0.850948 0.252890 0.000000
0.883252 0.252890 0.000000
0.915494 0.252890 0.000000
0.947677 0.252890 0.000000
0.979802 0.252890 0.000000
1.011871 0.252890 0.000000
1.043887 0.252890 0.000000
1.075852 0.252890 0.000000
0.000000 0.282473 0.000000
0.039982 0.282473 0.000000
0.077239 0.282473 0.000000
0.113534 0.282473 0.000000
0.149217 0.282473 0.000000
0.184451 0.282473 0.000000
0.219333 0.282473 0.000000
0.253924 0.282473 0.000000
0.288267 0.282473 0.000000
0.322397 0.282473 0.000000
0.356336 0.282473 0.000000
0.390106 0.282473 0.000000
0.423723 0.282473 0.000000
0.457200 0.282473 0.000000
0.490548 0.282473 0.000000
0.523777 0.282473 0.000000
0.556896 0.282473 0.000000
0.589911 0.282473 0.000000
0.622829 0.282473 0.000000
0.655656 0.282473 0.000000
0.688396 0.282473 0.000000
0.721055 0.282473 0.000000
0.753636 0.282473 0.000000
0.786143 0.282473 0.000000
0.818579 0.282473 0.000000
0.850948 0.282473 0.000000
0.883252 0.282473 0.000000
0.915494 0.282473 0.000000
0.947677 0.282473 0.000000
0.979802 0.282473 0.000000
1.011871 0.282473 0.000000
1.043887 0.282473 0.000000
1.075852 0.282473 0.000000
0.000000 0.312205 0.000000
0.039982 0.312205 0.000000
0.077239 0.312205 0.000000
0.113534 0.312205 0.000000
0.149217 0.312205 0.000000
0.184451 0.312205 0.000000
0.219333 0.312205 0.000000
0.253924 0.312205 0.000000
0.288267 0.312205 0.000000
0.322397 0.312205 0.000000
0.356336 0.312205 0.000000
0.390106 0.312205 0.000000
0.423723 0.312205 0.000000
0.457200 0.312205 0.000000
0.490548 0.312205 0.000000
0.523777 0.312205 0.000000
0.556896 0.312205 0.000000
0.589911 0.312205 0.000000
0.622829 0.312205 0.000000
0.655656 0.312205 0.000000
0.688396 0.312205 0.000000
0.721055 0.312205 0.000000
0.753636 0.312205 0.000000
0.786143 0.312205 0.000000
0.818579 0.312205 0.000000
0.850948 0.312205 0.000000
0.883252 0.312205 0.000000
0.915494 0.312205 0.000000
0.947677 0.312205 0.000000
0.979802 0.312205 0.000000
1.011871 0.312205 0.000000
1.043887 0.312205 0.000000
1.075852 0.312205 0.000000
0.000000 0.342072 0.000000
0.039982 0.342072 0.000000
0.077239 0.342072 0.000000
0.113534 0.342072 0.000000
0.149217 0.342072 0.000000
0.184451 0.342072 0.000000
0.219333 0.342072 0.000000
0.253924 0.342072 0.000000
0.288267 0.342072 0.000000
0.322397 0.342072 0.000000
0.356336 0.342072 0.000000
0.390106 0.342072 0.000000
0.423723 0.342072 0.000000
0.457200 0.342072 0.000000
0.490548 0.342072 0.000000
0.523777 0.342072 0.000000
0.556896 0.342072 0.000000
0.589911 0.342072 0.000000
0.622829 0.342072 0.000000
0.655656 0.342072 0.000000
0.688396 0.342072 0.000000
0.721055 0.342072 0.000000
0.753636 0.342072 0.000000
0.786143 0.342072 0.000000
0.818579 0.342072 0.000000
0.850948 0.342072 0.000000
0.883252 0.342072 0.000000
0.915494 0.342072 0.000000
0.947677 0.342072 0.000000
0.979802 0.342072 0.000000
1.011871 0.342072 0.000000
1.043887 0.342072 0.000000
1.075852 0.342072 0.000000
0.000000 0.372064 0.000000
0.039982 0.372064 0.000000
0.077239 0.372064 0.000000
0.113534 0.372064 0.000000
0.149217 0.372064 0.000000
0.184451 0.372064 0.000000
0.219333 0.372064 0.000000
0.253924 0.372064 0.000000
0.288267 0.372064 0.000000
0.322397 0.372064 0.000000
0.356336 0.372064 0.000000
0.390106 0.372064 0.000000
0.423723 0.372064 0.000000
0.457200 0.372064 0.000000
0.490548 0.372064 0.000000
0.523777 0.372064 0.000000
0.556896 0.372064 0.000000
0.589911 0.372064 0.000000
0.622829 0.372064 0.000000
0.655656 0.372064 0.000000
0.688396 0.372064 0.000000
0.721055 0.372064 0.000000
0.753636 0.372064 0.000000
0.786143 0.372064 0.000000
0.818579 0.372064 0.000000
0.850948 0.372064 0.000000
0.883252 0.372064 0.000000
0.915494 0.372064 0.000000
0.947677 0.372064 0.000000
0.979802 0.372064 0.000000
1.011871 0.372064 0.000000
1.043887 0.372064 0.000000
1.075852 0.372064 0.000000
0.000000 0.402172 0.000000
0.039982 0.402172 0.000000
0.077239 0.402172 0.000000
0.113534 0.402172 0.000000
0.149217 0.402172 0.000000
0.184451 0.402172 0.000000
0.219333 0.402172 0.000000
0.253924 0.402172 0.000000
0.288267 0.402172 0.000000
0.322397 0.402172 0.000000
0.356336 0.402172 0.000000
0.390106 0.402172 0.000000
0.423723 0.402172 0.000000
0.457200 0.402172 0.000000
0.490548 0.402172 0.000000
0.523777 0.402172 0.000000
0.556896 0.402172 0.000000
0.589911 0.402172 0.000000
0.622829 0.402172 0.000000
0.655656 0.402172 0.000000
0.688396 0.402172 0.000000
0.721055 0.402172 0.000000
0.753636 0.402172 0.000000
0.786143 0.402172 0.000000
0.818579 0.402172 0.000000
0.850948 0.402172 0.000000
0.883252 0.402172 0.000000
0.915494 0.402172 0.000000
0.947677 0.402172 0.000000
0.979802 0.402172 0.000000
1.011871 0.402172 0.000000
1.043887 0.402172 0.000000
1.075852 0.402172 0.000000
0.000000 0.432388 0.000000
0.039982 0.432388 0.000000
0.077239 0.432388 0.000000
0.113534 0.432388 0.000000
0.149217 0.432388 0.000000
0.184451 0.432388 0.000000
0.219333 0.432388 0.000000
0.253924 0.432388 0.000000
0.288267 0.432388 0.000000
0.322397 0.432388 0.000000
0.356336 0.432388 0.000000
0.390106 0.432388 0.000000
0.423723 0.432388 0.000000
0.457200 0.432388 0.000000
0.490548 0.432388 0.000000
0.523777 0.432388 0.000000
0.556896 0.432388 0.000000
0.589911 0.432388 0.000000
0.622829 0.432388 0.000000
0.655656 0.432388 0.000000
0.688396 0.432388 0.000000
0.721055 0.432388 0.000000
0.753636 0.432388 0.000000
0.786143 0.432388 0.000000
0.818579 0.432388 0.000000
0.850948 0.432388 0.000000
0.883252 0.432388 0.000000
0.915494 0.432388 0.000000
0.947677 0.432388 0.000000
0.979802 0.432388 0.000000
1.011871 0.432388 0.000000
1.043887 0.432388 0.000000
1.075852 0.432388 0.000000
0.000000 0.462704 0.000000
0.039982 0.462704 0.000000
0.077239 0.462704 0.000000
0.113534 0.462704 0.000000
0.149217 0.462704 0.000000
0.184451 0.462704 0.000000
0.219333 0.462704 0.000000
0.253924 0.462704 0.000000
0.288267 0.462704 0.000000
0.322397 0.462704 0.000000
0.356336 0.462704 0.000000
0.390106 0.462704 0.000000
0.423723 0.462704 0.000000
0.457200 0.462704 0.000000
0.490548 0.462704 0.000000
0.523777 0.462704 0.000000
0.556896 0.462704 0.000000
0.589911 0.462704 0.000000
0.622829 0.462704 0.000000
0.655656 0.462704 0.000000
0.688396 0.462704 0.000000
0.721055 0.462704 0.000000
0.753636 0.462704 0.000000
0.786143 0.462704 0.000000
0.818579 0.462704 0.000000
0.850948 0.462704 0.000000
0.883252 0.462704 0.000000
0.915494 0.462704 0.000000
0.947677 0.462704 0.000000
0.979802 0.462704 0.000000
1.011871 0.462704 0.000000
1.043887 0.462704 0.000000
1.075852 0.462704 0.000000
0.000000 0.493116 0.000000
0.039982 0.493116 0.000000
0.077239 0.493116 0.000000
0.113534 0.493116 0.000000
0.149217 0.493116 0.000000
0.184451 0.493116 0.000000
0.219333 0.493116 0.000000
0.253924 0.493116 0.000000
0.288267 0.493116 0.000000
0.322397 0.493116 0.000000
0.356336 0.493116 0.000000
0.390106 0.493116 0.000000
0.423723 0.493116 0.000000
0.457200 0.493116 0.000000
0.490548 0.493116 0.000000
0.523777 0.493116 0.000000
0.556896 0.493116 0.000000
0.589911 0.493116 0.000000
0.622829 0.493116 0.000000
0.655656 0.493116 0.000000
0.688396 0.493116 0.000000
0.721055 0.493116 0.000000
0.753636 0.493116 0.000000
0.786143 0.493116 0.000000
0.818579 0.493116 0.000000
0.850948 0.493116 0.000000
0.883252 0.493116 0.000000
0.915494 0.493116 0.000000
0.947677 0.493116 0.000000
0.979802 0.493116 0.000000
1.011871 0.493116 0.000000
1.043887 0.493116 0.000000
1.075852 0.493116 0.000000
0.000000 0.523617 0.000000
0.039982 0.523617 0.000000
0.077239 0.523617 0.000000
0.113534 0.523617 0.000000
0.149217 0.523617 0.000000
0.184451 0.523617 0.000000
0.219333 0.523617 0.000000
0.253924 0.523617 0.000000
0.288267 0.523617 0.000000
0.322397 0.523617 0.000000
0.356336 0.523617 0.000000
0.390106 0.523617 0.000000
0.423723 0.523617 0.000000
0.457200 0.523617 0.000000
0.490548 0.523617 0.000000
0.523777 0.523617 0.000000
0.556896 0.523617 0.000000
0.589911 0.523617 0.000000
0.622829 0.523617 0.000000
0.655656 0.523617 0.000000
0.688396 0.523617 0.000000
0.721055 0.523617 0.000000
0.753636 0.523617 0.000000
0.786143 0.523617 0.000000
0.818579 0.523617 0.000000
0.850948 0.523617 0.000000
0.883252 0.523617 0.000000
0.915494 0.523617 0.000000
0.947677 0.523617 0.000000
0.979802 0.523617 0.000000
1.011871 0.523617 0.000000
1.043887 0.523617 0.000000
1.075852 0.523617 0.000000
0.000000 0.554203 0.000000
0.039982 0.554203 0.000000
0.077239 0.554203 0.000000
0.113534 0.554203 0.000000
0.149217 0.554203 0.000000
0.184451 0.554203 0.000000
0.219333 0.554203 0.000000
0.253924 0.554203 0.000000
0.288267 0.554203 0.000000
0.322397 0.554203 0.000000
0.356336 0.554203 0.000000
0.390106 0.554203 0.000000
0.423723 0.554203 0.000000
0.457200 0.554203 0.000000
0.490548 0.554203 0.000000
0.523777 0.554203 0.000000
0.556896 0.554203 0.000000
0.589911 0.554203 0.000000
0.622829 0.554203 0.000000
0.655656 0.554203 0.000000
0.688396 0.554203 0.000000
0.721055 0.554203 0.000000
0.753636 0.554203 0.000000
0.786143 0.554203 0.000000
0.818579 0.554203 0.000000
0.850948 0.554203 0.000000
0.883252 0.554203 0.000000
0.915494 0.554203 0.000000
0.947677 0.554203 0.000000
0.979802 0.554203 0.000000
1.011871 0.554203 0.000000
1.043887 0.554203 0.000000
1.075852 0.554203 0.000000
0.000000 0.584869 0.000000
0.039982 0.584869 0.000000
0.077239 0.584869 0.000000
0.113534 0.584869 0.000000
0.149217 0.584869 0.000000
0.184451 0.584869 0.000000
0.219333 0.584869 0.000000
0.253924 0.584869 0.000000
0.288267 0.584869 0.000000
0.322397 0.584869 0.000000
0.356336 0.584869 0.000000
0.390106 0.584869 0.000000
0.423723 0.584869 0.000000
0.457200 0.584869 0.000000
0.490548 0.584869 0.000000
0.523777 0.584869 0.000000
0.556896 0.584869 0.000000
0.589911 0.584869 0.000000
0.622829 0.584869 0.000000
0.655656 0.584869 0.000000
0.688396 0.584869 0.000000
0.721055 0.584869 0.000000
0.753636 0.584869 0.000000
0.786143 0.584869 0.000000
0.818579 0.584869 0.000000
0.850948 0.584869 0.000000
0.883252 0.584869 0.000000
0.915494 0.584869 0.000000
0.947677 0.584869 0.000000
0.979802 0.584869 0.000000
1.011871 0.584869 0.000000
1.043887 0.584869 0.000000
1.075852 0.584869 0.000000
0.000000 0.615613 0.000000
0.039982 0.615613 0.000000
0.077239 0.615613 0.000000
0.113534 0.615613 0.000000
0.149217 0.615613 0.000000
0.184451 0.615613 0.000000
0.219333 0.615613 0.000000
0.253924 0.615613 0.000000
0.288267 0.615613 0.000000
0.322397 0.615613 0.000000
0.356336 0.615613 0.000000
0.390106 0.615613 0.000000
0.423723 0.615613 0.000000
0.457200 0.615613 0.000000
0.490548 0.615613 0.000000
0.523777 0.615613 0.000000
0.556896 0.615613 0.000000
0.589911 0.615613 0.000000
0.622829 0.615613 0.000000
0.655656 0.615613 0.000000
0.688396 0.615613 0.000000
0.721055 0.615613 0.000000
0.753636 0.615613 0.000000
0.786143 0.615613 0.000000
0.818579 0.615613 0.000000
0.850948 0.615613 0.000000
0.883252 0.615613 0.000000
0.915494 0.615613 0.000000
0.947677 0.615613 0.000000
0.979802 0.615613 0.000000
1.011871 0.615613 0.000000
1.043887 0.615613 0.000000
1.075852 0.615613 0.000000
0.000000 0.646429 0.000000
0.039982 0.646429 0.000000
0.077239 0.646429 0.000000
0.113534 0.646429 0.000000
0.149217 0.646429 0.000000
0.184451 0.646429 0.000000
0.219333 0.646429 0.000000
0.253924 0.646429 0.000000
0.288267 0.646429 0.000000
0.322397 0.646429 0.000000
0.356336 0.646429 0.000000
0.390106 0.646429 0.000000
0.423723 0.646429 0.000000
0.457200 0.646429 0.000000
0.490548 0.646429 0.000000
0.523777 0.646429 0.000000
0.556896 0.646429 0.000000
0.589911 0.646429 0.000000
0.622829 0.646429 0.000000
0.655656 0.646429 0.000000
0.688396 0.646429 0.000000
0.721055 0.646429 0.000000
0.753636 0.646429 0.000000
0.786143 0.646429 0.000000
0.818579 0.646429 0.000000
0.850948 0.646429 0.000000
0.883252 0.646429 0.000000
0.915494 0.646429 0.000000
0.947677 0.646429 0.000000
0.979802 0.646429 0.000000
1.011871 0.646429 0.000000
1.043887 0.646429 0.000000
1.075852 0.646429 0.000000
0.000000 0.677316 0.000000
0.039982 0.677316 0.000000
0.077239 0.677316 0.000000
0.113534 0.677316 0.000000
0.149217 0.677316 0.000000
0.184451 0.677316 0.000000
0.219333 0.677316 0.000000
0.253924 0.677316 0.000000
0.288267 0.677316 0.000000
0.322397 0.677316 0.000000
0.356336 0.677316 0.000000
0.390106 0.677316 0.000000
0.423723 0.677316 0.000000
0.457200 0.677316 0.000000
0.490548 0.677316 0.000000
0.523777 0.677316 0.000000
0.556896 0.677316 0.000000
0.589911 0.677316 0.000000
0.622829 0.677316 0.000000
0.655656 0.677316 0.000000
0.688396 0.677316 0.000000
0.721055 0.677316 0.000000
0.753636 0.677316 0.000000
0.786143 0.677316 0.000000
0.818579 0.677316 0.000000
0.850948 0.677316 0.000000
0.883252 0.677316 0.000000
0.915494 0.677316 0.000000
0.947677 0.677316 0.000000
0.979802 0.677316 0.000000
1.011871 0.677316 0.000000
1.043887 0.677316 0.000000
1.075852 0.677316 0.000000
0.000000 0.708270 0.000000
0.039982 0.708270 0.000000
0.077239 0.708270 0.000000
0.113534 0.708270 0.000000
0.149217 0.708270 0.000000
0.184451 0.708270 0.000000
0.219333 0.708270 0.000000
0.253924 0.708270 0.000000
0.288267 0.708270 0.000000
0.322397 0.708270 0.000000
0.356336 0.708270 0.000000
0.390106 0.708270 0.000000
0.423723 0.708270 0.000000
0.457200 0.708270 0.000000
0.490548 0.708270 0.000000
0.523777 0.708270 0.000000
0.556896 0.708270 0.000000
0.589911 0.708270 0.000000
0.622829 0.708270 0.000000
0.655656 0.708270 0.000000
0.688396 0.708270 0.000000
0.721055 0.708270 0.000000
0.753636 0.708270 0.000000
0.786143 0.708270 0.000000
0.818579 0.708270 0.000000
0.850948 0.708270 0.000000
0.883252 0.708270 0.000000
0.915494 0.708270 0.000000
0.947677 0.708270 0.000000
0.979802 0.708270 0.000000
1.011871 0.708270 0.000000
1.043887 0.708270 0.000000
1.075852 0.708270 0.000000
0.000000 0.739289 0.000000
0.039982 0.739289 0.000000
0.077239 0.739289 0.000000
0.113534 0.739289 0.000000
0.149217 0.739289 0.000000
0.184451 0.739289 0.000000
0.219333 0.739289 0.000000
0.253924 0.739289 0.000000
0.288267 0.739289 0.000000
0.322397 0.739289 0.000000
0.356336 0.739289 0.000000
0.390106 0.739289 0.000000
0.423723 0.739289 0.000000
0.457200 0.739289 0.000000
0.490548 0.739289 0.000000
0.523777 0.739289 0.000000
0.556896 0.739289 0.000000
0.589911 0.739289 0.000000
0.622829 0.739289 0.000000
0.655656 0.739289 0.000000
0.688396 0.739289 0.000000
0.721055 0.739289 0.000000
0.753636 0.739289 0.000000
0.786143 0.739289 0.000000
0.818579 0.739289 0.000000
0.850948 0.739289 0.000000
0.883252 0.739289 0.000000
0.915494 0.739289 0.000000
0.947677 0.739289 0.000000
0.979802 0.739289 0.000000
1.011871 0.739289 0.000000
1.043887 0.739289 0.000000
1.075852 0.739289 0.000000
0.000000 0.770370 0.000000
0.039982 0.770370 0.000000
0.077239 0.770370 0.000000
0.113534 0.770370 0.000000
0.149217 0.770370 0.000000
0.184451 0.770370 0.000000
0.219333 0.770370 0.000000
0.253924 0.770370 0.000000
0.288267 0.770370 0.000000
0.322397 0.770370 0.000000
0.356336 0.770370 0.000000
0.390106 0.770370 0.000000
0.423723 0.770370 0.000000
0.457200 0.770370 0.000000
0.490548 0.770370 0.000000
0.523777 0.770370 0.000000
0.556896 0.770370 0.000000
0.589911 0.770370 0.000000
0.622829 0.770370 0.000000
0.655656 0.770370 0.000000
0.688396 0.770370 0.000000
0.721055 0.770370 0.000000
0.753636 0.770370 0.000000
0.786143 0.770370 0.000000
0.818579 0.770370 0.000000
0.850948 0.770370 0.000000
0.883252 0.770370 0.000000
0.915494 0.770370 0.000000
0.947677 0.770370 0.000000
0.979802 0.770370 0.000000
