samples/LUTs/3D/channel_separation/cdl_slope_power_skew_33.cube
LUT_3D_SIZE 9
0.000000 0.000000 0.000000
0.149217 0.000000 0.000000
0.288267 0.000000 0.000000
0.423723 0.000000 0.000000
0.556896 0.000000 0.000000
0.688396 0.000000 0.000000
0.818579 0.000000 0.000000
0.947677 0.000000 0.000000
1.075852 0.000000 0.000000
0.000000 0.107930 0.000000
0.149217 0.107930 0.000000
0.288267 0.107930 0.000000
0.423723 0.107930 0.000000
0.556896 0.107930 0.000000
0.688396 0.107930 0.000000
0.818579 0.107930 0.000000
0.947677 0.107930 0.000000
1.075852 0.107930 0.000000
0.000000 0.223471 0.000000
0.149217 0.223471 0.000000
0.288267 0.223471 0.000000
0.423723 0.223471 0.000000
0.556896 0.223471 0.000000
0.688396 0.223471 0.000000
0.818579 0.223471 0.000000
0.947677 0.223471 0.000000
1.075852 0.223471 0.000000
0.000000 0.342072 0.000000
0.149217 0.342072 0.000000
0.288267 0.342072 0.000000
0.423723 0.342072 0.000000
0.556896 0.342072 0.000000
0.688396 0.342072 0.000000
0.818579 0.342072 0.000000
0.947677 0.342072 0.000000
1.075852 0.342072 0.000000
0.000000 0.462704 0.000000
0.149217 0.462704 0.000000
0.288267 0.462704 0.000000
0.423723 0.462704 0.000000
0.556896 0.462704 0.000000
0.688396 0.462704 0.000000
0.818579 0.462704 0.000000
0.947677 0.462704 0.000000
1.075852 0.462704 0.000000
0.000000 0.584869 0.000000
0.149217 0.584869 0.000000
0.288267 0.584869 0.000000
0.423723 0.584869 0.000000
0.556896 0.584869 0.000000
0.688396 0.584869 0.000000
0.818579 0.584869 0.000000
0.947677 0.584869 0.000000
1.075852 0.584869 0.000000
0.000000 0.708270 0.000000
0.149217 0.708270 0.000000
0.288267 0.708270 0.000000
0.423723 0.708270 0.000000
0.556896 0.708270 0.000000
0.688396 0.708270 0.000000
0.818579 0.708270 0.000000
0.947677 0.708270 0.000000
1.075852 0.708270 0.000000
0.000000 0.832709 0.000000
0.149217 0.832709 0.000000
0.288267 0.832709 0.000000
0.423723 0.832709 0.000000
0.556896 0.832709 0.000000
0.688396 0.832709 0.000000
0.818579 0.832709 0.000000
0.947677 0.832709 0.000000
1.075852 0.832709 0.000000
0.000000 0.958043 0.000000
0.149217 0.958043 0.000000
0.288267 0.958043 0.000000
0.423723 0.958043 0.000000
0.556896 0.958043 0.000000
0.688396 0.958043 0.000000
0.818579 0.958043 0.000000
0.947677 0.958043 0.000000
1.075852 0.958043 0.000000
0.000000 0.000000 0.170418
0.149217 0.000000 0.170418
0.288267 0.000000 0.170418
0.423723 0.000000 0.170418
0.556896 0.000000 0.170418
0.688396 0.000000 0.170418
0.818579 0.000000 0.170418
0.947677 0.000000 0.170418
1.075852 0.000000 0.170418
0.000000 0.107930 0.170418
0.149217 0.107930 0.170418
0.288267 0.107930 0.170418
0.423723 0.107930 0.170418
0.556896 0.107930 0.170418
0.688396 0.107930 0.170418
0.818579 0.107930 0.170418
0.947677 0.107930 0.170418
1.075852 0.107930 0.170418
0.000000 0.223471 0.170418
0.149217 0.223471 0.170418
0.288267 0.223471 0.170418
0.423723 0.223471 0.170418
0.556896 0.223471 0.170418
0.688396 0.223471 0.170418
0.818579 0.223471 0.170418
0.947677 0.223471 0.170418
1.075852 0.223471 0.170418
0.000000 0.342072 0.170418
0.149217 0.342072 0.170418
0.288267 0.342072 0.170418
0.423723 0.342072 0.170418
0.556896 0.342072 0.170418
0.688396 0.342072 0.170418
0.818579 0.342072 0.170418
0.947677 0.342072 0.170418
1.075852 0.342072 0.170418
0.000000 0.462704 0.170418
0.149217 0.462704 0.170418
0.288267 0.462704 0.170418
0.423723 0.462704 0.170418
0.556896 0.462704 0.170418
0.688396 0.462704 0.170418
0.818579 0.462704 0.170418
0.947677 0.462704 0.170418
1.075852 0.462704 0.170418
0.000000 0.584869 0.170418
0.149217 0.584869 0.170418
0.288267 0.584869 0.170418
0.423723 0.584869 0.170418
0.556896 0.584869 0.170418
0.688396 0.584869 0.170418
0.818579 0.584869 0.170418
0.947677 0.584869 0.170418
1.075852 0.584869 0.170418
0.000000 0.708270 0.170418
0.149217 0.708270 0.170418
0.288267 0.708270 0.170418
0.423723 0.708270 0.170418
0.556896 0.708270 0.170418
0.688396 0.708270 0.170418
0.818579 0.708270 0.170418
0.947677 0.708270 0.170418
1.075852 0.708270 0.170418
0.000000 0.832709 0.170418
0.149217 0.832709 0.170418
0.288267 0.832709 0.170418
0.423723 0.832709 0.170418
0.556896 0.832709 0.170418
0.688396 0.832709 0.170418
0.818579 0.832709 0.170418
0.947677 0.832709 0.170418
1.075852 0.832709 0.170418
0.000000 0.958043 0.170418
0.149217 0.958043 0.170418
0.288267 0.958043 0.170418
0.423723 0.958043 0.170418
0.556896 0.958043 0.170418
0.688396 0.958043 0.170418
0.818579 0.958043 0.170418
0.947677 0.958043 0.170418
1.075852 0.958043 0.170418
0.000000 0.000000 0.318011
0.149217 0.000000 0.318011
0.288267 0.000000 0.318011
0.423723 0.000000 0.318011
0.556896 0.000000 0.318011
0.688396 0.000000 0.318011
0.818579 0.000000 0.318011
0.947677 0.000000 0.318011
1.075852 0.000000 0.318011
0.000000 0.107930 0.318011
0.149217 0.107930 0.318011
0.288267 0.107930 0.318011
0.423723 0.107930 0.318011
0.556896 0.107930 0.318011
0.688396 0.107930 0.318011
0.818579 0.107930 0.318011
0.947677 0.107930 0.318011
1.075852 0.107930 0.318011
0.000000 0.223471 0.318011
0.149217 0.223471 0.318011
0.288267 0.223471 0.318011
0.423723 0.223471 0.318011
0.556896 0.223471 0.318011
0.688396 0.223471 0.318011
0.818579 0.223471 0.318011
0.947677 0.223471 0.318011
1.075852 0.223471 0.318011
0.000000 0.342072 0.318011
0.149217 0.342072 0.318011
0.288267 0.342072 0.318011
0.423723 0.342072 0.318011
0.556896 0.342072 0.318011
0.688396 0.342072 0.318011
0.818579 0.342072 0.318011
0.947677 0.342072 0.318011
1.075852 0.342072 0.318011
0.000000 0.462704 0.318011
0.149217 0.462704 0.318011
0.288267 0.462704 0.318011
0.423723 0.462704 0.318011
0.556896 0.462704 0.318011
0.688396 0.462704 0.318011
0.818579 0.462704 0.318011
0.947677 0.462704 0.318011
1.075852 0.462704 0.318011
0.000000 0.584869 0.318011
0.149217 0.584869 0.318011
0.288267 0.584869 0.318011
0.423723 0.584869 0.318011
0.556896 0.584869 0.318011
0.688396 0.584869 0.318011
0.818579 0.584869 0.318011
0.947677 0.584869 0.318011
1.075852 0.584869 0.318011
0.000000 0.708270 0.318011
0.149217 0.708270 0.318011
0.288267 0.708270 0.318011
0.423723 0.708270 0.318011
0.556896 0.708270 0.318011
0.688396 0.708270 0.318011
0.818579 0.708270 0.318011
0.947677 0.708270 0.318011
1.075852 0.708270 0.318011
0.000000 0.832709 0.318011
0.149217 0.832709 0.318011
0.288267 0.832709 0.318011
0.423723 0.832709 0.318011
0.556896 0.832709 0.318011
0.688396 0.832709 0.318011
0.818579 0.832709 0.318011
0.947677 0.832709 0.318011
1.075852 0.832709 0.318011
0.000000 0.958043 0.318011
0.149217 0.958043 0.318011
0.288267 0.958043 0.318011
0.423723 0.958043 0.318011
0.556896 0.958043 0.318011
0.688396 0.958043 0.318011
0.818579 0.958043 0.318011
0.947677 0.958043 0.318011
1.075852 0.958043 0.318011
0.000000 0.000000 0.458062
0.149217 0.000000 0.458062
0.288267 0.000000 0.458062
0.423723 0.000000 0.458062
0.556896 0.000000 0.458062
0.688396 0.000000 0.458062
0.818579 0.000000 0.458062
0.947677 0.000000 0.458062
1.075852 0.000000 0.458062
0.000000 0.107930 0.458062
0.149217 0.107930 0.458062
0.288267 0.107930 0.458062
0.423723 0.107930 0.458062
0.556896 0.107930 0.458062
0.688396 0.107930 0.458062
0.818579 0.107930 0.458062
0.947677 0.107930 0.458062
1.075852 0.107930 0.458062
0.000000 0.223471 0.458062
0.149217 0.223471 0.458062
0.288267 0.223471 0.458062
0.423723 0.223471 0.458062
0.556896 0.223471 0.458062
0.688396 0.223471 0.458062
0.818579 0.223471 0.458062
0.947677 0.223471 0.458062
1.075852 0.223471 0.458062
0.000000 0.342072 0.458062
0.149217 0.342072 0.458062
0.288267 0.342072 0.458062
0.423723 0.342072 0.458062
0.556896 0.342072 0.458062
0.688396 0.342072 0.458062
0.818579 0.342072 0.458062
0.947677 0.342072 0.458062
1.075852 0.342072 0.458062
0.000000 0.462704 0.458062
0.149217 0.462704 0.458062
0.288267 0.462704 0.458062
0.423723 0.462704 0.458062
0.556896 0.462704 0.458062
0.688396 0.462704 0.458062
0.818579 0.462704 0.458062
0.947677 0.462704 0.458062
1.075852 0.462704 0.458062
0.000000 0.584869 0.458062
0.149217 0.584869 0.458062
0.288267 0.584869 0.458062
0.423723 0.584869 0.458062
0.556896 0.584869 0.458062
0.688396 0.584869 0.458062
0.818579 0.584869 0.458062
0.947677 0.584869 0.458062
1.075852 0.584869 0.458062
0.000000 0.708270 0.458062
0.149217 0.708270 0.458062
0.288267 0.708270 0.458062
0.423723 0.708270 0.458062
0.556896 0.708270 0.458062
0.688396 0.708270 0.458062
0.818579 0.708270 0.458062
0.947677 0.708270 0.458062
1.075852 0.708270 0.458062
0.000000 0.832709 0.458062
0.149217 0.832709 0.458062
0.288267 0.832709 0.458062
0.423723 0.832709 0.458062
0.556896 0.832709 0.458062
0.688396 0.832709 0.458062
0.818579 0.832709 0.458062
0.947677 0.832709 0.458062
1.075852 0.832709 0.458062
0.000000 0.958043 0.458062
0.149217 0.958043 0.458062
0.288267 0.958043 0.458062
0.423723 0.958043 0.458062
0.556896 0.958043 0.458062
0.688396 0.958043 0.458062
0.818579 0.958043 0.458062
0.947677 0.958043 0.458062
1.075852 0.958043 0.458062
0.000000 0.000000 0.593430
0.149217 0.000000 0.593430
0.288267 0.000000 0.593430
0.423723 0.000000 0.593430
0.556896 0.000000 0.593430
0.688396 0.000000 0.593430
0.818579 0.000000 0.593430
0.947677 0.000000 0.593430
1.075852 0.000000 0.593430
0.000000 0.107930 0.593430
0.149217 0.107930 0.593430
0.288267 0.107930 0.593430
0.423723 0.107930 0.593430
0.556896 0.107930 0.593430
0.688396 0.107930 0.593430
0.818579 0.107930 0.593430
0.947677 0.107930 0.593430
1.075852 0.107930 0.593430
0.000000 0.223471 0.593430
0.149217 0.223471 0.593430
0.288267 0.223471 0.593430
0.423723 0.223471 0.593430
0.556896 0.223471 0.593430
0.688396 0.223471 0.593430
0.818579 0.223471 0.593430
0.947677 0.223471 0.593430
1.075852 0.223471 0.593430
0.000000 0.342072 0.593430
0.149217 0.342072 0.593430
0.288267 0.342072 0.593430
0.423723 0.342072 0.593430
0.556896 0.342072 0.593430
0.688396 0.342072 0.593430
0.818579 0.342072 0.593430
0.947677 0.342072 0.593430
1.075852 0.342072 0.593430
0.000000 0.462704 0.593430
0.149217 0.462704 0.593430
0.288267 0.462704 0.593430
0.423723 0.462704 0.593430
0.556896 0.462704 0.593430
0.688396 0.462704 0.593430
0.818579 0.462704 0.593430
0.947677 0.462704 0.593430
1.075852 0.462704 0.593430
0.000000 0.584869 0.593430
0.149217 0.584869 0.593430
0.288267 0.584869 0.593430
0.423723 0.584869 0.593430
0.556896 0.584869 0.593430
0.688396 0.584869 0.593430
0.818579 0.584869 0.593430
0.947677 0.584869 0.593430
1.075852 0.584869 0.593430
0.000000 0.708270 0.593430
0.149217 0.708270 0.593430
0.288267 0.708270 0.593430
0.423723 0.708270 0.593430
0.556896 0.708270 0.593430
0.688396 0.708270 0.593430
0.818579 0.708270 0.593430
0.947677 0.708270 0.593430
1.075852 0.708270 0.593430
0.000000 0.832709 0.593430
0.149217 0.832709 0.593430
0.288267 0.832709 0.593430
0.423723 0.832709 0.593430
0.556896 0.832709 0.593430
0.688396 0.832709 0.593430
0.818579 0.832709 0.593430
0.947677 0.832709 0.593430
1.075852 0.832709 0.593430
0.000000 0.958043 0.593430
0.149217 0.958043 0.593430
0.288267 0.958043 0.593430
0.423723 0.958043 0.593430
0.556896 0.958043 0.593430
0.688396 0.958043 0.593430
0.818579 0.958043 0.593430
0.947677 0.958043 0.593430
1.075852 0.958043 0.593430
0.000000 0.000000 0.725418
0.149217 0.000000 0.725418
0.288267 0.000000 0.725418
0.423723 0.000000 0.725418
0.556896 0.000000 0.725418
0.688396 0.000000 0.725418
0.818579 0.000000 0.725418
0.947677 0.000000 0.725418
1.075852 0.000000 0.725418
0.000000 0.107930 0.725418
0.149217 0.107930 0.725418
0.288267 0.107930 0.725418
0.423723 0.107930 0.725418
0.556896 0.107930 0.725418
0.688396 0.107930 0.725418
0.818579 0.107930 0.725418
0.947677 0.107930 0.725418
1.075852 0.107930 0.725418
0.000000 0.223471 0.725418
0.149217 0.223471 0.725418
0.288267 0.223471 0.725418
0.423723 0.223471 0.725418
0.556896 0.223471 0.725418
0.688396 0.223471 0.725418
0.818579 0.223471 0.725418
0.947677 0.223471 0.725418
1.075852 0.223471 0.725418
0.000000 0.342072 0.725418
0.149217 0.342072 0.725418
0.288267 0.342072 0.725418
0.423723 0.342072 0.725418
0.556896 0.342072 0.725418
0.688396 0.342072 0.725418
0.818579 0.342072 0.725418
0.947677 0.342072 0.725418
1.075852 0.342072 0.725418
0.000000 0.462704 0.725418
0.149217 0.462704 0.725418
0.288267 0.462704 0.725418
0.423723 0.462704 0.725418
0.556896 0.462704 0.725418
0.688396 0.462704 0.725418
0.818579 0.462704 0.725418
0.947677 0.462704 0.725418
1.075852 0.462704 0.725418
0.000000 0.584869 0.725418
0.149217 0.584869 0.725418
0.288267 0.584869 0.725418
0.423723 0.584869 0.725418
0.556896 0.584869 0.725418
0.688396 0.584869 0.725418
0.818579 0.584869 0.725418
0.947677 0.584869 0.725418
1.075852 0.584869 0.725418
0.000000 0.708270 0.725418
0.149217 0.708270 0.725418
0.288267 0.708270 0.725418
0.423723 0.708270 0.725418
0.556896 0.708270 0.725418
0.688396 0.708270 0.725418
0.818579 0.708270 0.725418
0.947677 0.708270 0.725418
1.075852 0.708270 0.725418
0.000000 0.832709 0.725418
0.149217 0.832709 0.725418
0.288267 0.832709 0.725418
0.423723 0.832709 0.725418
0.556896 0.832709 0.725418
0.688396 0.832709 0.725418
0.818579 0.832709 0.725418
0.947677 0.832709 0.725418
1.075852 0.832709 0.725418
0.000000 0.958043 0.725418
0.149217 0.958043 0.725418
0.288267 0.958043 0.725418
0.423723 0.958043 0.725418
0.556896 0.958043 0.725418
0.688396 0.958043 0.725418
0.818579 0.958043 0.725418
0.947677 0.958043 0.725418
1.075852 0.958043 0.725418
0.000000 0.000000 0.854774
0.149217 0.000000 0.854774
0.288267 0.000000 0.854774
0.423723 0.000000 0.854774
0.556896 0.000000 0.854774
0.688396 0.000000 0.854774
0.818579 0.000000 0.854774
0.947677 0.000000 0.854774
1.075852 0.000000 0.854774
0.000000 0.107930 0.854774
0.149217 0.107930 0.854774
0.288267 0.107930 0.854774
0.423723 0.107930 0.854774
0.556896 0.107930 0.854774
0.688396 0.107930 0.854774
0.818579 0.107930 0.854774
0.947677 0.107930 0.854774
1.075852 0.107930 0.854774
0.000000 0.223471 0.854774
0.149217 0.223471 0.854774
0.288267 0.223471 0.854774
0.423723 0.223471 0.854774
0.556896 0.223471 0.854774
0.688396 0.223471 0.854774
0.818579 0.223471 0.854774
0.947677 0.223471 0.854774
1.075852 0.223471 0.854774
0.000000 0.342072 0.854774
0.149217 0.342072 0.854774
0.288267 0.342072 0.854774
0.423723 0.342072 0.854774
0.556896 0.342072 0.854774
0.688396 0.342072 0.854774
0.818579 0.342072 0.854774
0.947677 0.342072 0.854774
1.075852 0.342072 0.854774
0.000000 0.462704 0.854774
0.149217 0.462704 0.854774
0.288267 0.462704 0.854774
0.423723 0.462704 0.854774
0.556896 0.462704 0.854774
0.688396 0.462704 0.854774
0.818579 0.462704 0.854774
0.947677 0.462704 0.854774
1.075852 0.462704 0.854774
0.000000 0.584869 0.854774
0.149217 0.584869 0.854774
0.288267 0.584869 0.854774
0.423723 0.584869 0.854774
0.556896 0.584869 0.854774
0.688396 0.584869 0.854774
0.818579 0.584869 0.854774
0.947677 0.584869 0.854774
1.075852 0.584869 0.854774
0.000000 0.708270 0.854774
0.149217 0.708270 0.854774
0.288267 0.708270 0.854774
0.423723 0.708270 0.854774
0.556896 0.708270 0.854774
0.688396 0.708270 0.854774
0.818579 0.708270 0.854774
0.947677 0.708270 0.854774
1.075852 0.708270 0.854774
0.000000 0.832709 0.854774
0.149217 0.832709 0.854774
0.288267 0.832709 0.854774
0.423723 0.832709 0.854774
0.556896 0.832709 0.854774
0.688396 0.832709 0.854774
0.818579 0.832709 0.854774
0.947677 0.832709 0.854774
1.075852 0.832709 0.854774
0.000000 0.958043 0.854774
0.149217 0.958043 0.854774
0.288267 0.958043 0.854774
0.423723 0.958043 0.854774
0.556896 0.958043 0.854774
0.688396 0.958043 0.854774
0.818579 0.958043 0.854774
0.947677 0.958043 0.854774
1.075852 0.958043 0.854774
0.000000 0.000000 0.981982
0.149217 0.000000 0.981982
0.288267 0.000000 0.981982
0.423723 0.000000 0.981982
0.556896 0.000000 0.981982
0.688396 0.000000 0.981982
0.818579 0.000000 0.981982
0.947677 0.000000 0.981982
1.075852 0.000000 0.981982
0.000000 0.107930 0.981982
0.149217 0.107930 0.981982
0.288267 0.107930 0.981982
0.423723 0.107930 0.981982
0.556896 0.107930 0.981982
0.688396 0.107930 0.981982
0.818579 0.107930 0.981982
0.947677 0.107930 0.981982
1.075852 0.107930 0.981982
0.000000 0.223471 0.981982
0.149217 0.223471 0.981982
0.288267 0.223471 0.981982
0.423723 0.223471 0.981982
0.556896 0.223471 0.981982
0.688396 0.223471 0.981982
0.818579 0.223471 0.981982
0.947677 0.223471 0.981982
1.075852 0.223471 0.981982
0.000000 0.342072 0.981982
0.149217 0.342072 0.981982
0.288267 0.342072 0.981982
0.423723 0.342072 0.981982
0.556896 0.342072 0.981982
0.688396 0.342072 0.981982
0.818579 0.342072 0.981982
0.947677 0.342072 0.981982
1.075852 0.342072 0.981982
0.000000 0.462704 0.981982
0.149217 0.462704 0.981982
0.288267 0.462704 0.981982
0.423723 0.462704 0.981982
0.556896 0.462704 0.981982
0.688396 0.462704 0.981982
0.818579 0.462704 0.981982
0.947677 0.462704 0.981982
1.075852 0.462704 0.981982
0.000000 0.584869 0.981982
0.149217 0.584869 0.981982
0.288267 0.584869 0.981982
0.423723 0.584869 0.981982
0.556896 0.584869 0.981982
0.688396 0.584869 0.981982
0.818579 0.584869 0.981982
0.947677 0.584869 0.981982
1.075852 0.584869 0.981982
0.000000 0.708270 0.981982
0.149217 0.708270 0.981982
0.288267 0.708270 0.981982
0.423723 0.708270 0.981982
0.556896 0.708270 0.981982
0.688396 0.708270 0.981982
0.818579 0.708270 0.981982
0.947677 0.708270 0.981982
1.075852 0.708270 0.981982
0.000000 0.832709 0.981982
0.149217 0.832709 0.981982
0.288267 0.832709 0.981982
0.423723 0.832709 0.981982
0.556896 0.832709 0.981982
0.688396 0.832709 0.981982
0.818579 0.832709 0.981982
0.947677 0.832709 0.981982
1.075852 0.832709 0.981982
0.000000 0.958043 0.981982
0.149217 0.958043 0.981982
0.288267 0.958043 0.981982
0.423723 0.958043 0.981982
0.556896 0.958043 0.981982
0.688396 0.958043 0.981982
0.818579 0.958043 0.981982
0.947677 0.958043 0.981982
1.075852 0.958043 0.981982
0.000000 0.000000 1.107379
0.149217 0.000000 1.107379
0.288267 0.000000 1.107379
0.423723 0.000000 1.107379
0.556896 0.000000 1.107379
0.688396 0.000000 1.107379
0.818579 0.000000 1.107379
0.947677 0.000000 1.107379
1.075852 0.000000 1.107379
0.000000 0.107930 1.107379
0.149217 0.107930 1.107379
0.288267 0.107930 1.107379
0.423723 0.107930 1.107379
0.556896 0.107930 1.107379
0.688396 0.107930 1.107379
0.818579 0.107930 1.107379
0.947677 0.107930 1.107379
1.075852 0.107930 1.107379
0.000000 0.223471 1.107379
0.149217 0.223471 1.107379
0.288267 0.223471 1.107379
0.423723 0.223471 1.107379
0.556896 0.223471 1.107379
0.688396 0.223471 1.107379
0.818579 0.223471 1.107379
0.947677 0.223471 1.107379
1.075852 0.223471 1.107379
0.000000 0.342072 1.107379
0.149217 0.342072 1.107379
0.288267 0.342072 1.107379
0.423723 0.342072 1.107379
0.556896 0.342072 1.107379
0.688396 0.342072 1.107379
0.818579 0.342072 1.107379
0.947677 0.342072 1.107379
1.075852 0.342072 1.107379
0.000000 0.462704 1.107379
0.149217 0.462704 1.107379
0.288267 0.462704 1.107379
0.423723 0.462704 1.107379
0.556896 0.462704 1.107379
0.688396 0.462704 1.107379
0.818579 0.462704 1.107379
0.947677 0.462704 1.107379
1.075852 0.462704 1.107379
0.000000 0.584869 1.107379
0.149217 0.584869 1.107379
0.288267 0.584869 1.107379
0.423723 0.584869 1.107379
0.556896 0.584869 1.107379
0.688396 0.584869 1.107379
0.818579 0.584869 1.107379
0.947677 0.584869 1.107379
1.075852 0.584869 1.107379
0.000000 0.708270 1.107379
0.149217 0.708270 1.107379
0.288267 0.708270 1.107379
0.423723 0.708270 1.107379
0.556896 0.708270 1.107379
0.688396 0.708270 1.107379
0.818579 0.708270 1.107379
0.947677 0.708270 1.107379
1.075852 0.708270 1.107379
0.000000 0.832709 1.107379
0.149217 0.832709 1.107379
0.288267 0.832709 1.107379
0.423723 0.832709 1.107379
0.556896 0.832709 1.107379
0.688396 0.832709 1.107379
0.818579 0.832709 1.107379
0.947677 0.832709 1.107379
1.075852 0.832709 1.107379
0.000000 0.958043 1.107379
0.149217 0.958043 1.107379
0.288267 0.958043 1.107379
0.423723 0.958043 1.107379
0.556896 0.958043 1.107379
0.688396 0.958043 1.107379
0.818579 0.958043 1.107379
0.947677 0.958043 1.107379
1.075852 0.958043 1.107379
