samples/LUTs/3D/channel_separation/cdl_offset_power_split_33.cube
LUT_3D_SIZE 5
0.020000 -0.010000 0.039715
0.270000 -0.010000 0.039715
0.520000 -0.010000 0.039715
0.770000 -0.010000 0.039715
1.020000 -0.010000 0.039715
0.020000 0.214106 0.039715
0.270000 0.214106 0.039715
0.520000 0.214106 0.039715
0.770000 0.214106 0.039715
1.020000 0.214106 0.039715
0.020000 0.462820 0.039715
0.270000 0.462820 0.039715
0.520000 0.462820 0.039715
0.770000 0.462820 0.039715
1.020000 0.462820 0.039715
0.020000 0.722388 0.039715
0.270000 0.722388 0.039715
0.520000 0.722388 0.039715
0.770000 0.722388 0.039715
1.020000 0.722388 0.039715
0.020000 0.989204 0.039715
0.270000 0.989204 0.039715
0.520000 0.989204 0.039715
0.770000 0.989204 0.039715
1.020000 0.989204 0.039715
0.020000 -0.010000 0.310017
0.270000 -0.010000 0.310017
0.520000 -0.010000 0.310017
0.770000 -0.010000 0.310017
1.020000 -0.010000 0.310017
0.020000 0.214106 0.310017
0.270000 0.214106 0.310017
0.520000 0.214106 0.310017
0.770000 0.214106 0.310017
1.020000 0.214106 0.310017
0.020000 0.462820 0.310017
0.270000 0.462820 0.310017
0.520000 0.462820 0.310017
0.770000 0.462820 0.310017
1.020000 0.462820 0.310017
0.020000 0.722388 0.310017
0.270000 0.722388 0.310017
0.520000 0.722388 0.310017
0.770000 0.722388 0.310017
1.020000 0.722388 0.310017
0.020000 0.989204 0.310017
0.270000 0.989204 0.310017
0.520000 0.989204 0.310017
0.770000 0.989204 0.310017
1.020000 0.989204 0.310017
0.020000 -0.010000 0.557614
0.270000 -0.010000 0.557614
0.520000 -0.010000 0.557614
0.770000 -0.010000 0.557614
1.020000 -0.010000 0.557614
0.020000 0.214106 0.557614
0.270000 0.214106 0.557614
0.520000 0.214106 0.557614
0.770000 0.214106 0.557614
1.020000 0.214106 0.557614
0.020000 0.462820 0.557614
0.270000 0.462820 0.557614
0.520000 0.462820 0.557614
0.770000 0.462820 0.557614
1.020000 0.462820 0.557614
0.020000 0.722388 0.557614
0.270000 0.722388 0.557614
0.520000 0.722388 0.557614
0.770000 0.722388 0.557614
1.020000 0.722388 0.557614
0.020000 0.989204 0.557614
0.270000 0.989204 0.557614
0.520000 0.989204 0.557614
0.770000 0.989204 0.557614
1.020000 0.989204 0.557614
0.020000 -0.010000 0.795659
0.270000 -0.010000 0.795659
0.520000 -0.010000 0.795659
0.770000 -0.010000 0.795659
1.020000 -0.010000 0.795659
0.020000 0.214106 0.795659
0.270000 0.214106 0.795659
0.520000 0.214106 0.795659
0.770000 0.214106 0.795659
1.020000 0.214106 0.795659
0.020000 0.462820 0.795659
0.270000 0.462820 0.795659
0.520000 0.462820 0.795659
0.770000 0.462820 0.795659
1.020000 0.462820 0.795659
0.020000 0.722388 0.795659
0.270000 0.722388 0.795659
0.520000 0.722388 0.795659
0.770000 0.722388 0.795659
1.020000 0.722388 0.795659
0.020000 0.989204 0.795659
0.270000 0.989204 0.795659
0.520000 0.989204 0.795659
0.770000 0.989204 0.795659
1.020000 0.989204 0.795659
0.020000 -0.010000 1.027567
0.270000 -0.010000 1.027567
0.520000 -0.010000 1.027567
0.770000 -0.010000 1.027567
1.020000 -0.010000 1.027567
0.020000 0.214106 1.027567
0.270000 0.214106 1.027567
0.520000 0.214106 1.027567
0.770000 0.214106 1.027567
1.020000 0.214106 1.027567
0.020000 0.462820 1.027567
0.270000 0.462820 1.027567
0.520000 0.462820 1.027567
0.770000 0.462820 1.027567
1.020000 0.462820 1.027567
0.020000 0.722388 1.027567
0.270000 0.722388 1.027567
0.520000 0.722388 1.027567
0.770000 0.722388 1.027567
1.020000 0.722388 1.027567
0.020000 0.989204 1.027567
0.270000 0.989204 1.027567
0.520000 0.989204 1.027567
0.770000 0.989204 1.027567
1.020000 0.989204 1.027567
